; LightBurn 1.3.01
; GRBL device profile, absolute coords
; Bounds: X132.52 Y66.89 to X167.52 Y116.89
G00 G17 G40 G21 G54
G90
M4
; Cut @ 4000.002 mm/min, 0.2% power
M9
G0 X132.522Y66.893
; Layer frame finder
G1 X137.522S2F4000
G1 Y67.893
G1 X142.522
G1 Y68.397
G1 X147.522
G1 Y68.893
G1 X152.522
G1 Y69.893
G1 X157.522
G1 Y70.893
G1 X162.522
G1 Y71.893
G1 X167.522
G1 Y116.893
G1 X132.522
G1 Y66.893
; Cut @ 1000.002 mm/min, 100% power
M9
G0 X132.522Y66.893
; Layer C09 Pass 1 of 3
G1 X137.522S1000F1000
G1 Y67.893
G1 X142.522
G1 Y68.397
G1 X147.522
G1 Y68.893
G1 X152.522
G1 Y69.893
G1 X157.522
G1 Y70.893
G1 X162.522
G1 Y71.893
G1 X167.522
G1 Y116.893
G1 X132.522
G1 Y66.893
; Layer C09 Pass 2 of 3
G1 X137.522
G1 Y67.893
G1 X142.522
G1 Y68.397
G1 X147.522
G1 Y68.893
G1 X152.522
G1 Y69.893
G1 X157.522
G1 Y70.893
G1 X162.522
G1 Y71.893
G1 X167.522
G1 Y116.893
G1 X132.522
G1 Y66.893
; Layer C09 Pass 3 of 3
G1 X137.522
G1 Y67.893
G1 X142.522
G1 Y68.397
G1 X147.522
G1 Y68.893
G1 X152.522
G1 Y69.893
G1 X157.522
G1 Y70.893
G1 X162.522
G1 Y71.893
G1 X167.522
G1 Y116.893
G1 X132.522
G1 Y66.893
; Cut @ 1000.002 mm/min, 25% power
M9
G0 X137.522Y66.893
; Layer C11
G1 Y116.893S250
G0 X136.027Y115.238
G1 X135.912Y115.281
G1 X135.874
G1 X135.839Y115.233
G1 X135.853Y115.181
G1 X135.889Y115.159
G1 X136.119Y115.066
G1 X135.023
G1 X133.929
G1 X133.961Y115.079
G1 X134.125Y115.143
G1 X134.173Y115.164
G1 X134.196Y115.178
G1 Y115.193
G1 X134.214Y115.22
G1 Y115.248
G1 X134.195Y115.263
G1 X134.177Y115.275
G1 X134.151
G1 X134.114
G1 X133.642Y115.089
G1 X133.562Y115.055
G1 X133.534Y115.037
G1 Y115.02
G1 Y114.98
G1 X133.546Y114.952
G1 X133.825Y114.839
G1 X134.13Y114.721
G1 X134.153
G1 X134.176
G1 X134.21Y114.759
G1 Y114.806
G1 X134.173Y114.835
G1 X133.963Y114.92
G1 X133.929Y114.937
G1 X136.041
G1 X136.111
G1 X135.865Y114.831
G1 X135.845Y114.808
G1 Y114.779
G1 X135.861Y114.732
G1 X135.912Y114.718
G1 X135.95Y114.732
G1 X136.452Y114.928
G1 X136.504Y114.952
G1 X136.521Y114.978
G1 Y115.013
G1 Y115.034
G1 X136.483Y115.057
G1 X136.444Y115.074
G1 X136.027Y115.238
G0 X138.527Y115.02
G1 Y114.98
G1 X138.545Y114.952
G1 X138.824Y114.839
G1 X139.13Y114.721
G1 X139.153
G1 X139.176
G1 X139.21Y114.759
G1 Y114.806
G1 X139.173Y114.835
G1 X138.963Y114.92
G1 X138.928Y114.937
G1 X141.041
G1 X141.111
G1 X140.865Y114.831
G1 X140.845Y114.808
G1 Y114.779
G1 X140.861Y114.732
G1 X140.912Y114.718
G1 X140.95Y114.732
G1 X141.452Y114.928
G1 X141.504Y114.952
G1 X141.521Y114.978
G1 Y115.013
G1 Y115.034
G1 X141.482Y115.057
G1 X141.444Y115.074
G1 X141.027Y115.238
G1 X140.912Y115.281
G1 X140.874
G1 X140.838Y115.233
G1 X140.853Y115.181
G1 X140.889Y115.159
G1 X141.118Y115.066
G1 X140.022
G1 X138.928
G1 X138.96Y115.079
G1 X139.125Y115.143
G1 X139.173Y115.164
G1 X139.196Y115.178
G1 Y115.193
G1 X139.213Y115.22
G1 Y115.248
G1 X139.194Y115.263
G1 X139.177Y115.275
G1 X139.15
G1 X139.114
G1 X138.642Y115.089
G1 X138.561Y115.055
G1 X138.534Y115.037
G1 Y115.02
G0 X139.206Y113.066
G1 X139.006Y112.981
G1 X138.833Y112.849
G1 X138.697Y112.675
G1 X138.627Y112.5
G1 X138.585Y112.318
G1 X138.572Y112.131
G1 X138.59Y111.943
G1 X138.634Y111.765
G1 X138.695Y111.628
G1 X138.779Y111.508
G1 X138.881Y111.407
G1 X138.999Y111.326
G1 X139.13Y111.268
G1 X139.27Y111.234
G1 X139.416
G1 X139.565Y111.246
G1 X139.78Y111.333
G1 X139.979Y111.449
G1 X140.16Y111.593
G1 X140.319Y111.762
G1 X140.841Y112.362
G1 X140.922Y112.451
G1 X141.042Y112.566
G1 X141.177Y112.664
G1 Y111.224
G1 X141.524
G1 Y113.165
G1 X141.278Y113.112
G1 X141.05Y113.013
G1 X140.847Y112.869
G1 X140.675Y112.686
G1 X140.459Y112.443
G1 X140.252Y112.194
G1 X139.962Y111.877
G1 X139.818Y111.763
G1 X139.659Y111.673
G1 X139.486Y111.609
G1 X139.305
G1 X139.138Y111.66
G1 X139.002Y111.772
G1 X138.91Y111.928
G1 X138.877Y112.037
G1 X138.865Y112.149
G1 Y112.261
G1 X138.907Y112.37
G1 X138.959Y112.471
G1 X139.03Y112.558
G1 X139.116Y112.631
G1 X139.216Y112.686
G1 X139.338Y112.716
G1 X139.463Y112.726
G1 X139.424Y113.097
G1 X139.206Y113.066
G0 X136.143Y112.466
G1 X136.211Y112.286
G1 Y112.086
G1 X136.112Y111.918
G1 X135.977Y111.787
G1 X135.81Y111.699
G1 X135.621Y111.661
G1 X135.267Y111.621
G1 X134.911
G1 X134.557Y111.647
G1 X134.207Y111.714
G1 X134.027Y111.802
G1 X133.898Y111.946
G1 X133.829Y112.127
G1 Y112.327
G1 X133.884Y112.45
G1 X133.964Y112.555
G1 X134.069Y112.635
G1 X134.192Y112.687
G1 X134.599Y112.769
G1 X135.012Y112.798
G1 X135.425Y112.774
G1 X135.833Y112.697
G1 X136.013Y112.61
G1 X136.143Y112.466
G0 X136.5Y112.406
G1 X136.391Y112.657
G1 X136.218Y112.862
G1 X135.995Y113.01
G1 X135.733Y113.09
G1 X135.306Y113.158
G1 X134.876
G1 X134.449Y113.11
G1 X134.033Y112.995
G1 X133.794Y112.845
G1 X133.623Y112.631
G1 X133.53Y112.372
G1 Y112.091
G1 X133.544Y111.983
G1 X133.62Y111.787
G1 X133.741Y111.618
G1 X133.899Y111.484
G1 X134.089Y111.393
G1 X134.564Y111.277
G1 X135.048Y111.243
G1 X135.532Y111.288
G1 X136.004Y111.414
G1 X136.141Y111.486
G1 X136.26Y111.58
G1 X136.359Y111.691
G1 X136.436Y111.818
G1 X136.491Y111.956
G1 X136.521Y112.102
G1 Y112.253
G1 X136.5Y112.406
G0 X135.587Y110.922
G1 X135.225
G1 Y109.814
G1 X135.587
G1 Y110.922
G0 X134.606Y109.239
G1 X134.257
G1 X134.1Y108.956
G1 X133.984Y108.787
G1 X133.848Y108.635
G1 X133.692Y108.502
G1 X133.52Y108.39
G1 Y108.158
G1 X136.469
G1 Y108.518
G1 X134.171
G1 X134.296Y108.669
G1 X134.469Y108.944
G1 X134.606Y109.239
G0 X134.342Y107.134
G1 Y106.812
G1 X134.64
G1 X134.499Y106.695
G1 X134.406Y106.578
G1 X134.339Y106.449
G1 X134.3Y106.312
G1 X134.288Y106.171
G1 X134.303Y106.03
G1 X134.345Y105.893
G1 X134.414Y105.765
G1 X134.509Y105.65
G1 X134.584Y105.602
G1 X134.666Y105.566
G1 X134.503Y105.43
G1 X134.393Y105.285
G1 X134.322Y105.119
G1 X134.292Y104.942
G1 X134.305Y104.76
G1 X134.363Y104.568
G1 X134.48Y104.413
G1 X134.643Y104.307
G1 X134.838Y104.263
G1 X135.009Y104.252
G1 X136.469
G1 Y104.611
G1 X135.129
G1 X134.999
G1 X134.875Y104.63
G1 X134.761Y104.687
G1 X134.664Y104.773
G1 X134.613Y104.925
G1 Y105.082
G1 X134.66Y105.232
G1 X134.755Y105.362
G1 X134.862Y105.434
G1 X134.98Y105.483
G1 X135.104Y105.509
G1 X135.233
G1 X136.469
G1 Y105.87
G1 X135.087
G1 X134.954
G1 X134.83Y105.902
G1 X134.721Y105.973
G1 X134.636Y106.075
G1 X134.606Y106.228
G1 X134.622Y106.38
G1 X134.683Y106.521
G1 X134.785Y106.64
G1 X134.92Y106.71
G1 X135.064Y106.756
G1 X135.213Y106.777
G1 X135.365
G1 X136.469
G1 Y107.134
G1 X134.342
G0 X139.396Y106.998
G1 X139.695
G1 X139.554Y106.881
G1 X139.46Y106.765
G1 X139.394Y106.635
G1 X139.355Y106.498
G1 X139.343Y106.357
G1 X139.357Y106.216
G1 X139.399Y106.079
G1 X139.468Y105.952
G1 X139.564Y105.837
G1 X139.639Y105.788
G1 X139.721Y105.752
G1 X139.558Y105.617
G1 X139.448Y105.471
G1 X139.377Y105.306
G1 X139.346Y105.128
G1 X139.359Y104.946
G1 X139.417Y104.755
G1 X139.535Y104.599
G1 X139.698Y104.493
G1 X139.893Y104.449
G1 X140.063Y104.438
G1 X141.524
G1 Y104.797
G1 X140.183
G1 X140.054
G1 X139.929Y104.816
G1 X139.816Y104.873
G1 X139.719Y104.959
G1 X139.668Y105.112
G1 Y105.269
G1 X139.715Y105.418
G1 X139.81Y105.548
G1 X139.917Y105.62
G1 X140.034Y105.669
G1 X140.159Y105.695
G1 X140.288
G1 X141.524
G1 Y106.057
G1 X140.141
G1 X140.009
G1 X139.884Y106.089
G1 X139.775Y106.159
G1 X139.691Y106.261
G1 X139.66Y106.415
G1 X139.677Y106.567
G1 X139.737Y106.707
G1 X139.839Y106.826
G1 X139.974Y106.896
G1 X140.118Y106.942
G1 X140.268Y106.964
G1 X140.42
G1 X141.524
G1 Y107.321
G1 X139.396
G1 Y106.998
G0 X139.893Y107.866
G1 X140.063Y107.855
G1 X141.524
G1 Y108.214
G1 X140.183
G1 X140.054
G1 X139.929Y108.233
G1 X139.816Y108.29
G1 X139.719Y108.376
G1 X139.668Y108.529
G1 Y108.686
G1 X139.715Y108.835
G1 X139.81Y108.965
G1 X139.917Y109.037
G1 X140.034Y109.086
G1 X140.159Y109.112
G1 X140.288
G1 X141.524
G1 Y109.473
G1 X140.141
G1 X140.009
G1 X139.884Y109.506
G1 X139.776Y109.576
G1 X139.691Y109.678
G1 X139.66Y109.831
G1 X139.677Y109.984
G1 X139.737Y110.124
G1 X139.839Y110.243
G1 X139.974Y110.313
G1 X140.118Y110.359
G1 X140.268Y110.381
G1 X140.42
G1 X141.524
G1 Y110.737
G1 X139.396
G1 Y110.415
G1 X139.695
G1 X139.554Y110.298
G1 X139.46Y110.182
G1 X139.394Y110.052
G1 X139.355Y109.915
G1 X139.343Y109.774
G1 X139.357Y109.633
G1 X139.399Y109.496
G1 X139.468Y109.369
G1 X139.564Y109.253
G1 X139.639Y109.205
G1 X139.721Y109.169
G1 X139.558Y109.034
G1 X139.448Y108.888
G1 X139.377Y108.723
G1 X139.346Y108.545
G1 X139.359Y108.363
G1 X139.417Y108.172
G1 X139.535Y108.016
G1 X139.698Y107.91
G1 X139.893Y107.866
G0 X144.308Y108.411
G1 X144.366Y108.22
G1 X144.484Y108.065
G1 X144.647Y107.958
G1 X144.842Y107.914
G1 X145.012Y107.903
G1 X146.473
G1 Y108.262
G1 X145.132
G1 X145.003
G1 X144.878Y108.281
G1 X144.765Y108.338
G1 X144.668Y108.424
G1 X144.617Y108.577
G1 Y108.734
G1 X144.664Y108.883
G1 X144.759Y109.013
G1 X144.866Y109.085
G1 X144.983Y109.134
G1 X145.108Y109.16
G1 X145.237
G1 X146.473
G1 Y109.522
G1 X145.09
G1 X144.958
G1 X144.833Y109.554
G1 X144.725Y109.624
G1 X144.64Y109.726
G1 X144.609Y109.879
G1 X144.626Y110.032
G1 X144.686Y110.172
G1 X144.788Y110.291
G1 X144.923Y110.361
G1 X145.067Y110.407
G1 X145.217Y110.429
G1 X145.369
G1 X146.473
G1 Y110.785
G1 X144.345
G1 Y110.463
G1 X144.644
G1 X144.503Y110.347
G1 X144.409Y110.23
G1 X144.343Y110.1
G1 X144.304Y109.963
G1 X144.292Y109.822
G1 X144.306Y109.681
G1 X144.348Y109.544
G1 X144.417Y109.417
G1 X144.513Y109.302
G1 X144.588Y109.253
G1 X144.67Y109.217
G1 X144.507Y109.082
G1 X144.397Y108.936
G1 X144.326Y108.771
G1 X144.295Y108.593
G1 X144.308Y108.411
G0 X144.345Y107.369
G1 Y107.046
G1 X144.644
G1 X144.503Y106.93
G1 X144.409Y106.813
G1 X144.343Y106.683
G1 X144.304Y106.546
G1 X144.292Y106.405
G1 X144.307Y106.264
G1 X144.348Y106.128
G1 X144.417Y106
G1 X144.513Y105.885
G1 X144.588Y105.836
G1 X144.67Y105.8
G1 X144.507Y105.665
G1 X144.397Y105.519
G1 X144.326Y105.354
G1 X144.295Y105.176
G1 X144.308Y104.994
G1 X144.366Y104.803
G1 X144.484Y104.648
G1 X144.647Y104.542
G1 X144.842Y104.497
G1 X145.012Y104.486
G1 X146.473
G1 Y104.845
G1 X145.132
G1 X145.003
G1 X144.878Y104.864
G1 X144.765Y104.921
G1 X144.668Y105.007
G1 X144.617Y105.16
G1 Y105.317
G1 X144.664Y105.466
G1 X144.759Y105.596
G1 X144.866Y105.668
G1 X144.983Y105.717
G1 X145.108Y105.743
G1 X145.237
G1 X146.473
G1 Y106.105
G1 X145.09
G1 X144.958
G1 X144.833Y106.137
G1 X144.724Y106.207
G1 X144.64Y106.309
G1 X144.609Y106.463
G1 X144.626Y106.615
G1 X144.686Y106.755
G1 X144.788Y106.874
G1 X144.923Y106.944
G1 X145.067Y106.99
G1 X145.217Y107.012
G1 X145.369
G1 X146.473
G1 Y107.369
G1 X144.345
G0 X149.397Y107.249
G1 Y106.926
G1 X149.695
G1 X149.554Y106.809
G1 X149.461Y106.693
G1 X149.394Y106.563
G1 X149.355Y106.426
G1 X149.343Y106.285
G1 X149.358Y106.144
G1 X149.4Y106.007
G1 X149.469Y105.88
G1 X149.564Y105.764
G1 X149.639Y105.716
G1 X149.721Y105.68
G1 X149.558Y105.545
G1 X149.448Y105.399
G1 X149.377Y105.234
G1 X149.347Y105.056
G1 X149.36Y104.874
G1 X149.418Y104.683
G1 X149.535Y104.527
G1 X149.698Y104.421
G1 X149.893Y104.377
G1 X150.064Y104.366
G1 X151.524
G1 Y104.725
G1 X150.184
G1 X150.054
G1 X149.93Y104.744
G1 X149.816Y104.801
G1 X149.719Y104.887
G1 X149.668Y105.04
G1 Y105.197
G1 X149.715Y105.346
G1 X149.81Y105.476
G1 X149.917Y105.548
G1 X150.035Y105.597
G1 X150.159Y105.623
G1 X150.288
G1 X151.524
G1 Y105.985
G1 X150.142
G1 X150.009
G1 X149.885Y106.017
G1 X149.776Y106.087
G1 X149.691Y106.189
G1 X149.661Y106.343
G1 X149.677Y106.495
G1 X149.738Y106.635
G1 X149.84Y106.754
G1 X149.975Y106.824
G1 X150.119Y106.87
G1 X150.268Y106.892
G1 X150.42
G1 X151.524
G1 Y107.249
G1 X149.397
G0 X149.698Y107.838
G1 X149.893Y107.794
G1 X150.064Y107.783
G1 X151.524
G1 Y108.142
G1 X150.184
G1 X150.054
G1 X149.93Y108.161
G1 X149.816Y108.218
G1 X149.719Y108.304
G1 X149.668Y108.457
G1 Y108.614
G1 X149.715Y108.763
G1 X149.81Y108.893
G1 X149.917Y108.965
G1 X150.035Y109.014
G1 X150.159Y109.04
G1 X150.288
G1 X151.524
G1 Y109.401
G1 X150.142
G1 X150.009
G1 X149.885Y109.434
G1 X149.776Y109.504
G1 X149.691Y109.606
G1 X149.661Y109.759
G1 X149.677Y109.912
G1 X149.738Y110.052
G1 X149.84Y110.171
G1 X149.975Y110.241
G1 X150.119Y110.287
G1 X150.268Y110.309
G1 X150.42
G1 X151.524
G1 Y110.665
G1 X149.397
G1 Y110.343
G1 X149.695
G1 X149.554Y110.226
G1 X149.461Y110.109
G1 X149.394Y109.98
G1 X149.355Y109.843
G1 X149.343Y109.702
G1 X149.358Y109.561
G1 X149.4Y109.424
G1 X149.469Y109.297
G1 X149.564Y109.181
G1 X149.639Y109.133
G1 X149.721Y109.097
G1 X149.558Y108.962
G1 X149.448Y108.816
G1 X149.377Y108.65
G1 X149.347Y108.473
G1 X149.36Y108.291
G1 X149.418Y108.1
G1 X149.535Y107.944
G1 X149.698Y107.838
G0 X154.306Y108.383
G1 X154.364Y108.192
G1 X154.482Y108.037
G1 X154.645Y107.931
G1 X154.84Y107.886
G1 X155.01Y107.876
G1 X156.47
G1 Y108.234
G1 X155.13
G1 X155.001
G1 X154.876Y108.253
G1 X154.762Y108.31
G1 X154.666Y108.396
G1 X154.614Y108.549
G1 Y108.706
G1 X154.662Y108.855
G1 X154.757Y108.985
G1 X154.863Y109.057
G1 X154.981Y109.106
G1 X155.106Y109.132
G1 X155.235
G1 X156.47
G1 Y109.494
G1 X155.088
G1 X154.956
G1 X154.831Y109.526
G1 X154.722Y109.596
G1 X154.638Y109.698
G1 X154.607Y109.852
G1 X154.624Y110.004
G1 X154.684Y110.145
G1 X154.786Y110.263
G1 X154.921Y110.333
G1 X155.065Y110.379
G1 X155.215Y110.401
G1 X155.367
G1 X156.47
G1 Y110.758
G1 X154.343
G1 Y110.435
G1 X154.641
G1 X154.501Y110.319
G1 X154.407Y110.202
G1 X154.341Y110.073
G1 X154.302Y109.935
G1 X154.289Y109.794
G1 X154.304Y109.653
G1 X154.346Y109.517
G1 X154.415Y109.389
G1 X154.511Y109.274
G1 X154.586Y109.225
G1 X154.668Y109.189
G1 X154.505Y109.054
G1 X154.395Y108.908
G1 X154.324Y108.743
G1 X154.293Y108.565
G1 X154.306Y108.383
G0 X154.343Y107.341
G1 Y107.018
G1 X154.641
G1 X154.501Y106.902
G1 X154.407Y106.785
G1 X154.341Y106.656
G1 X154.302Y106.518
G1 X154.289Y106.377
G1 X154.304Y106.236
G1 X154.346Y106.1
G1 X154.415Y105.972
G1 X154.511Y105.857
G1 X154.586Y105.808
G1 X154.668Y105.773
G1 X154.505Y105.637
G1 X154.395Y105.491
G1 X154.323Y105.326
G1 X154.293Y105.148
G1 X154.306Y104.966
G1 X154.364Y104.775
G1 X154.482Y104.62
G1 X154.645Y104.514
G1 X154.84Y104.469
G1 X155.01Y104.459
G1 X156.47
G1 Y104.817
G1 X155.13
G1 X155.001
G1 X154.876Y104.836
G1 X154.762Y104.893
G1 X154.666Y104.979
G1 X154.614Y105.132
G1 Y105.289
G1 X154.662Y105.438
G1 X154.757Y105.568
G1 X154.863Y105.64
G1 X154.981Y105.689
G1 X155.106Y105.715
G1 X155.235
G1 X156.47
G1 Y106.077
G1 X155.088
G1 X154.956
G1 X154.831Y106.109
G1 X154.722Y106.179
G1 X154.638Y106.281
G1 X154.607Y106.435
G1 X154.624Y106.587
G1 X154.684Y106.728
G1 X154.786Y106.846
G1 X154.921Y106.916
G1 X155.065Y106.962
G1 X155.215Y106.984
G1 X155.367
G1 X156.47
G1 Y107.341
G1 X154.343
G0 X159.347Y107.363
G1 Y107.04
G1 X159.645
G1 X159.504Y106.924
G1 X159.411Y106.807
G1 X159.345Y106.678
G1 X159.305Y106.54
G1 X159.293Y106.399
G1 X159.308Y106.258
G1 X159.35Y106.122
G1 X159.419Y105.994
G1 X159.515Y105.879
G1 X159.59Y105.83
G1 X159.671Y105.795
G1 X159.508Y105.659
G1 X159.398Y105.513
G1 X159.327Y105.348
G1 X159.297Y105.17
G1 X159.31Y104.988
G1 X159.368Y104.797
G1 X159.485Y104.642
G1 X159.648Y104.536
G1 X159.844Y104.491
G1 X160.014Y104.481
G1 X161.474
G1 Y104.839
G1 X160.134
G1 X160.005
G1 X159.88Y104.858
G1 X159.766Y104.915
G1 X159.669Y105.001
G1 X159.618Y105.154
G1 Y105.311
G1 X159.666Y105.46
G1 X159.761Y105.59
G1 X159.867Y105.662
G1 X159.985Y105.711
G1 X160.11Y105.737
G1 X160.238
G1 X161.474
G1 Y106.099
G1 X160.092
G1 X159.96
G1 X159.835Y106.131
G1 X159.726Y106.201
G1 X159.641Y106.303
G1 X159.611Y106.457
G1 X159.627Y106.609
G1 X159.688Y106.75
G1 X159.79Y106.868
G1 X159.925Y106.938
G1 X160.069Y106.984
G1 X160.218Y107.006
G1 X160.37
G1 X161.474
G1 Y107.363
G1 X159.347
G0 X159.648Y107.953
G1 X159.844Y107.908
G1 X160.014Y107.898
G1 X161.474
G1 Y108.256
G1 X160.134
G1 X160.005
G1 X159.88Y108.275
G1 X159.766Y108.332
G1 X159.669Y108.418
G1 X159.618Y108.571
G1 Y108.728
G1 X159.666Y108.877
G1 X159.761Y109.007
G1 X159.867Y109.079
G1 X159.985Y109.128
G1 X160.11Y109.154
G1 X160.238
G1 X161.474
G1 Y109.516
G1 X160.092
G1 X159.96
G1 X159.835Y109.548
G1 X159.726Y109.618
G1 X159.641Y109.72
G1 X159.611Y109.874
G1 X159.627Y110.026
G1 X159.688Y110.167
G1 X159.79Y110.285
G1 X159.925Y110.355
G1 X160.069Y110.401
G1 X160.218Y110.423
G1 X160.37
G1 X161.474
G1 Y110.78
G1 X159.347
G1 Y110.457
G1 X159.645
G1 X159.504Y110.341
G1 X159.411Y110.224
G1 X159.345Y110.095
G1 X159.305Y109.957
G1 X159.293Y109.816
G1 X159.308Y109.675
G1 X159.35Y109.539
G1 X159.419Y109.411
G1 X159.515Y109.296
G1 X159.59Y109.247
G1 X159.671Y109.211
G1 X159.508Y109.076
G1 X159.398Y108.93
G1 X159.327Y108.765
G1 X159.297Y108.587
G1 X159.31Y108.405
G1 X159.368Y108.214
G1 X159.485Y108.059
G1 X159.648Y107.953
G0 X164.288Y107.815
G1 X164.303Y107.674
G1 X164.345Y107.538
G1 X164.413Y107.41
G1 X164.509Y107.295
G1 X164.584Y107.246
G1 X164.666Y107.211
G1 X164.503Y107.075
G1 X164.393Y106.929
G1 X164.322Y106.764
G1 X164.292Y106.586
G1 X164.304Y106.404
G1 X164.362Y106.213
G1 X164.48Y106.058
G1 X164.643Y105.952
G1 X164.838Y105.907
G1 X165.008Y105.897
G1 X166.469
G1 Y106.255
G1 X165.129
G1 X164.999
G1 X164.875Y106.274
G1 X164.761Y106.331
G1 X164.664Y106.417
G1 X164.613Y106.57
G1 Y106.727
G1 X164.66Y106.876
G1 X164.755Y107.006
G1 X164.862Y107.078
G1 X164.979Y107.127
G1 X165.104Y107.153
G1 X165.233
G1 X166.469
G1 Y107.515
G1 X165.087
G1 X164.954
G1 X164.829Y107.547
G1 X164.721Y107.617
G1 X164.636Y107.719
G1 X164.605Y107.873
G1 X164.622Y108.025
G1 X164.683Y108.166
G1 X164.785Y108.284
G1 X164.92Y108.354
G1 X165.063Y108.4
G1 X165.213Y108.422
G1 X165.365
G1 X166.469
G1 Y108.779
G1 X164.341
G1 Y108.456
G1 X164.64
G1 X164.499Y108.34
G1 X164.405Y108.223
G1 X164.339Y108.094
G1 X164.3Y107.956
G1 X164.288Y107.815
G0 X164.557Y109.645
G1 X164.207Y109.711
G1 X164.027Y109.799
G1 X163.897Y109.943
G1 X163.829Y110.124
G1 Y110.325
G1 X163.884Y110.448
G1 X163.964Y110.552
G1 X164.068Y110.633
G1 X164.192Y110.685
G1 X164.599Y110.767
G1 X165.012Y110.796
G1 X165.425Y110.772
G1 X165.833Y110.694
G1 X166.013Y110.607
G1 X166.142Y110.464
G1 X166.211Y110.283
G1 Y110.083
G1 X166.112Y109.916
G1 X165.977Y109.785
G1 X165.81Y109.697
G1 X165.621Y109.658
G1 X165.267Y109.618
G1 X164.911
G1 X164.557Y109.645
G0 X164.564Y109.275
G1 X165.048Y109.24
G1 X165.532Y109.285
G1 X166.004Y109.411
G1 X166.141Y109.483
G1 X166.26Y109.577
G1 X166.359Y109.689
G1 X166.436Y109.815
G1 X166.491Y109.953
G1 X166.521Y110.099
G1 Y110.251
G1 X166.5Y110.404
G1 X166.391Y110.655
G1 X166.218Y110.86
G1 X165.994Y111.008
G1 X165.733Y111.087
G1 X165.306Y111.156
G1 X164.876
G1 X164.449Y111.108
G1 X164.033Y110.993
G1 X163.794Y110.843
G1 X163.623Y110.628
G1 X163.529Y110.37
G1 Y110.088
G1 X163.544Y109.981
G1 X163.62Y109.784
G1 X163.741Y109.616
G1 X163.899Y109.482
G1 X164.089Y109.39
G1 X164.564Y109.275
G0 X163.52Y112.083
G1 X166.469
G1 Y112.444
G1 X164.171
G1 X164.295Y112.594
G1 X164.469Y112.87
G1 X164.606Y113.165
G1 X164.257
G1 X164.1Y112.881
G1 X163.984Y112.712
G1 X163.847Y112.56
G1 X163.692Y112.427
G1 X163.52Y112.316
G1 Y112.083
G0 X161.217Y112.07
G1 X161.147Y111.877
G1 X161.016Y111.726
G1 X160.842Y111.629
G1 X160.639Y111.599
G1 X160.519
G1 X160.405Y111.641
G1 X160.3Y111.697
G1 X160.208Y111.773
G1 X160.132Y111.866
G1 X160.078Y111.972
G1 X160.046Y112.086
G1 Y112.206
G1 Y112.327
G1 X160.144Y112.545
G1 X160.31Y112.704
G1 X160.523Y112.788
G1 X160.762
G1 X160.98Y112.687
G1 X161.138Y112.521
G1 X161.222Y112.308
G1 Y112.07
G0 X159.742Y112.113
G1 X159.678Y111.939
G1 X159.551Y111.805
G1 X159.382Y111.729
G1 X159.219
G1 X159.068Y111.775
G1 X158.942Y111.873
G1 X158.856Y112.012
G1 X158.824Y112.154
G1 Y112.298
G1 X158.885Y112.451
G1 X158.987Y112.572
G1 X159.123Y112.651
G1 X159.283Y112.68
G1 X159.443Y112.651
G1 X159.579Y112.572
G1 X159.68Y112.451
G1 X159.735Y112.298
G1 Y112.113
G0 X159.882Y111.783
G1 X159.932Y111.656
G1 X160.088Y111.441
G1 X160.301Y111.295
G1 X160.551Y111.227
G1 X160.815Y111.247
G1 X160.973Y111.297
G1 X161.115Y111.374
G1 X161.24Y111.473
G1 X161.346Y111.591
G1 X161.429Y111.726
G1 X161.488Y111.874
G1 X161.521Y112.032
G1 Y112.198
G1 Y112.383
G1 X161.476Y112.562
G1 X161.397Y112.729
G1 X161.286Y112.878
G1 X161.146Y113
G1 X160.985Y113.09
G1 X160.81Y113.146
G1 X160.625Y113.165
G1 X160.371Y113.135
G1 X160.15Y113.022
G1 X159.981Y112.841
G1 X159.882Y112.606
G1 X159.836Y112.711
G1 X159.68Y112.906
G1 X159.469Y113.023
G1 X159.229Y113.054
G1 X158.988Y112.989
G1 X158.785Y112.854
G1 X158.635Y112.668
G1 X158.546Y112.447
G1 X158.526Y112.203
G1 X158.54Y112.021
G1 X158.582Y111.857
G1 X158.641Y111.724
G1 X158.722Y111.609
G1 X158.822Y111.513
G1 X158.938Y111.438
G1 X159.065Y111.384
G1 X159.2Y111.355
G1 X159.341
G1 X159.484Y111.377
G1 X159.618Y111.44
G1 X159.733Y111.531
G1 X159.822Y111.647
G1 X159.882Y111.783
G0 X156.22Y112.076
G1 X156.162Y111.898
G1 X156.04Y111.749
G1 X155.914Y111.665
G1 X155.779Y111.609
G1 X155.637Y111.581
G1 X155.494
G1 X155.353Y111.603
G1 X155.218Y111.654
G1 X155.093Y111.731
G1 X154.983Y111.833
G1 X154.927Y111.935
G1 X154.894Y112.044
G1 X154.883Y112.158
G1 X154.895Y112.273
G1 X154.978Y112.47
G1 X155.121Y112.622
G1 X155.306Y112.716
G1 X155.519Y112.74
G1 X155.698Y112.727
G1 X155.866Y112.67
G1 X156.014Y112.573
G1 X156.135Y112.44
G1 X156.212Y112.263
G1 Y112.076
G0 X156.522Y112.095
G1 Y112.258
G1 X156.483Y112.416
G1 X156.423Y112.567
G1 X156.339Y112.706
G1 X156.231Y112.831
G1 X156.099Y112.937
G1 X155.812Y113.058
G1 X155.511Y113.134
G1 X155.202Y113.165
G1 X154.617Y113.135
G1 X154.35Y113.078
G1 X154.095Y112.979
G1 X153.858Y112.841
G1 X153.688Y112.653
G1 X153.574Y112.432
G1 X153.522Y112.189
G1 X153.534Y111.936
G1 X153.617Y111.682
G1 X153.775Y111.475
G1 X153.993Y111.332
G1 X154.253Y111.268
G1 X154.281Y111.627
G1 X154.098Y111.685
G1 X153.951Y111.79
G1 X153.855Y111.936
G1 X153.816Y112.107
G1 X153.842Y112.285
G1 X153.967Y112.479
G1 X154.136Y112.629
G1 X154.339Y112.728
G1 X154.566Y112.769
G1 X154.76Y112.79
G1 X154.956
G1 X154.81Y112.679
G1 X154.694Y112.535
G1 X154.614Y112.368
G1 X154.571Y112.185
G1 Y112.013
G1 X154.6Y111.848
G1 X154.661Y111.694
G1 X154.749Y111.556
G1 X154.862Y111.437
G1 X154.996Y111.341
G1 X155.148Y111.271
G1 X155.316Y111.232
G1 X155.487Y111.209
G1 X155.656
G1 X155.82Y111.248
G1 X155.975Y111.307
G1 X156.119Y111.39
G1 X156.248Y111.496
G1 X156.359Y111.623
G1 X156.449Y111.771
G1 X156.5Y111.932
G1 X156.522Y112.095
G0 X155.91Y114.718
G1 X155.949Y114.732
G1 X156.451Y114.928
G1 X156.502Y114.952
G1 X156.52Y114.978
G1 Y115.013
G1 Y115.034
G1 X156.481Y115.057
G1 X156.443Y115.074
G1 X156.026Y115.238
G1 X155.91Y115.281
G1 X155.873
G1 X155.837Y115.233
G1 X155.852Y115.181
G1 X155.888Y115.159
G1 X156.117Y115.066
G1 X155.021
G1 X153.927
G1 X153.959Y115.079
G1 X154.123Y115.143
G1 X154.172Y115.164
G1 X154.194Y115.178
G1 X154.204Y115.193
G1 Y115.22
G1 Y115.248
G1 X154.193Y115.263
G1 X154.175Y115.275
G1 X154.149
G1 X154.112
G1 X153.64Y115.089
G1 X153.56Y115.055
G1 X153.533Y115.037
G1 Y115.02
G1 Y114.98
G1 X153.544Y114.952
G1 X153.823Y114.839
G1 X154.129Y114.721
G1 X154.152
G1 X154.174
G1 X154.208Y114.759
G1 Y114.806
G1 X154.172Y114.835
G1 X153.961Y114.92
G1 X153.927Y114.937
G1 X156.039
G1 X156.11
G1 X155.864Y114.831
G1 X155.844Y114.808
G1 Y114.779
G1 X155.86Y114.732
G1 X155.91Y114.718
G0 X158.528Y114.98
G1 X158.546Y114.952
G1 X158.825Y114.839
G1 X159.13Y114.721
G1 X159.154
G1 X159.176
G1 X159.21Y114.759
G1 Y114.806
G1 X159.174Y114.835
G1 X158.963Y114.92
G1 X158.929Y114.937
G1 X161.041
G1 X161.112
G1 X160.866Y114.831
G1 X160.846Y114.808
G1 Y114.779
G1 X160.862Y114.732
G1 X160.912Y114.718
G1 X160.95Y114.732
G1 X161.452Y114.928
G1 X161.504Y114.952
G1 X161.522Y114.978
G1 Y115.013
G1 Y115.034
G1 X161.483Y115.057
G1 X161.444Y115.074
G1 X161.027Y115.238
G1 X160.912Y115.281
G1 X160.874
G1 X160.839Y115.233
G1 X160.854Y115.181
G1 X160.89Y115.159
G1 X161.119Y115.066
G1 X160.023
G1 X158.929
G1 X158.961Y115.079
G1 X159.125Y115.143
G1 X159.174Y115.164
G1 X159.196Y115.178
G1 Y115.193
G1 X159.214Y115.22
G1 Y115.248
G1 X159.195Y115.263
G1 X159.177Y115.275
G1 X159.151
G1 X159.114
G1 X158.642Y115.089
G1 X158.562Y115.055
G1 X158.535Y115.037
G1 Y115.02
G1 Y114.98
G0 X157.522Y116.893
G1 Y70.893
G1 Y116.893
G0 X162.522Y116.893
G1 Y71.893
G1 Y116.893
G0 X164.114Y115.273
G1 X163.642Y115.089
G1 X163.562Y115.055
G1 X163.534Y115.037
G1 Y115.02
G1 Y114.98
G1 X163.546Y114.952
G1 X163.824Y114.839
G1 X164.13Y114.721
G1 X164.153
G1 X164.176
G1 X164.21Y114.759
G1 Y114.806
G1 X164.173Y114.835
G1 X163.963Y114.92
G1 X163.929Y114.937
G1 X166.041
G1 X166.111
G1 X165.865Y114.831
G1 X165.845Y114.808
G1 Y114.779
G1 X165.861Y114.732
G1 X165.912Y114.718
G1 X165.95Y114.732
G1 X166.452Y114.928
G1 X166.504Y114.952
G1 X166.521Y114.978
G1 Y115.013
G1 Y115.034
G1 X166.482Y115.057
G1 X166.444Y115.074
G1 X166.027Y115.238
G1 X165.912Y115.281
G1 X165.874
G1 X165.838Y115.233
G1 X165.853Y115.181
G1 X165.889Y115.159
G1 X166.119Y115.066
G1 X165.023
G1 X163.929
G1 X163.961Y115.079
G1 X164.125Y115.143
G1 X164.173Y115.164
G1 X164.196Y115.178
G1 Y115.193
G1 X164.213Y115.22
G1 Y115.248
G1 X164.195Y115.263
G1 X164.177Y115.275
G1 X164.151
G1 X164.114
G0 X152.522Y116.893
G1 Y69.893
G1 Y116.893
G0 X151.027Y115.238
G1 X150.912Y115.281
G1 X150.874
G1 X150.839Y115.233
G1 X150.853Y115.181
G1 X150.889Y115.159
G1 X151.119Y115.066
G1 X150.023
G1 X148.929
G1 X148.961Y115.079
G1 X149.125Y115.143
G1 X149.173Y115.164
G1 X149.196Y115.178
G1 Y115.193
G1 X149.214Y115.22
G1 Y115.248
G1 X149.195Y115.263
G1 X149.177Y115.275
G1 X149.151
G1 X149.114
G1 X148.642Y115.089
G1 X148.562Y115.055
G1 X148.534Y115.037
G1 Y115.02
G1 Y114.98
G1 X148.546Y114.952
G1 X148.825Y114.839
G1 X149.13Y114.721
G1 X149.153
G1 X149.176
G1 X149.21Y114.759
G1 Y114.806
G1 X149.173Y114.835
G1 X148.963Y114.92
G1 X148.929Y114.937
G1 X151.041
G1 X151.111
G1 X150.865Y114.831
G1 X150.845Y114.808
G1 Y114.779
G1 X150.861Y114.732
G1 X150.912Y114.718
G1 X150.95Y114.732
G1 X151.452Y114.928
G1 X151.504Y114.952
G1 X151.521Y114.978
G1 Y115.013
G1 Y115.034
G1 X151.483Y115.057
G1 X151.444Y115.074
G1 X151.027Y115.238
G0 X150.49Y112.81
G1 Y111.891
G1 X149.166
G1 X150.49Y112.81
G0 X150.49Y113.165
G1 X148.587Y111.825
G1 Y111.53
G1 X150.49
G1 Y111.134
G1 X150.821
G1 Y111.53
G1 X151.524
G1 Y111.891
G1 X150.821
G1 Y113.165
G1 X150.49
G0 X146.472Y112.576
G1 X146.4Y112.73
G1 X146.3Y112.866
G1 X146.177Y112.981
G1 X146.033Y113.072
G1 X145.872Y113.134
G1 X145.697Y113.165
G1 X145.649Y112.804
G1 X145.792Y112.768
G1 X145.896Y112.734
G1 X145.99Y112.681
G1 X146.073Y112.611
G1 X146.141Y112.526
G1 X146.19Y112.428
G1 X146.219Y112.324
G1 Y112.216
G1 Y112.107
G1 X146.179Y111.993
G1 X146.122Y111.888
G1 X146.046Y111.797
G1 X145.953Y111.721
G1 X145.847Y111.666
G1 X145.732Y111.632
G1 X145.614Y111.622
G1 X145.495Y111.635
G1 X145.308Y111.705
G1 X145.163Y111.832
G1 X145.07Y112.002
G1 X145.042Y112.199
G1 X145.054Y112.328
G1 X145.082Y112.454
G1 X144.766Y112.414
G1 Y112.356
G1 Y112.166
G1 X144.687Y111.995
G1 X144.563Y111.858
G1 X144.396Y111.768
G1 X144.228Y111.755
G1 X144.072Y111.802
G1 X143.942Y111.901
G1 X143.853Y112.045
G1 X143.816Y112.239
G1 X143.853Y112.427
G1 X143.956Y112.589
G1 X144.118Y112.703
G1 X144.231Y112.744
G1 X144.349Y112.768
G1 X144.285Y113.129
G1 X144.053Y113.068
G1 X143.85Y112.948
G1 X143.687Y112.778
G1 X143.574Y112.566
G1 X143.529Y112.349
G1 Y112.128
G1 X143.55Y112.015
G1 X143.589Y111.873
G1 X143.653Y111.745
G1 X143.738Y111.633
G1 X143.842Y111.539
G1 X143.961Y111.466
G1 X144.092Y111.416
G1 X144.233Y111.39
G1 X144.38
G1 X144.542Y111.44
G1 X144.684Y111.525
G1 X144.799Y111.644
G1 X144.882Y111.791
G1 X144.92Y111.668
G1 X145.034Y111.483
G1 X145.194Y111.345
G1 X145.389Y111.262
G1 X145.605Y111.242
G1 X145.793Y111.264
G1 X145.971Y111.323
G1 X146.133Y111.416
G1 X146.275Y111.541
G1 X146.39Y111.692
G1 X146.47Y111.861
G1 X146.516Y112.043
G1 Y112.232
G1 Y112.409
G1 X146.472Y112.576
G0 X145.912Y114.718
G1 X145.95Y114.732
G1 X146.452Y114.928
G1 X146.504Y114.952
G1 X146.521Y114.978
G1 Y115.013
G1 Y115.034
G1 X146.482Y115.057
G1 X146.444Y115.074
G1 X146.027Y115.238
G1 X145.912Y115.281
G1 X145.874
G1 X145.838Y115.233
G1 X145.853Y115.181
G1 X145.889Y115.159
G1 X146.118Y115.066
G1 X145.022
G1 X143.928
G1 X143.96Y115.079
G1 X144.125Y115.143
G1 X144.173Y115.164
G1 X144.196Y115.178
G1 Y115.193
G1 X144.213Y115.22
G1 Y115.248
G1 X144.194Y115.263
G1 X144.177Y115.275
G1 X144.15
G1 X144.114
G1 X143.642Y115.089
G1 X143.561Y115.055
G1 X143.534Y115.037
G1 Y115.02
G1 Y114.98
G1 X143.545Y114.952
G1 X143.824Y114.839
G1 X144.13Y114.721
G1 X144.153
G1 X144.176
G1 X144.21Y114.759
G1 Y114.806
G1 X144.173Y114.835
G1 X143.963Y114.92
G1 X143.928Y114.937
G1 X146.041
G1 X146.111
G1 X145.865Y114.831
G1 X145.845Y114.808
G1 Y114.779
G1 X145.861Y114.732
G1 X145.912Y114.718
G0 X147.522Y116.893
G1 Y68.893
G1 Y116.893
G0 X142.522Y116.893
G1 Y68.393
G1 Y116.893
G0 X136.469Y103.717
G1 X134.342
G1 Y103.395
G1 X134.64
G1 X134.499Y103.278
G1 X134.406Y103.161
G1 X134.339Y103.032
G1 X134.3Y102.895
G1 X134.288Y102.754
G1 X134.303Y102.613
G1 X134.345Y102.476
G1 X134.414Y102.348
G1 X134.509Y102.233
G1 X134.584Y102.185
G1 X134.666Y102.149
G1 X134.503Y102.013
G1 X134.393Y101.868
G1 X134.322Y101.702
G1 X134.292Y101.525
G1 X134.305Y101.343
G1 X134.363Y101.151
G1 X134.48Y100.996
G1 X134.643Y100.89
G1 X134.838Y100.846
G1 X135.009Y100.835
G1 X136.469
G1 Y101.194
G1 X135.129
G1 X134.999
G1 X134.875Y101.213
G1 X134.761Y101.27
G1 X134.664Y101.356
G1 X134.613Y101.508
G1 Y101.665
G1 X134.66Y101.815
G1 X134.755Y101.945
G1 X134.862Y102.017
G1 X134.98Y102.066
G1 X135.104Y102.092
G1 X135.233
G1 X136.469
G1 Y102.454
G1 X135.087
G1 X134.954
G1 X134.83Y102.485
G1 X134.721Y102.556
G1 X134.636Y102.658
G1 X134.606Y102.811
G1 X134.622Y102.964
G1 X134.683Y103.104
G1 X134.785Y103.223
G1 X134.92Y103.293
G1 X135.064Y103.339
G1 X135.213Y103.361
G1 X135.365
G1 X136.469
G1 Y103.717
G0 X140.435Y87.394
G1 Y86.475
G1 X139.111
G1 X140.435Y87.394
G0 X140.435Y87.749
G1 X138.532Y86.409
G1 Y86.115
G1 X140.435
G1 Y85.718
G1 X140.765
G1 Y86.115
G1 X141.469
G1 Y86.475
G1 X140.765
G1 Y87.749
G1 X140.435
G0 X144.111Y86.975
G1 X145.435Y87.894
G1 Y86.975
G1 X144.111
G0 X143.532Y86.909
G1 Y86.615
G1 X145.435
G1 Y86.218
G1 X145.765
G1 Y86.615
G1 X146.469
G1 Y86.975
G1 X145.765
G1 Y88.249
G1 X145.435
G1 X143.532Y86.909
G0 X144.117Y85.34
G1 X144.277Y85.368
G1 X144.437Y85.34
G1 X144.574Y85.26
G1 X144.675Y85.139
G1 X144.73Y84.986
G1 Y84.801
G1 X144.672Y84.628
G1 X144.546Y84.493
G1 X144.377Y84.418
G1 X144.213
G1 X144.062Y84.464
G1 X143.937Y84.562
G1 X143.85Y84.701
G1 X143.819Y84.842
G1 Y84.987
G1 X143.88Y85.14
G1 X143.981Y85.261
G1 X144.117Y85.34
G0 X145.128Y85.221
G1 X145.277Y85.375
G1 X145.471Y85.467
G1 X145.693Y85.483
G1 X145.905Y85.418
G1 X146.074Y85.285
G1 X146.185Y85.101
G1 X146.222Y84.882
G1 X146.193Y84.678
G1 X146.098Y84.503
G1 X145.948Y84.371
G1 X145.756Y84.298
G1 X145.545
G1 X145.35Y84.352
G1 X145.187Y84.477
G1 X145.075Y84.656
G1 X145.035Y84.834
G1 Y85.016
G1 X145.128Y85.221
G0 X144.876Y85.295
G1 X144.831Y85.4
G1 X144.674Y85.595
G1 X144.463Y85.712
G1 X144.224Y85.742
G1 X143.982Y85.678
G1 X143.779Y85.542
G1 X143.629Y85.357
G1 X143.54Y85.135
G1 X143.52Y84.892
G1 X143.534Y84.709
G1 X143.576Y84.545
G1 X143.635Y84.413
G1 X143.717Y84.298
G1 X143.817Y84.202
G1 X143.932Y84.126
G1 X144.059Y84.073
G1 X144.195Y84.044
G1 X144.336
G1 X144.478Y84.066
G1 X144.613Y84.128
G1 X144.727Y84.22
G1 X144.816Y84.336
G1 X144.876Y84.471
G1 X144.927Y84.345
G1 X145.083Y84.13
G1 X145.296Y83.983
G1 X145.545Y83.915
G1 X145.81Y83.935
G1 X145.967Y83.986
G1 X146.11Y84.062
G1 X146.235Y84.161
G1 X146.34Y84.28
G1 X146.423Y84.414
G1 X146.482Y84.562
G1 X146.515Y84.72
G1 Y84.886
G1 Y85.072
G1 X146.47Y85.251
G1 X146.392Y85.418
G1 X146.28Y85.566
G1 X146.14Y85.688
G1 X145.98Y85.779
G1 X145.804Y85.834
G1 X145.619Y85.854
G1 X145.366Y85.823
G1 X145.145Y85.711
G1 X144.975Y85.53
G1 X144.876Y85.295
G0 X146.058Y83.366
G1 Y82.956
G1 X146.469
G1 Y83.366
G1 X146.058
G0 X145.699Y82.429
G1 X145.667Y82.05
G1 X145.797Y82.022
G1 X145.9Y81.987
G1 X145.993Y81.934
G1 X146.075Y81.863
G1 X146.141Y81.777
G1 X146.189Y81.679
G1 X146.217Y81.575
G1 Y81.468
G1 Y81.36
G1 X146.11Y81.146
G1 X145.948Y80.984
G1 X145.74Y80.886
G1 X145.505Y80.865
G1 X145.375
G1 X145.25Y80.895
G1 X145.134Y80.95
G1 X145.031Y81.028
G1 X144.947Y81.126
G1 X144.886Y81.239
G1 X144.85Y81.362
G1 Y81.491
G1 Y81.649
G1 X144.913Y81.795
G1 X145.004Y81.923
G1 X145.125Y82.026
G1 X145.08Y82.365
G1 X143.572Y82.08
G1 Y80.62
G1 X143.917
G1 Y81.792
G1 X144.706Y81.95
G1 X144.625Y81.816
G1 X144.559Y81.657
G1 X144.525Y81.492
G1 Y81.327
G1 X144.549Y81.164
G1 X144.604Y81.009
G1 X144.687Y80.866
G1 X144.796Y80.738
G1 X144.931Y80.631
G1 X145.108Y80.547
G1 X145.293Y80.497
G1 X145.481Y80.48
G1 X145.668Y80.495
G1 X145.849Y80.543
G1 X146.021Y80.621
G1 X146.179Y80.73
G1 X146.318Y80.868
G1 X146.422Y81.036
G1 X146.489Y81.216
G1 X146.522Y81.402
G1 Y81.589
G1 X146.483Y81.773
G1 X146.413Y81.948
G1 X146.309Y82.11
G1 X146.173Y82.252
G1 X145.948Y82.374
G1 X145.699Y82.429
G0 X148.832Y82.093
G1 X148.884Y82.217
G1 X148.964Y82.321
G1 X149.069Y82.401
G1 X149.192Y82.453
G1 X149.599Y82.536
G1 X150.012Y82.565
G1 X150.425Y82.541
G1 X150.833Y82.463
G1 X151.013Y82.376
G1 X151.143Y82.233
G1 X151.211Y82.052
G1 Y81.852
G1 X151.112Y81.685
G1 X150.977Y81.554
G1 X150.81Y81.465
G1 X150.621Y81.427
G1 X150.267Y81.387
G1 X149.912
G1 X149.557Y81.414
G1 X149.207Y81.48
G1 X149.027Y81.568
G1 X148.898Y81.712
G1 X148.829Y81.893
G1 Y82.093
G0 X148.53Y82.139
G1 Y81.857
G1 X148.544Y81.752
G1 X148.574Y81.649
G1 X148.66Y81.487
G1 X148.777Y81.348
G1 X148.922Y81.237
G1 X149.089Y81.159
G1 X149.564Y81.044
G1 X150.048Y81.009
G1 X150.532Y81.054
G1 X151.005Y81.18
G1 X151.141Y81.252
G1 X151.26Y81.346
G1 X151.359Y81.458
G1 X151.436Y81.584
G1 X151.491Y81.722
G1 X151.521Y81.868
G1 Y82.019
G1 X151.5Y82.172
G1 X151.391Y82.424
G1 X151.218Y82.629
G1 X150.995Y82.777
G1 X150.733Y82.856
G1 X150.306Y82.924
G1 X149.876
G1 X149.449Y82.877
G1 X149.033Y82.761
G1 X148.794Y82.611
G1 X148.623Y82.397
G1 X148.53Y82.139
G0 X149.599Y80.255
G1 X150.012Y80.284
G1 X150.425Y80.259
G1 X150.833Y80.182
G1 X151.013Y80.095
G1 X151.143Y79.952
G1 X151.211Y79.771
G1 Y79.571
G1 X151.112Y79.404
G1 X150.977Y79.272
G1 X150.81Y79.184
G1 X150.621Y79.146
G1 X150.267Y79.106
G1 X149.912
G1 X149.557Y79.132
G1 X149.207Y79.199
G1 X149.027Y79.287
G1 X148.898Y79.431
G1 X148.829Y79.612
G1 Y79.812
G1 X148.871Y79.918
G1 X148.933Y80.003
G1 X149.008Y80.075
G1 X149.095Y80.132
G1 X149.192Y80.172
G1 X149.599Y80.255
G0 X149.449Y80.596
G1 X149.033Y80.48
G1 X148.794Y80.33
G1 X148.623Y80.116
G1 X148.53Y79.857
G1 Y79.576
G1 X148.585Y79.345
G1 X148.704Y79.144
G1 X148.875Y78.984
G1 X149.089Y78.877
G1 X149.564Y78.762
G1 X150.048Y78.728
G1 X150.532Y78.773
G1 X151.005Y78.899
G1 X151.141Y78.971
G1 X151.26Y79.065
G1 X151.359Y79.177
G1 X151.436Y79.303
G1 X151.491Y79.441
G1 X151.521Y79.587
G1 Y79.738
G1 X151.5Y79.891
G1 X151.391Y80.142
G1 X151.218Y80.348
G1 X150.995Y80.496
G1 X150.733Y80.575
G1 X150.306Y80.643
G1 X149.876
G1 X149.449Y80.596
G0 X149.342Y78.266
G1 Y77.944
G1 X149.64
G1 X149.499Y77.827
G1 X149.406Y77.71
G1 X149.339Y77.581
G1 X149.3Y77.444
G1 X149.288Y77.303
G1 X149.303Y77.162
G1 X149.345Y77.025
G1 X149.414Y76.897
G1 X149.509Y76.782
G1 X149.584Y76.734
G1 X149.666Y76.698
G1 X149.503Y76.562
G1 X149.393Y76.417
G1 X149.322Y76.251
G1 X149.292Y76.074
G1 X149.305Y75.892
G1 X149.363Y75.701
G1 X149.48Y75.545
G1 X149.643Y75.439
G1 X149.838Y75.395
G1 X150.009Y75.384
G1 X151.469
G1 Y75.743
G1 X150.129
G1 X149.999
G1 X149.875Y75.762
G1 X149.761Y75.819
G1 X149.664Y75.905
G1 X149.613Y76.057
G1 Y76.214
G1 X149.66Y76.364
G1 X149.755Y76.494
G1 X149.862Y76.566
G1 X149.979Y76.615
G1 X150.104Y76.641
G1 X150.233
G1 X151.469
G1 Y77.002
G1 X150.087
G1 X149.954
G1 X149.83Y77.034
G1 X149.721Y77.105
G1 X149.636Y77.207
G1 X149.606Y77.36
G1 X149.622Y77.513
G1 X149.683Y77.653
G1 X149.785Y77.772
G1 X149.92Y77.842
G1 X150.064Y77.888
G1 X150.213Y77.91
G1 X150.365
G1 X151.469
G1 Y78.266
G1 X149.342
G0 X146.469Y77.766
G1 X144.341
G1 Y77.444
G1 X144.64
G1 X144.499Y77.327
G1 X144.405Y77.21
G1 X144.339Y77.081
G1 X144.3Y76.944
G1 X144.288Y76.803
G1 X144.302Y76.662
G1 X144.344Y76.525
G1 X144.413Y76.397
G1 X144.509Y76.282
G1 X144.584Y76.234
G1 X144.666Y76.198
G1 X144.503Y76.062
G1 X144.393Y75.917
G1 X144.322Y75.751
G1 X144.291Y75.574
G1 X144.304Y75.392
G1 X144.362Y75.201
G1 X144.48Y75.045
G1 X144.643Y74.939
G1 X144.838Y74.895
G1 X145.008Y74.884
G1 X146.469
G1 Y75.243
G1 X145.128
G1 X144.999
G1 X144.875Y75.262
G1 X144.761Y75.319
G1 X144.664Y75.405
G1 X144.613Y75.557
G1 Y75.714
G1 X144.66Y75.864
G1 X144.755Y75.994
G1 X144.862Y76.066
G1 X144.979Y76.115
G1 X145.104Y76.141
G1 X145.233
G1 X146.469
G1 Y76.502
G1 X145.086
G1 X144.954
G1 X144.829Y76.534
G1 X144.72Y76.605
G1 X144.636Y76.707
G1 X144.605Y76.86
G1 X144.622Y77.013
G1 X144.682Y77.153
G1 X144.784Y77.272
G1 X144.919Y77.342
G1 X145.063Y77.388
G1 X145.213Y77.41
G1 X145.365
G1 X146.469
G1 Y77.766
G0 X145.81Y78.684
G1 X145.621Y78.646
G1 X145.267Y78.606
G1 X144.911
G1 X144.557Y78.632
G1 X144.207Y78.699
G1 X144.027Y78.787
G1 X143.897Y78.931
G1 X143.829Y79.112
G1 Y79.312
G1 X143.871Y79.418
G1 X143.932Y79.503
G1 X144.007Y79.575
G1 X144.095Y79.632
G1 X144.191Y79.672
G1 X144.599Y79.755
G1 X145.012Y79.784
G1 X145.425Y79.759
G1 X145.833Y79.682
G1 X146.013Y79.595
G1 X146.142Y79.452
G1 X146.211Y79.271
G1 Y79.071
G1 X146.112Y78.904
G1 X145.977Y78.772
G1 X145.81Y78.684
G0 X146.141Y78.471
G1 X146.26Y78.565
G1 X146.359Y78.677
G1 X146.436Y78.803
G1 X146.491Y78.941
G1 X146.52Y79.087
G1 Y79.238
G1 X146.5Y79.391
G1 X146.391Y79.642
G1 X146.218Y79.848
G1 X145.994Y79.996
G1 X145.732Y80.075
G1 X145.306Y80.143
G1 X144.876
G1 X144.449Y80.096
G1 X144.033Y79.98
G1 X143.794Y79.83
G1 X143.623Y79.616
G1 X143.529Y79.357
G1 Y79.076
G1 X143.585Y78.845
G1 X143.704Y78.644
G1 X143.875Y78.484
G1 X144.088Y78.377
G1 X144.564Y78.262
G1 X145.048Y78.228
G1 X145.532Y78.273
G1 X146.004Y78.399
G1 X146.141Y78.471
G0 X141.207Y78.571
G1 X141.112Y78.404
G1 X140.977Y78.272
G1 X140.81Y78.184
G1 X140.621Y78.146
G1 X140.267Y78.106
G1 X139.911
G1 X139.557Y78.132
G1 X139.207Y78.199
G1 X139.027Y78.287
G1 X138.897Y78.431
G1 X138.829Y78.612
G1 Y78.812
G1 X138.871Y78.918
G1 X138.932Y79.003
G1 X139.007Y79.075
G1 X139.095Y79.132
G1 X139.191Y79.172
G1 X139.599Y79.255
G1 X140.012Y79.284
G1 X140.425Y79.259
G1 X140.833Y79.182
G1 X141.013Y79.095
G1 X141.142Y78.952
G1 X141.211Y78.771
G1 Y78.571
G0 X141.52Y78.587
G1 Y78.738
G1 X141.5Y78.891
G1 X141.391Y79.142
G1 X141.218Y79.348
G1 X140.994Y79.496
G1 X140.732Y79.575
G1 X140.306Y79.643
G1 X139.876
G1 X139.449Y79.596
G1 X139.033Y79.48
G1 X138.794Y79.33
G1 X138.623Y79.116
G1 X138.529Y78.857
G1 Y78.576
G1 X138.585Y78.345
G1 X138.704Y78.144
G1 X138.875Y77.984
G1 X139.088Y77.877
G1 X139.564Y77.762
G1 X140.048Y77.728
G1 X140.532Y77.773
G1 X141.004Y77.899
G1 X141.141Y77.971
G1 X141.26Y78.065
G1 X141.359Y78.177
G1 X141.436Y78.303
G1 X141.491Y78.441
G1 X141.52Y78.587
G0 X141.469Y77.266
G1 X139.341
G1 Y76.944
G1 X139.64
G1 X139.499Y76.827
G1 X139.405Y76.71
G1 X139.339Y76.581
G1 X139.3Y76.444
G1 X139.288Y76.303
G1 X139.302Y76.162
G1 X139.344Y76.025
G1 X139.413Y75.897
G1 X139.509Y75.782
G1 X139.584Y75.734
G1 X139.666Y75.698
G1 X139.503Y75.562
G1 X139.393Y75.417
G1 X139.322Y75.251
G1 X139.291Y75.074
G1 X139.304Y74.892
G1 X139.362Y74.701
G1 X139.48Y74.545
G1 X139.643Y74.439
G1 X139.838Y74.395
G1 X140.008Y74.384
G1 X141.469
G1 Y74.743
G1 X140.128
G1 X139.999
G1 X139.875Y74.762
G1 X139.761Y74.819
G1 X139.664Y74.905
G1 X139.613Y75.057
G1 Y75.214
G1 X139.66Y75.364
G1 X139.755Y75.494
G1 X139.862Y75.566
G1 X139.979Y75.615
G1 X140.104Y75.641
G1 X140.233
G1 X141.469
G1 Y76.002
G1 X140.086
G1 X139.954
G1 X139.829Y76.034
G1 X139.72Y76.105
G1 X139.636Y76.207
G1 X139.605Y76.36
G1 X139.622Y76.513
G1 X139.682Y76.653
G1 X139.784Y76.772
G1 X139.919Y76.842
G1 X140.063Y76.888
G1 X140.213Y76.91
G1 X140.365
G1 X141.469
G1 Y77.266
G0 X140.621Y80.427
G1 X140.267Y80.387
G1 X139.911
G1 X139.557Y80.414
G1 X139.207Y80.48
G1 X139.027Y80.568
G1 X138.897Y80.712
G1 X138.829Y80.893
G1 Y81.093
G1 X138.884Y81.217
G1 X138.964Y81.321
G1 X139.068Y81.401
G1 X139.191Y81.453
G1 X139.599Y81.536
G1 X140.012Y81.565
G1 X140.425Y81.541
G1 X140.833Y81.463
G1 X141.013Y81.376
G1 X141.142Y81.233
G1 X141.211Y81.052
G1 Y80.852
G1 X141.112Y80.685
G1 X140.977Y80.554
G1 X140.81Y80.465
G1 X140.621Y80.427
G0 X141.004Y80.18
G1 X141.141Y80.252
G1 X141.26Y80.346
G1 X141.359Y80.458
G1 X141.436Y80.584
G1 X141.491Y80.722
G1 X141.52Y80.868
G1 Y81.019
G1 X141.5Y81.172
G1 X141.391Y81.424
G1 X141.218Y81.629
G1 X140.994Y81.777
G1 X140.732Y81.856
G1 X140.306Y81.924
G1 X139.876
G1 X139.449Y81.877
G1 X139.033Y81.761
G1 X138.794Y81.611
G1 X138.623Y81.397
G1 X138.529Y81.139
G1 Y80.857
G1 X138.544Y80.752
G1 X138.574Y80.649
G1 X138.66Y80.487
G1 X138.777Y80.348
G1 X138.922Y80.237
G1 X139.088Y80.159
G1 X139.564Y80.044
G1 X140.048Y80.009
G1 X140.532Y80.054
G1 X141.004Y80.18
G0 X141.058Y82.456
G1 X141.469
G1 Y82.866
G1 X141.058
G1 Y82.456
G0 X139.711Y83.835
G1 X139.493Y83.819
G1 X139.274Y83.835
G1 X139.079Y83.923
G1 X138.926Y84.072
G1 X138.83Y84.27
G1 X138.818Y84.384
G1 X138.831Y84.498
G1 X138.956Y84.731
G1 X139.151Y84.897
G1 X139.393Y84.98
G1 X139.657Y84.969
G1 X139.773Y84.939
G1 X139.879Y84.888
G1 X139.973Y84.816
G1 X140.051Y84.726
G1 X140.109Y84.622
G1 X140.144Y84.509
G1 X140.156Y84.391
G1 X140.144Y84.272
G1 X140.054Y84.073
G1 X139.904Y83.924
G1 X139.711Y83.835
G0 X140.086Y83.779
G1 X140.229Y83.894
G1 X140.342Y84.034
G1 X140.422Y84.196
G1 X140.466Y84.373
G1 X140.454Y84.666
G1 X140.346Y84.93
G1 X140.158Y85.144
G1 X139.902Y85.286
G1 X139.612Y85.351
G1 X139.32Y85.338
G1 X139.042Y85.248
G1 X138.793Y85.086
G1 X138.655Y84.915
G1 X138.564Y84.718
G1 X138.521Y84.506
G1 Y84.286
G1 X138.573Y84.118
G1 X138.643Y83.964
G1 X138.736Y83.825
G1 X138.85Y83.704
G1 X138.983Y83.604
G1 X139.131Y83.526
G1 X139.292Y83.474
G1 X139.463Y83.449
G1 X139.809Y83.417
G1 X140.155
G1 X140.498Y83.463
G1 X140.836Y83.541
G1 X141.003Y83.609
G1 X141.151Y83.704
G1 X141.277Y83.822
G1 X141.38Y83.96
G1 X141.456Y84.114
G1 X141.504Y84.28
G1 X141.522Y84.455
G1 X141.507Y84.635
G1 X141.424Y84.888
G1 X141.266Y85.093
G1 X141.049Y85.234
G1 X140.789Y85.295
G1 X140.757Y84.949
G1 X140.871Y84.922
G1 X141.018Y84.861
G1 X141.131Y84.756
G1 X141.202Y84.619
G1 X141.222Y84.462
G1 X141.189Y84.273
G1 X141.1Y84.107
G1 X140.966Y83.977
G1 X140.793Y83.892
G1 X140.446Y83.8
G1 X140.086Y83.779
G0 X136.211Y83.413
G1 Y83.213
G1 X136.112Y83.045
G1 X135.977Y82.914
G1 X135.81Y82.826
G1 X135.621Y82.788
G1 X135.267Y82.748
G1 X134.912
G1 X134.557Y82.774
G1 X134.207Y82.84
G1 X134.027Y82.929
G1 X133.898Y83.073
G1 X133.829Y83.254
G1 Y83.454
G1 X133.884Y83.577
G1 X133.964Y83.682
G1 X134.069Y83.762
G1 X134.192Y83.814
G1 X134.599Y83.896
G1 X135.012Y83.925
G1 X135.425Y83.901
G1 X135.833Y83.824
G1 X136.013Y83.736
G1 X136.143Y83.593
G1 X136.211Y83.413
G0 X136.524Y83.38
G1 X136.5Y83.533
G1 X136.391Y83.784
G1 X136.218Y83.989
G1 X135.995Y84.137
G1 X135.733Y84.217
G1 X135.306Y84.285
G1 X134.876
G1 X134.449Y84.237
G1 X134.033Y84.122
G1 X133.794Y83.972
G1 X133.623Y83.758
G1 X133.53Y83.499
G1 Y83.218
G1 X133.544Y83.11
G1 X133.62Y82.914
G1 X133.741Y82.745
G1 X133.899Y82.611
G1 X134.089Y82.519
G1 X134.564Y82.404
G1 X135.048Y82.37
G1 X135.532Y82.415
G1 X136.004Y82.541
G1 X136.141Y82.613
G1 X136.26Y82.707
G1 X136.359Y82.818
G1 X136.436Y82.945
G1 X136.491Y83.083
G1 X136.521Y83.229
G1 Y83.38
G0 X135.85Y84.685
G1 X136.021Y84.763
G1 X136.179Y84.872
G1 X136.318Y85.01
G1 X136.422Y85.178
G1 X136.49Y85.358
G1 X136.522Y85.544
G1 Y85.731
G1 X136.483Y85.915
G1 X136.413Y86.09
G1 X136.309Y86.252
G1 X136.173Y86.394
G1 X135.949Y86.516
G1 X135.7Y86.571
G1 X135.668Y86.192
G1 X135.797Y86.164
G1 X135.9Y86.129
G1 X135.994Y86.076
G1 X136.075Y86.005
G1 X136.141Y85.919
G1 X136.189Y85.821
G1 X136.217Y85.717
G1 Y85.61
G1 Y85.502
G1 X136.11Y85.288
G1 X135.948Y85.126
G1 X135.74Y85.028
G1 X135.505Y85.006
G1 X135.376
G1 X135.251Y85.037
G1 X135.134Y85.091
G1 X135.031Y85.17
G1 X134.947Y85.268
G1 X134.886Y85.381
G1 X134.85Y85.504
G1 Y85.633
G1 Y85.791
G1 X134.914Y85.937
G1 X135.004Y86.065
G1 X135.125Y86.168
G1 X135.081Y86.507
G1 X133.572Y86.222
G1 Y84.762
G1 X133.917
G1 Y85.934
G1 X134.706Y86.092
G1 X134.626Y85.958
G1 X134.56Y85.799
G1 X134.526Y85.634
G1 Y85.468
G1 X134.549Y85.306
G1 X134.604Y85.151
G1 X134.687Y85.008
G1 X134.796Y84.88
G1 X134.931Y84.772
G1 X135.108Y84.688
G1 X135.293Y84.638
G1 X135.481Y84.621
G1 X135.668Y84.637
G1 X135.85Y84.685
G0 X136.058Y81.806
G1 Y81.395
G1 X136.469
G1 Y81.806
G1 X136.058
G0 X135.425Y80.48
G1 X135.833Y80.403
G1 X136.013Y80.316
G1 X136.143Y80.173
G1 X136.211Y79.992
G1 Y79.792
G1 X136.112Y79.625
G1 X135.977Y79.493
G1 X135.81Y79.405
G1 X135.621Y79.367
G1 X135.267Y79.327
G1 X134.911
G1 X134.557Y79.353
G1 X134.207Y79.42
G1 X134.027Y79.508
G1 X133.898Y79.652
G1 X133.829Y79.833
G1 Y80.033
G1 X133.884Y80.156
G1 X133.964Y80.261
G1 X134.069Y80.341
G1 X134.192Y80.393
G1 X134.599Y80.476
G1 X135.012Y80.505
G1 X135.425Y80.48
G0 X135.733Y80.796
G1 X135.306Y80.864
G1 X134.876
G1 X134.449Y80.817
G1 X134.033Y80.701
G1 X133.794Y80.551
G1 X133.623Y80.337
G1 X133.53Y80.079
G1 Y79.797
G1 X133.544Y79.692
G1 X133.574Y79.589
G1 X133.66Y79.427
G1 X133.777Y79.288
G1 X133.922Y79.177
G1 X134.089Y79.099
G1 X134.564Y78.984
G1 X135.048Y78.949
G1 X135.532Y78.994
G1 X136.004Y79.12
G1 X136.141Y79.192
G1 X136.26Y79.286
G1 X136.359Y79.398
G1 X136.436Y79.524
G1 X136.491Y79.662
G1 X136.521Y79.808
G1 Y79.959
G1 X136.5Y80.112
G1 X136.391Y80.363
G1 X136.218Y80.569
G1 X135.995Y80.717
G1 X135.733Y80.796
G0 X135.425Y78.199
G1 X135.833Y78.122
G1 X136.013Y78.035
G1 X136.143Y77.891
G1 X136.211Y77.711
G1 Y77.511
G1 X136.112Y77.344
G1 X135.977Y77.212
G1 X135.81Y77.124
G1 X135.621Y77.086
G1 X135.267Y77.046
G1 X134.912
G1 X134.557Y77.072
G1 X134.207Y77.138
G1 X134.027Y77.227
G1 X133.898Y77.371
G1 X133.829Y77.552
G1 Y77.752
G1 X133.871Y77.857
G1 X133.933Y77.943
G1 X134.008Y78.015
G1 X134.095Y78.072
G1 X134.192Y78.112
G1 X134.599Y78.195
G1 X135.012Y78.224
G1 X135.425Y78.199
G0 X135.733Y78.515
G1 X135.306Y78.583
G1 X134.876
G1 X134.449Y78.535
G1 X134.033Y78.42
G1 X133.794Y78.27
G1 X133.623Y78.056
G1 X133.53Y77.797
G1 Y77.516
G1 X133.585Y77.285
G1 X133.704Y77.084
G1 X133.875Y76.924
G1 X134.089Y76.817
G1 X134.564Y76.702
G1 X135.048Y76.668
G1 X135.532Y76.713
G1 X136.004Y76.839
G1 X136.141Y76.911
G1 X136.26Y77.005
G1 X136.359Y77.116
G1 X136.436Y77.243
G1 X136.491Y77.381
G1 X136.521Y77.527
G1 Y77.678
G1 X136.5Y77.831
G1 X136.391Y78.082
G1 X136.218Y78.287
G1 X135.995Y78.435
G1 X135.733Y78.515
G0 X136.469Y76.206
G1 X134.342
G1 Y75.884
G1 X134.64
G1 X134.499Y75.767
G1 X134.406Y75.65
G1 X134.339Y75.521
G1 X134.3Y75.384
G1 X134.288Y75.243
G1 X134.303Y75.102
G1 X134.345Y74.965
G1 X134.414Y74.837
G1 X134.509Y74.722
G1 X134.584Y74.674
G1 X134.666Y74.638
G1 X134.503Y74.502
G1 X134.393Y74.357
G1 X134.322Y74.191
G1 X134.292Y74.014
G1 X134.305Y73.832
G1 X134.363Y73.641
G1 X134.48Y73.485
G1 X134.643Y73.379
G1 X134.838Y73.335
G1 X135.009Y73.324
G1 X136.469
G1 Y73.683
G1 X135.129
G1 X134.999
G1 X134.875Y73.702
G1 X134.761Y73.759
G1 X134.664Y73.845
G1 X134.613Y73.997
G1 Y74.154
G1 X134.66Y74.304
G1 X134.755Y74.434
G1 X134.862Y74.505
G1 X134.979Y74.555
G1 X135.104Y74.581
G1 X135.233
G1 X136.469
G1 Y74.942
G1 X135.087
G1 X134.954
G1 X134.83Y74.974
G1 X134.721Y75.045
G1 X134.636Y75.147
G1 X134.606Y75.3
G1 X134.622Y75.453
G1 X134.683Y75.593
G1 X134.785Y75.712
G1 X134.92Y75.782
G1 X135.064Y75.828
G1 X135.213Y75.849
G1 X135.365
G1 X136.469
G1 Y76.206
G0 X139.341Y73.85
G1 Y73.527
G1 X139.64
G1 X139.499Y73.41
G1 X139.405Y73.294
G1 X139.339Y73.164
G1 X139.3Y73.027
G1 X139.288Y72.886
G1 X139.303Y72.745
G1 X139.344Y72.608
G1 X139.413Y72.481
G1 X139.509Y72.366
G1 X139.584Y72.317
G1 X139.666Y72.281
G1 X139.503Y72.146
G1 X139.393Y72
G1 X139.322Y71.835
G1 X139.291Y71.657
G1 X139.304Y71.475
G1 X139.362Y71.284
G1 X139.48Y71.128
G1 X139.643Y71.022
G1 X139.838Y70.978
G1 X140.008Y70.967
G1 X141.469
G1 Y71.326
G1 X140.128
G1 X139.999
G1 X139.874Y71.345
G1 X139.761Y71.402
G1 X139.664Y71.488
G1 X139.613Y71.641
G1 Y71.798
G1 X139.66Y71.947
G1 X139.755Y72.077
G1 X139.862Y72.149
G1 X139.979Y72.198
G1 X140.104Y72.224
G1 X140.233
G1 X141.469
G1 Y72.586
G1 X140.086
G1 X139.954
G1 X139.829Y72.618
G1 X139.72Y72.688
G1 X139.636Y72.79
G1 X139.605Y72.944
G1 X139.622Y73.096
G1 X139.682Y73.236
G1 X139.784Y73.355
G1 X139.919Y73.425
G1 X140.063Y73.471
G1 X140.213Y73.493
G1 X140.365
G1 X141.469
G1 Y73.85
G1 X139.341
G0 X136.469Y72.79
G1 X134.342
G1 Y72.467
G1 X134.64
G1 X134.499Y72.35
G1 X134.406Y72.233
G1 X134.339Y72.104
G1 X134.3Y71.967
G1 X134.288Y71.826
G1 X134.303Y71.685
G1 X134.345Y71.548
G1 X134.414Y71.42
G1 X134.509Y71.305
G1 X134.584Y71.257
G1 X134.666Y71.221
G1 X134.503Y71.085
G1 X134.393Y70.94
G1 X134.322Y70.774
G1 X134.292Y70.597
G1 X134.305Y70.415
G1 X134.363Y70.224
G1 X134.48Y70.068
G1 X134.643Y69.962
G1 X134.838Y69.918
G1 X135.009Y69.907
G1 X136.469
G1 Y70.266
G1 X135.129
G1 X134.999
G1 X134.875Y70.285
G1 X134.761Y70.342
G1 X134.664Y70.428
G1 X134.613Y70.58
G1 Y70.737
G1 X134.66Y70.887
G1 X134.755Y71.017
G1 X134.862Y71.089
G1 X134.98Y71.138
G1 X135.104Y71.164
G1 X135.233
G1 X136.469
G1 Y71.526
G1 X135.087
G1 X134.954
G1 X134.83Y71.558
G1 X134.721Y71.628
G1 X134.636Y71.73
G1 X134.606Y71.883
G1 X134.622Y72.036
G1 X134.683Y72.176
G1 X134.785Y72.295
G1 X134.92Y72.365
G1 X135.064Y72.411
G1 X135.213Y72.433
G1 X135.365
G1 X136.469
G1 Y72.79
G0 X144.303Y73.245
G1 X144.344Y73.108
G1 X144.413Y72.981
G1 X144.509Y72.866
G1 X144.584Y72.817
G1 X144.666Y72.781
G1 X144.503Y72.646
G1 X144.393Y72.5
G1 X144.322Y72.335
G1 X144.291Y72.157
G1 X144.304Y71.975
G1 X144.362Y71.784
G1 X144.48Y71.628
G1 X144.643Y71.522
G1 X144.838Y71.478
G1 X145.008Y71.467
G1 X146.469
G1 Y71.826
G1 X145.128
G1 X144.999
G1 X144.874Y71.845
G1 X144.761Y71.902
G1 X144.664Y71.988
G1 X144.613Y72.141
G1 Y72.298
G1 X144.66Y72.447
G1 X144.755Y72.577
G1 X144.862Y72.649
G1 X144.979Y72.698
G1 X145.104Y72.724
G1 X145.233
G1 X146.469
G1 Y73.086
G1 X145.086
G1 X144.954
G1 X144.829Y73.118
G1 X144.72Y73.188
G1 X144.636Y73.29
G1 X144.605Y73.444
G1 X144.622Y73.596
G1 X144.682Y73.736
G1 X144.784Y73.855
G1 X144.919Y73.925
G1 X145.063Y73.971
G1 X145.213Y73.993
G1 X145.365
G1 X146.469
G1 Y74.35
G1 X144.341
G1 Y74.027
G1 X144.64
G1 X144.499Y73.91
G1 X144.405Y73.794
G1 X144.339Y73.664
G1 X144.3Y73.527
G1 X144.288Y73.386
G1 X144.303Y73.245
G0 X149.303Y73.745
G1 X149.345Y73.608
G1 X149.414Y73.481
G1 X149.509Y73.366
G1 X149.584Y73.317
G1 X149.666Y73.281
G1 X149.503Y73.146
G1 X149.393Y73
G1 X149.322Y72.835
G1 X149.292Y72.657
G1 X149.305Y72.475
G1 X149.363Y72.284
G1 X149.48Y72.128
G1 X149.643Y72.022
G1 X149.838Y71.978
G1 X150.009Y71.967
G1 X151.469
G1 Y72.326
G1 X150.129
G1 X149.999
G1 X149.875Y72.345
G1 X149.761Y72.402
G1 X149.664Y72.488
G1 X149.613Y72.641
G1 Y72.798
G1 X149.66Y72.947
G1 X149.755Y73.077
G1 X149.862Y73.149
G1 X149.98Y73.198
G1 X150.104Y73.224
G1 X150.233
G1 X151.469
G1 Y73.586
G1 X150.087
G1 X149.954
G1 X149.83Y73.618
G1 X149.721Y73.688
G1 X149.636Y73.79
G1 X149.606Y73.944
G1 X149.622Y74.096
G1 X149.683Y74.236
G1 X149.785Y74.355
G1 X149.92Y74.425
G1 X150.064Y74.471
G1 X150.213Y74.493
G1 X150.365
G1 X151.469
G1 Y74.85
G1 X149.342
G1 Y74.527
G1 X149.64
G1 X149.499Y74.41
G1 X149.406Y74.294
G1 X149.339Y74.164
G1 X149.3Y74.027
G1 X149.288Y73.886
G1 X149.303Y73.745
G0 X154.29Y73.657
G1 X154.303Y73.475
G1 X154.361Y73.284
G1 X154.479Y73.128
G1 X154.642Y73.022
G1 X154.837Y72.978
G1 X155.007Y72.967
G1 X156.467
G1 Y73.326
G1 X155.127
G1 X154.998
G1 X154.873Y73.345
G1 X154.759Y73.402
G1 X154.663Y73.488
G1 X154.611Y73.641
G1 Y73.798
G1 X154.659Y73.947
G1 X154.754Y74.077
G1 X154.861Y74.149
G1 X154.978Y74.198
G1 X155.103Y74.224
G1 X155.232
G1 X156.467
G1 Y74.586
G1 X155.085
G1 X154.953
G1 X154.828Y74.618
G1 X154.719Y74.688
G1 X154.635Y74.79
G1 X154.604Y74.944
G1 X154.621Y75.096
G1 X154.681Y75.236
G1 X154.783Y75.355
G1 X154.918Y75.425
G1 X155.062Y75.471
G1 X155.212Y75.493
G1 X155.364
G1 X156.467
G1 Y75.85
G1 X154.34
G1 Y75.527
G1 X154.638
G1 X154.498Y75.41
G1 X154.404Y75.294
G1 X154.338Y75.164
G1 X154.299Y75.027
G1 X154.286Y74.886
G1 X154.301Y74.745
G1 X154.343Y74.608
G1 X154.412Y74.481
G1 X154.508Y74.366
G1 X154.583Y74.317
G1 X154.665Y74.281
G1 X154.502Y74.146
G1 X154.392Y74
G1 X154.321Y73.835
G1 X154.29Y73.657
G0 X154.837Y76.395
G1 X155.007Y76.384
G1 X156.467
G1 Y76.743
G1 X155.127
G1 X154.998
G1 X154.873Y76.762
G1 X154.759Y76.819
G1 X154.663Y76.905
G1 X154.611Y77.057
G1 Y77.214
G1 X154.659Y77.364
G1 X154.754Y77.494
G1 X154.86Y77.566
G1 X154.978Y77.615
G1 X155.103Y77.641
G1 X155.232
G1 X156.467
G1 Y78.002
G1 X155.085
G1 X154.953
G1 X154.828Y78.034
G1 X154.719Y78.105
G1 X154.635Y78.207
G1 X154.604Y78.36
G1 X154.621Y78.513
G1 X154.681Y78.653
G1 X154.783Y78.772
G1 X154.918Y78.842
G1 X155.062Y78.888
G1 X155.212Y78.91
G1 X155.364
G1 X156.467
G1 Y79.266
G1 X154.34
G1 Y78.944
G1 X154.638
G1 X154.498Y78.827
G1 X154.404Y78.71
G1 X154.338Y78.581
G1 X154.298Y78.444
G1 X154.286Y78.303
G1 X154.301Y78.162
G1 X154.343Y78.025
G1 X154.412Y77.897
G1 X154.508Y77.782
G1 X154.583Y77.734
G1 X154.665Y77.698
G1 X154.502Y77.562
G1 X154.392Y77.417
G1 X154.32Y77.251
G1 X154.29Y77.074
G1 X154.303Y76.892
G1 X154.361Y76.701
G1 X154.479Y76.545
G1 X154.642Y76.439
G1 X154.837Y76.395
G0 X159.3Y76.027
G1 X159.288Y75.886
G1 X159.303Y75.745
G1 X159.345Y75.608
G1 X159.414Y75.481
G1 X159.51Y75.366
G1 X159.585Y75.317
G1 X159.666Y75.281
G1 X159.503Y75.146
G1 X159.394Y75
G1 X159.322Y74.835
G1 X159.292Y74.657
G1 X159.305Y74.475
G1 X159.363Y74.284
G1 X159.48Y74.128
G1 X159.643Y74.022
G1 X159.839Y73.978
G1 X160.009Y73.967
G1 X161.469
G1 Y74.326
G1 X160.129
G1 X160
G1 X159.875Y74.345
G1 X159.761Y74.402
G1 X159.664Y74.488
G1 X159.613Y74.641
G1 Y74.798
G1 X159.661Y74.947
G1 X159.756Y75.077
G1 X159.862Y75.149
G1 X159.98Y75.198
G1 X160.105Y75.224
G1 X160.233
G1 X161.469
G1 Y75.586
G1 X160.087
G1 X159.955
G1 X159.83Y75.618
G1 X159.721Y75.688
G1 X159.636Y75.79
G1 X159.606Y75.944
G1 X159.622Y76.096
G1 X159.683Y76.236
G1 X159.785Y76.355
G1 X159.92Y76.425
G1 X160.064Y76.471
G1 X160.213Y76.493
G1 X160.365
G1 X161.469
G1 Y76.85
G1 X159.342
G1 Y76.527
G1 X159.64
G1 X159.499Y76.41
G1 X159.406Y76.294
G1 X159.34Y76.164
G1 X159.3Y76.027
G0 X159.839Y77.395
G1 X160.009Y77.384
G1 X161.469
G1 Y77.743
G1 X160.129
G1 X160
G1 X159.875Y77.762
G1 X159.761Y77.819
G1 X159.664Y77.905
G1 X159.613Y78.057
G1 Y78.214
G1 X159.661Y78.364
G1 X159.756Y78.494
G1 X159.862Y78.566
G1 X159.98Y78.615
G1 X160.105Y78.641
G1 X160.233
G1 X161.469
G1 Y79.002
G1 X160.087
G1 X159.955
G1 X159.83Y79.034
G1 X159.721Y79.105
G1 X159.636Y79.207
G1 X159.606Y79.36
G1 X159.622Y79.513
G1 X159.683Y79.653
G1 X159.785Y79.772
G1 X159.92Y79.842
G1 X160.064Y79.888
G1 X160.213Y79.91
G1 X160.365
G1 X161.469
G1 Y80.266
G1 X159.342
G1 Y79.944
G1 X159.64
G1 X159.499Y79.827
G1 X159.406Y79.71
G1 X159.34Y79.581
G1 X159.3Y79.444
G1 X159.288Y79.303
G1 X159.303Y79.162
G1 X159.345Y79.025
G1 X159.414Y78.897
G1 X159.51Y78.782
G1 X159.585Y78.734
G1 X159.666Y78.698
G1 X159.503Y78.562
G1 X159.393Y78.417
G1 X159.322Y78.251
G1 X159.292Y78.074
G1 X159.305Y77.892
G1 X159.363Y77.701
G1 X159.48Y77.545
G1 X159.643Y77.439
G1 X159.839Y77.395
G0 X164.3Y77.027
G1 X164.288Y76.886
G1 X164.303Y76.745
G1 X164.345Y76.608
G1 X164.413Y76.481
G1 X164.509Y76.366
G1 X164.584Y76.317
G1 X164.666Y76.281
G1 X164.503Y76.146
G1 X164.393Y76
G1 X164.322Y75.835
G1 X164.292Y75.657
G1 X164.304Y75.475
G1 X164.362Y75.284
G1 X164.48Y75.128
G1 X164.643Y75.022
G1 X164.838Y74.978
G1 X165.008Y74.967
G1 X166.469
G1 Y75.326
G1 X165.129
G1 X164.999
G1 X164.875Y75.345
G1 X164.761Y75.402
G1 X164.664Y75.488
G1 X164.613Y75.641
G1 Y75.798
G1 X164.66Y75.947
G1 X164.755Y76.077
G1 X164.862Y76.149
G1 X164.979Y76.198
G1 X165.104Y76.224
G1 X165.233
G1 X166.469
G1 Y76.586
G1 X165.087
G1 X164.954
G1 X164.829Y76.618
G1 X164.721Y76.688
G1 X164.636Y76.79
G1 X164.605Y76.944
G1 X164.622Y77.096
G1 X164.683Y77.236
G1 X164.785Y77.355
G1 X164.92Y77.425
G1 X165.063Y77.471
G1 X165.213Y77.493
G1 X165.365
G1 X166.469
G1 Y77.85
G1 X164.341
G1 Y77.527
G1 X164.64
G1 X164.499Y77.41
G1 X164.405Y77.294
G1 X164.339Y77.164
G1 X164.3Y77.027
G0 X164.838Y78.395
G1 X165.008Y78.384
G1 X166.469
G1 Y78.743
G1 X165.129
G1 X164.999
G1 X164.875Y78.762
G1 X164.761Y78.819
G1 X164.664Y78.905
G1 X164.613Y79.057
G1 Y79.214
G1 X164.66Y79.364
G1 X164.755Y79.494
G1 X164.862Y79.566
G1 X164.979Y79.615
G1 X165.104Y79.641
G1 X165.233
G1 X166.469
G1 Y80.002
G1 X165.087
G1 X164.954
G1 X164.829Y80.034
G1 X164.721Y80.105
G1 X164.636Y80.207
G1 X164.605Y80.36
G1 X164.622Y80.513
G1 X164.683Y80.653
G1 X164.785Y80.772
G1 X164.92Y80.842
G1 X165.063Y80.888
G1 X165.213Y80.91
G1 X165.365
G1 X166.469
G1 Y81.266
G1 X164.341
G1 Y80.944
G1 X164.64
G1 X164.499Y80.827
G1 X164.405Y80.71
G1 X164.339Y80.581
G1 X164.3Y80.444
G1 X164.288Y80.303
G1 X164.303Y80.162
G1 X164.344Y80.025
G1 X164.413Y79.897
G1 X164.509Y79.782
G1 X164.584Y79.734
G1 X164.666Y79.698
G1 X164.503Y79.562
G1 X164.393Y79.417
G1 X164.322Y79.251
G1 X164.292Y79.074
G1 X164.304Y78.892
G1 X164.362Y78.701
G1 X164.48Y78.545
G1 X164.643Y78.439
G1 X164.838Y78.395
G0 X164.911Y82.101
G1 X164.557Y82.132
G1 X164.207Y82.199
G1 X164.027Y82.287
G1 X163.898Y82.431
G1 X163.829Y82.612
G1 Y82.812
G1 X163.871Y82.918
G1 X163.932Y83.003
G1 X164.007Y83.075
G1 X164.095Y83.132
G1 X164.192Y83.172
G1 X164.599Y83.255
G1 X165.012Y83.284
G1 X165.425Y83.259
G1 X165.833Y83.182
G1 X166.013Y83.095
G1 X166.143Y82.952
G1 X166.211Y82.771
G1 Y82.571
G1 X166.112Y82.404
G1 X165.977Y82.272
G1 X165.81Y82.184
G1 X165.621Y82.146
G1 X165.267Y82.106
G1 X164.911
G0 X165.048Y81.728
G1 X165.532Y81.773
G1 X166.004Y81.899
G1 X166.141Y81.971
G1 X166.26Y82.065
G1 X166.359Y82.177
G1 X166.436Y82.303
G1 X166.491Y82.441
G1 X166.52Y82.587
G1 Y82.738
G1 X166.5Y82.891
G1 X166.391Y83.142
G1 X166.218Y83.348
G1 X165.995Y83.496
G1 X165.733Y83.575
G1 X165.306Y83.643
G1 X164.876
G1 X164.449Y83.596
G1 X164.033Y83.48
G1 X163.794Y83.33
G1 X163.623Y83.116
G1 X163.529Y82.857
G1 Y82.576
G1 X163.585Y82.345
G1 X163.704Y82.144
G1 X163.875Y81.984
G1 X164.089Y81.877
G1 X164.564Y81.762
G1 X165.048Y81.728
G0 X161.212Y81.771
G1 Y81.571
G1 X161.113Y81.404
G1 X160.977Y81.272
G1 X160.81Y81.184
G1 X160.622Y81.146
G1 X160.267Y81.106
G1 X159.912
G1 X159.558Y81.132
G1 X159.207Y81.199
G1 X159.028Y81.287
G1 X158.898Y81.431
G1 X158.829Y81.612
G1 Y81.812
G1 X158.872Y81.918
G1 X158.933Y82.003
G1 X159.008Y82.075
G1 X159.095Y82.132
G1 X159.192Y82.172
G1 X159.599Y82.255
G1 X160.012Y82.284
G1 X160.425Y82.259
G1 X160.833Y82.182
G1 X161.013Y82.095
G1 X161.143Y81.952
G1 X161.212Y81.771
G0 X161.525Y81.738
G1 X161.5Y81.891
G1 X161.391Y82.142
G1 X161.219Y82.348
G1 X160.995Y82.496
G1 X160.733Y82.575
G1 X160.306Y82.643
G1 X159.876
G1 X159.45Y82.596
G1 X159.033Y82.48
G1 X158.795Y82.33
G1 X158.623Y82.116
G1 X158.53Y81.857
G1 Y81.576
G1 X158.585Y81.345
G1 X158.705Y81.144
G1 X158.876Y80.984
G1 X159.089Y80.877
G1 X159.564Y80.762
G1 X160.049Y80.728
G1 X160.532Y80.773
G1 X161.005Y80.899
G1 X161.142Y80.971
G1 X161.26Y81.065
G1 X161.359Y81.177
G1 X161.437Y81.303
G1 X161.491Y81.441
G1 X161.521Y81.587
G1 Y81.738
G0 X160.81Y83.465
G1 X160.622Y83.427
G1 X160.267Y83.387
G1 X159.912
G1 X159.558Y83.414
G1 X159.207Y83.48
G1 X159.028Y83.568
G1 X158.898Y83.712
G1 X158.829Y83.893
G1 Y84.093
G1 X158.884Y84.217
G1 X158.965Y84.321
G1 X159.069Y84.401
G1 X159.192Y84.453
G1 X159.599Y84.536
G1 X160.012Y84.565
G1 X160.425Y84.541
G1 X160.833Y84.463
G1 X161.013Y84.376
G1 X161.143Y84.233
G1 X161.212Y84.052
G1 Y83.852
G1 X161.113Y83.685
G1 X160.977Y83.554
G1 X160.81Y83.465
G0 X161.142Y83.252
G1 X161.26Y83.346
G1 X161.359Y83.458
G1 X161.437Y83.584
G1 X161.491Y83.722
G1 X161.521Y83.868
G1 Y84.019
G1 X161.5Y84.172
G1 X161.391Y84.424
G1 X161.219Y84.629
G1 X160.995Y84.777
G1 X160.733Y84.856
G1 X160.306Y84.924
G1 X159.876
G1 X159.45Y84.877
G1 X159.033Y84.761
G1 X158.795Y84.611
G1 X158.623Y84.397
G1 X158.53Y84.139
G1 Y83.857
G1 X158.544Y83.752
G1 X158.574Y83.649
G1 X158.66Y83.487
G1 X158.778Y83.348
G1 X158.922Y83.237
G1 X159.089Y83.159
G1 X159.564Y83.044
G1 X160.049Y83.009
G1 X160.532Y83.054
G1 X161.005Y83.18
G1 X161.142Y83.252
G0 X161.059Y85.456
G1 X161.469
G1 Y85.866
G1 X161.059
G1 Y85.456
G0 X160.636Y86.791
G1 X160.493
G1 X160.352Y86.814
G1 X160.217Y86.865
G1 X160.092Y86.942
G1 X159.981Y87.044
G1 X159.926Y87.145
G1 X159.892Y87.255
G1 X159.881Y87.369
G1 X159.894Y87.484
G1 X159.977Y87.681
G1 X160.12Y87.832
G1 X160.305Y87.926
G1 X160.518Y87.951
G1 X160.697Y87.937
G1 X160.864Y87.88
G1 X161.013Y87.783
G1 X161.133Y87.65
G1 X161.211Y87.474
G1 Y87.287
G1 X161.161Y87.109
G1 X161.038Y86.959
G1 X160.913Y86.876
G1 X160.777Y86.82
G1 X160.636Y86.791
G0 X160.819Y86.459
G1 X160.974Y86.517
G1 X161.118Y86.601
G1 X161.247Y86.707
G1 X161.358Y86.834
G1 X161.448Y86.981
G1 X161.499Y87.142
G1 X161.521Y87.306
G1 Y87.468
G1 X161.482Y87.627
G1 X161.422Y87.778
G1 X161.338Y87.917
G1 X161.229Y88.041
G1 X161.098Y88.148
G1 X160.81Y88.268
G1 X160.51Y88.344
G1 X160.201Y88.375
G1 X159.615Y88.346
G1 X159.349Y88.288
G1 X159.094Y88.189
G1 X158.857Y88.051
G1 X158.687Y87.864
G1 X158.573Y87.642
G1 X158.52Y87.399
G1 X158.533Y87.147
G1 X158.616Y86.892
G1 X158.774Y86.686
G1 X158.992Y86.543
G1 X159.252Y86.479
G1 X159.28Y86.837
G1 X159.097Y86.895
G1 X158.95Y87
G1 X158.853Y87.146
G1 X158.815Y87.317
G1 X158.841Y87.496
G1 X158.966Y87.689
G1 X159.135Y87.839
G1 X159.338Y87.938
G1 X159.565Y87.98
G1 X159.759Y88
G1 X159.955
G1 X159.808Y87.89
G1 X159.693Y87.745
G1 X159.612Y87.579
G1 X159.57Y87.396
G1 Y87.223
G1 X159.599Y87.058
G1 X159.66Y86.905
G1 X159.748Y86.767
G1 X159.86Y86.648
G1 X159.994Y86.552
G1 X160.147Y86.482
G1 X160.315Y86.443
G1 X160.486Y86.42
G1 X160.655
G1 X160.819Y86.459
G0 X163.572Y87.541
G1 X163.917
G1 Y88.713
G1 X164.706Y88.871
G1 X164.625Y88.737
G1 X164.56Y88.578
G1 X164.526Y88.413
G1 Y88.247
G1 X164.549Y88.085
G1 X164.604Y87.93
G1 X164.687Y87.787
G1 X164.796Y87.659
G1 X164.931Y87.551
G1 X165.108Y87.467
G1 X165.293Y87.417
G1 X165.481Y87.401
G1 X165.668Y87.416
G1 X165.85Y87.464
G1 X166.021Y87.542
G1 X166.179Y87.651
G1 X166.318Y87.789
G1 X166.422Y87.957
G1 X166.49Y88.136
G1 X166.522Y88.322
G1 Y88.51
G1 X166.483Y88.694
G1 X166.413Y88.869
G1 X166.309Y89.03
G1 X166.173Y89.173
G1 X165.948Y89.294
G1 X165.699Y89.35
G1 X165.667Y88.971
G1 X165.797Y88.943
G1 X165.9Y88.908
G1 X165.993Y88.854
G1 X166.075Y88.784
G1 X166.141Y88.698
G1 X166.189Y88.6
G1 X166.217Y88.496
G1 Y88.389
G1 Y88.281
G1 X166.11Y88.067
G1 X165.948Y87.905
G1 X165.74Y87.807
G1 X165.505Y87.785
G1 X165.375
G1 X165.25Y87.816
G1 X165.134Y87.87
G1 X165.031Y87.949
G1 X164.947Y88.047
G1 X164.886Y88.16
G1 X164.85Y88.283
G1 Y88.412
G1 Y88.57
G1 X164.914Y88.716
G1 X165.004Y88.844
G1 X165.125Y88.947
G1 X165.08Y89.285
G1 X163.572Y89.001
G1 Y87.541
G0 X166.058Y86.866
G1 Y86.456
G1 X166.469
G1 Y86.866
G1 X166.058
G0 X165.425Y85.541
G1 X165.833Y85.463
G1 X166.013Y85.376
G1 X166.142Y85.233
G1 X166.211Y85.052
G1 Y84.852
G1 X166.112Y84.685
G1 X165.977Y84.554
G1 X165.81Y84.465
G1 X165.621Y84.427
G1 X165.267Y84.387
G1 X164.911
G1 X164.557Y84.414
G1 X164.207Y84.48
G1 X164.027Y84.568
G1 X163.898Y84.712
G1 X163.829Y84.893
G1 Y85.093
G1 X163.884Y85.217
G1 X163.964Y85.321
G1 X164.068Y85.401
G1 X164.192Y85.453
G1 X164.599Y85.536
G1 X165.012Y85.565
G1 X165.425Y85.541
G0 X165.733Y85.856
G1 X165.306Y85.924
G1 X164.876
G1 X164.449Y85.877
G1 X164.033Y85.761
G1 X163.794Y85.611
G1 X163.623Y85.397
G1 X163.529Y85.139
G1 Y84.857
G1 X163.544Y84.752
G1 X163.574Y84.649
G1 X163.66Y84.487
G1 X163.777Y84.348
G1 X163.922Y84.237
G1 X164.089Y84.159
G1 X164.564Y84.044
G1 X165.048Y84.009
G1 X165.532Y84.054
G1 X166.004Y84.18
G1 X166.141Y84.252
G1 X166.26Y84.346
G1 X166.359Y84.458
G1 X166.436Y84.584
G1 X166.491Y84.722
G1 X166.52Y84.868
G1 Y85.019
G1 X166.5Y85.172
G1 X166.391Y85.424
G1 X166.218Y85.629
G1 X165.995Y85.777
G1 X165.733Y85.856
G0 X165.435Y90.475
G1 X164.111
G1 X165.435Y91.394
G1 Y90.475
G0 X165.766Y90.475
G1 Y91.749
G1 X165.435
G1 X163.532Y90.409
G1 Y90.115
G1 X165.435
G1 Y89.718
G1 X165.766
G1 Y90.115
G1 X166.469
G1 Y90.475
G1 X165.766
G0 X160.435Y90.394
G1 Y89.475
G1 X159.111
G1 X160.435Y90.394
G0 X160.435Y90.749
G1 X158.533Y89.409
G1 Y89.115
G1 X160.435
G1 Y88.718
G1 X160.766
G1 Y89.115
G1 X161.469
G1 Y89.475
G1 X160.766
G1 Y90.749
G1 X160.435
G0 X155.434Y89.394
G1 Y88.475
G1 X154.11
G1 X155.434Y89.394
G0 X155.434Y89.749
G1 X153.531Y88.409
G1 Y88.115
G1 X155.434
G1 Y87.718
G1 X155.764
G1 Y88.115
G1 X156.467
G1 Y88.475
G1 X155.764
G1 Y89.749
G1 X155.434
G0 X153.915Y87.325
G1 X153.569
G1 Y85.425
G1 X153.849
G1 X154.132Y85.654
G1 X154.431Y85.858
G1 X154.744Y86.038
G1 X155.069Y86.193
G1 X155.406Y86.322
G1 X155.752Y86.424
G1 X156.106Y86.498
G1 X156.467Y86.544
G1 Y86.915
G1 X156.118Y86.878
G1 X155.774Y86.814
G1 X155.437Y86.723
G1 X155.109Y86.606
G1 X154.791Y86.463
G1 X154.485Y86.295
G1 X154.193Y86.103
G1 X153.915Y85.887
G1 Y87.325
G0 X150.435Y87.475
G1 X149.111
G1 X150.435Y88.394
G1 Y87.475
G0 X150.766Y87.475
G1 Y88.749
G1 X150.435
G1 X148.532Y87.409
G1 Y87.115
G1 X150.435
G1 Y86.718
G1 X150.766
G1 Y87.115
G1 X151.469
G1 Y87.475
G1 X150.766
G0 X150.693Y85.983
G1 X150.906Y85.918
G1 X151.075Y85.785
G1 X151.185Y85.601
G1 X151.222Y85.382
G1 X151.194Y85.178
G1 X151.098Y85.003
G1 X150.948Y84.871
G1 X150.756Y84.798
G1 X150.545
G1 X150.35Y84.852
G1 X150.188Y84.977
G1 X150.075Y85.156
G1 X150.035Y85.334
G1 Y85.516
G1 X150.128Y85.721
G1 X150.277Y85.875
G1 X150.472Y85.967
G1 X150.693Y85.983
G0 X149.675Y85.639
G1 X149.73Y85.486
G1 Y85.301
G1 X149.673Y85.128
G1 X149.546Y84.993
G1 X149.377Y84.918
G1 X149.213
G1 X149.062Y84.964
G1 X148.937Y85.062
G1 X148.851Y85.201
G1 X148.819Y85.342
G1 Y85.487
G1 X148.88Y85.64
G1 X148.981Y85.761
G1 X149.118Y85.84
G1 X149.278Y85.868
G1 X149.438Y85.84
G1 X149.574Y85.76
G1 X149.675Y85.639
G0 X149.876Y85.795
G1 X149.831Y85.9
G1 X149.675Y86.095
G1 X149.463Y86.212
G1 X149.224Y86.242
G1 X148.983Y86.178
G1 X148.78Y86.042
G1 X148.63Y85.857
G1 X148.54Y85.635
G1 X148.52Y85.392
G1 X148.534Y85.209
G1 X148.576Y85.045
G1 X148.636Y84.913
G1 X148.717Y84.798
G1 X148.817Y84.702
G1 X148.932Y84.626
G1 X149.059Y84.573
G1 X149.195Y84.544
G1 X149.336
G1 X149.479Y84.566
G1 X149.613Y84.628
G1 X149.727Y84.72
G1 X149.816Y84.836
G1 X149.876Y84.971
G1 X149.927Y84.845
G1 X150.083Y84.63
G1 X150.296Y84.483
G1 X150.545Y84.415
G1 X150.81Y84.435
G1 X150.968Y84.486
G1 X151.11Y84.562
G1 X151.235Y84.661
G1 X151.34Y84.78
G1 X151.424Y84.914
G1 X151.483Y85.062
G1 X151.515Y85.22
G1 Y85.386
G1 Y85.572
G1 X151.47Y85.751
G1 X151.392Y85.918
G1 X151.28Y86.066
G1 X151.14Y86.188
G1 X150.98Y86.279
G1 X150.805Y86.334
G1 X150.619Y86.354
G1 X150.366Y86.323
G1 X150.145Y86.211
G1 X149.976Y86.03
G1 X149.876Y85.795
G0 X151.058Y83.866
G1 Y83.456
G1 X151.469
G1 Y83.866
G1 X151.058
G0 X153.882Y83.217
G1 X153.963Y83.321
G1 X154.067Y83.401
G1 X154.19Y83.453
G1 X154.598Y83.536
G1 X155.01Y83.565
G1 X155.423Y83.541
G1 X155.832Y83.463
G1 X156.011Y83.376
G1 X156.141Y83.233
G1 X156.21Y83.052
G1 Y82.852
G1 X156.111Y82.685
G1 X155.975Y82.554
G1 X155.809Y82.465
G1 X155.62Y82.427
G1 X155.266Y82.387
G1 X154.91
G1 X154.556Y82.414
G1 X154.205Y82.48
G1 X154.026Y82.568
G1 X153.896Y82.712
G1 X153.827Y82.893
G1 Y83.093
G1 X153.882Y83.217
G0 X153.528Y83.139
G1 Y82.857
G1 X153.542Y82.752
G1 X153.572Y82.649
G1 X153.658Y82.487
G1 X153.776Y82.348
G1 X153.92Y82.237
G1 X154.087Y82.159
G1 X154.563Y82.044
G1 X155.047Y82.009
G1 X155.53Y82.054
G1 X156.003Y82.18
G1 X156.14Y82.252
G1 X156.259Y82.346
G1 X156.357Y82.458
G1 X156.435Y82.584
G1 X156.489Y82.722
G1 X156.519Y82.868
G1 Y83.019
G1 X156.498Y83.172
G1 X156.39Y83.424
G1 X156.217Y83.629
G1 X155.993Y83.777
G1 X155.731Y83.856
G1 X155.304Y83.924
G1 X154.874
G1 X154.448Y83.877
G1 X154.031Y83.761
G1 X153.793Y83.611
G1 X153.621Y83.397
G1 X153.528Y83.139
G0 X154.598Y81.255
G1 X155.01Y81.284
G1 X155.423Y81.259
G1 X155.832Y81.182
G1 X156.011Y81.095
G1 X156.141Y80.952
G1 X156.21Y80.771
G1 Y80.571
G1 X156.111Y80.404
G1 X155.975Y80.272
G1 X155.809Y80.184
G1 X155.62Y80.146
G1 X155.266Y80.106
G1 X154.91
G1 X154.556Y80.132
G1 X154.205Y80.199
G1 X154.026Y80.287
G1 X153.896Y80.431
G1 X153.827Y80.612
G1 Y80.812
G1 X153.87Y80.918
G1 X153.931Y81.003
G1 X154.006Y81.075
G1 X154.093Y81.132
G1 X154.19Y81.172
G1 X154.598Y81.255
G0 X154.448Y81.596
G1 X154.031Y81.48
G1 X153.793Y81.33
G1 X153.621Y81.116
G1 X153.528Y80.857
G1 Y80.576
G1 X153.584Y80.345
G1 X153.703Y80.144
G1 X153.874Y79.984
G1 X154.087Y79.877
G1 X154.563Y79.762
G1 X155.047Y79.728
G1 X155.53Y79.773
G1 X156.003Y79.899
G1 X156.14Y79.971
G1 X156.259Y80.065
G1 X156.358Y80.177
G1 X156.435Y80.303
G1 X156.489Y80.441
G1 X156.519Y80.587
G1 Y80.738
G1 X156.498Y80.891
G1 X156.39Y81.142
G1 X156.217Y81.348
G1 X155.993Y81.496
G1 X155.731Y81.575
G1 X155.304Y81.643
G1 X154.874
G1 X154.448Y81.596
G0 X156.057Y84.456
G1 X156.467
G1 Y84.866
G1 X156.057
G1 Y84.456
G0 X164.838Y102.49
G1 X165.008Y102.48
G1 X166.469
G1 Y102.838
G1 X165.129
G1 X164.999
G1 X164.875Y102.857
G1 X164.761Y102.914
G1 X164.664Y103
G1 X164.613Y103.153
G1 Y103.31
G1 X164.66Y103.459
G1 X164.755Y103.589
G1 X164.862Y103.661
G1 X164.979Y103.71
G1 X165.104Y103.736
G1 X166.469
G1 Y104.098
G1 X165.087
G1 X164.954
G1 X164.829Y104.13
G1 X164.721Y104.2
G1 X164.636Y104.302
G1 X164.605Y104.456
G1 X164.622Y104.608
G1 X164.683Y104.749
G1 X164.785Y104.868
G1 X164.92Y104.937
G1 X165.063Y104.983
G1 X165.213Y105.005
G1 X165.365
G1 X166.469
G1 Y105.362
G1 X164.341
G1 Y105.039
G1 X164.64
G1 X164.499Y104.923
G1 X164.405Y104.806
G1 X164.339Y104.677
G1 X164.3Y104.539
G1 X164.288Y104.398
G1 X164.303Y104.257
G1 X164.344Y104.121
G1 X164.413Y103.993
G1 X164.509Y103.878
G1 X164.584Y103.829
G1 X164.666Y103.794
G1 X164.503Y103.658
G1 X164.393Y103.512
G1 X164.322Y103.347
G1 X164.292Y103.169
G1 X164.304Y102.987
G1 X164.363Y102.796
G1 X164.48Y102.641
G1 X164.643Y102.535
G1 X164.838Y102.49
M9
G1 S0
M5
G90
; return to user-defined finish pos
G0 X0 Y0
M2
