; LightBurn 1.3.01
; GRBL device profile, absolute coords
; Bounds: X132.52 Y78.34 to X167.52 Y118.34
G00 G17 G40 G21 G54
G90
M4
; Cut @ 4000.002 mm/min, 0.2% power
M9
G0 X132.522Y78.344
; Layer frame finder
G1 Y118.344S2F4000
G1 X137.522
G1 Y117.344
G1 X142.522
G1 Y116.844
G1 X147.522
G1 Y116.344
G1 X152.522
G1 Y115.344
G1 X157.522
G1 Y114.344
G1 X162.522
G1 Y113.344
G1 X167.522
G1 Y78.344
G1 X132.522
; Cut @ 1000.002 mm/min, 100% power
M9
G0 X132.522Y78.344
; Layer C09 Pass 1 of 3
G1 Y118.344S1000F1000
G1 X137.522
G1 Y117.344
G1 X142.522
G1 Y116.844
G1 X147.522
G1 Y116.344
G1 X152.522
G1 Y115.344
G1 X157.522
G1 Y114.344
G1 X162.522
G1 Y113.344
G1 X167.522
G1 Y78.344
G1 X132.522
; Layer C09 Pass 2 of 3
G1 Y118.344
G1 X137.522
G1 Y117.344
G1 X142.522
G1 Y116.844
G1 X147.522
G1 Y116.344
G1 X152.522
G1 Y115.344
G1 X157.522
G1 Y114.344
G1 X162.522
G1 Y113.344
G1 X167.522
G1 Y78.344
G1 X132.522
; Layer C09 Pass 3 of 3
G1 Y118.344
G1 X137.522
G1 Y117.344
G1 X142.522
G1 Y116.844
G1 X147.522
G1 Y116.344
G1 X152.522
G1 Y115.344
G1 X157.522
G1 Y114.344
G1 X162.522
G1 Y113.344
G1 X167.522
G1 Y78.344
G1 X132.522
; Cut @ 1000.002 mm/min, 25% power
M9
G0 X134.114Y79.806
; Layer C11
G1 X133.642Y79.99S250
G1 X133.562Y80.024
G1 X133.534Y80.042
G1 Y80.059
G1 Y80.098
G1 X133.546Y80.127
G1 X133.825Y80.24
G1 X134.13Y80.358
G1 X134.154
G1 X134.176
G1 X134.21Y80.32
G1 Y80.273
G1 X134.174Y80.244
G1 X133.963Y80.159
G1 X133.929Y80.142
G1 X136.041
G1 X136.111
G1 X135.865Y80.248
G1 X135.845Y80.271
G1 Y80.3
G1 X135.862Y80.347
G1 X135.912Y80.361
G1 X135.95Y80.347
G1 X136.452Y80.151
G1 X136.504Y80.127
G1 X136.521Y80.101
G1 Y80.066
G1 Y80.045
G1 X136.483Y80.022
G1 X136.444Y80.005
G1 X136.027Y79.841
G1 X135.912Y79.798
G1 X135.874
G1 X135.839Y79.846
G1 X135.853Y79.898
G1 X135.889Y79.92
G1 X136.119Y80.013
G1 X135.023
G1 X133.929
G1 X133.961Y80
G1 X134.125Y79.936
G1 X134.173Y79.915
G1 X134.196Y79.9
G1 Y79.886
G1 X134.214Y79.858
G1 Y79.831
G1 X134.195Y79.816
G1 X134.177Y79.804
G1 X134.151
G1 X134.114
G0 X134.599Y81.686
G1 X135.012Y81.657
G1 X135.425Y81.681
G1 X135.833Y81.759
G1 X136.013Y81.846
G1 X136.143Y81.989
G1 X136.211Y82.17
G1 Y82.369
G1 X136.112Y82.537
G1 X135.977Y82.668
G1 X135.81Y82.756
G1 X135.621Y82.795
G1 X135.267Y82.835
G1 X134.912
G1 X134.557Y82.808
G1 X134.207Y82.742
G1 X134.027Y82.653
G1 X133.898Y82.509
G1 X133.829Y82.328
G1 Y82.128
G1 X133.884Y82.005
G1 X133.964Y81.901
G1 X134.069Y81.82
G1 X134.192Y81.768
G1 X134.599Y81.686
G0 X134.449Y81.345
G1 X134.033Y81.46
G1 X133.794Y81.61
G1 X133.623Y81.825
G1 X133.53Y82.083
G1 Y82.365
G1 X133.544Y82.472
G1 X133.62Y82.668
G1 X133.741Y82.837
G1 X133.899Y82.971
G1 X134.089Y83.063
G1 X134.564Y83.178
G1 X135.048Y83.213
G1 X135.532Y83.167
G1 X136.005Y83.042
G1 X136.141Y82.969
G1 X136.26Y82.876
G1 X136.359Y82.764
G1 X136.437Y82.638
G1 X136.491Y82.5
G1 X136.521Y82.354
G1 Y82.202
G1 X136.5Y82.049
G1 X136.391Y81.798
G1 X136.218Y81.593
G1 X135.995Y81.445
G1 X135.733Y81.365
G1 X135.306Y81.297
G1 X134.876
G1 X134.449Y81.345
G0 X135.225Y83.534
G1 Y84.641
G1 X135.588
G1 Y83.534
G1 X135.225
G0 X134.606Y85.216
G1 X134.257
G1 X134.1Y85.5
G1 X133.984Y85.669
G1 X133.848Y85.821
G1 X133.692Y85.954
G1 X133.52Y86.065
G1 Y86.298
G1 X136.469
G1 Y85.937
G1 X134.171
G1 X134.296Y85.787
G1 X134.469Y85.511
G1 X134.606Y85.216
G0 X134.342Y87.321
G1 Y87.644
G1 X134.64
G1 X134.499Y87.76
G1 X134.406Y87.877
G1 X134.339Y88.006
G1 X134.3Y88.144
G1 X134.288Y88.285
G1 X134.303Y88.426
G1 X134.345Y88.562
G1 X134.414Y88.69
G1 X134.509Y88.805
G1 X134.584Y88.854
G1 X134.666Y88.889
G1 X134.503Y89.025
G1 X134.393Y89.171
G1 X134.322Y89.336
G1 X134.292Y89.513
G1 X134.305Y89.695
G1 X134.363Y89.887
G1 X134.48Y90.042
G1 X134.643Y90.148
G1 X134.838Y90.193
G1 X135.009Y90.203
G1 X136.469
G1 Y89.845
G1 X135.129
G1 X134.999
G1 X134.875Y89.826
G1 X134.761Y89.769
G1 X134.664Y89.682
G1 X134.613Y89.53
G1 Y89.373
G1 X134.66Y89.223
G1 X134.755Y89.094
G1 X134.862Y89.022
G1 X134.98Y88.972
G1 X135.104Y88.947
G1 X135.233
G1 X136.469
G1 Y88.585
G1 X135.087
G1 X134.954
G1 X134.83Y88.553
G1 X134.721Y88.483
G1 X134.636Y88.381
G1 X134.606Y88.227
G1 X134.622Y88.075
G1 X134.683Y87.934
G1 X134.785Y87.815
G1 X134.92Y87.746
G1 X135.064Y87.699
G1 X135.213Y87.678
G1 X135.365
G1 X136.469
G1 Y87.321
G1 X134.342
G0 X139.396Y87.457
G1 X139.695
G1 X139.554Y87.574
G1 X139.46Y87.69
G1 X139.394Y87.82
G1 X139.355Y87.957
G1 X139.343Y88.098
G1 X139.358Y88.239
G1 X139.399Y88.376
G1 X139.468Y88.503
G1 X139.564Y88.618
G1 X139.639Y88.667
G1 X139.721Y88.703
G1 X139.558Y88.838
G1 X139.448Y88.984
G1 X139.377Y89.149
G1 X139.346Y89.327
G1 X139.359Y89.509
G1 X139.417Y89.7
G1 X139.535Y89.855
G1 X139.698Y89.962
G1 X139.893Y90.006
G1 X140.063Y90.017
G1 X141.524
G1 Y89.658
G1 X140.184
G1 X140.054
G1 X139.93Y89.639
G1 X139.816Y89.582
G1 X139.719Y89.496
G1 X139.668Y89.343
G1 Y89.186
G1 X139.715Y89.037
G1 X139.81Y88.907
G1 X139.917Y88.835
G1 X140.034Y88.786
G1 X140.159Y88.76
G1 X140.288
G1 X141.524
G1 Y88.398
G1 X140.142
G1 X140.009
G1 X139.884Y88.366
G1 X139.775Y88.296
G1 X139.691Y88.194
G1 X139.66Y88.04
G1 X139.677Y87.888
G1 X139.737Y87.748
G1 X139.84Y87.629
G1 X139.975Y87.559
G1 X140.118Y87.513
G1 X140.268Y87.491
G1 X140.42
G1 X141.524
G1 Y87.134
G1 X139.396
G1 Y87.457
G0 X139.893Y86.589
G1 X140.063Y86.6
G1 X141.524
G1 Y86.241
G1 X140.184
G1 X140.054
G1 X139.93Y86.222
G1 X139.816Y86.165
G1 X139.719Y86.079
G1 X139.668Y85.926
G1 Y85.769
G1 X139.715Y85.62
G1 X139.81Y85.49
G1 X139.917Y85.418
G1 X140.034Y85.369
G1 X140.159Y85.343
G1 X140.288
G1 X141.524
G1 Y84.982
G1 X140.142
G1 X140.009
G1 X139.884Y84.949
G1 X139.776Y84.879
G1 X139.691Y84.777
G1 X139.66Y84.624
G1 X139.677Y84.471
G1 X139.737Y84.331
G1 X139.84Y84.212
G1 X139.975Y84.142
G1 X140.118Y84.096
G1 X140.268Y84.074
G1 X140.42
G1 X141.524
G1 Y83.718
G1 X139.396
G1 Y84.04
G1 X139.695
G1 X139.554Y84.157
G1 X139.46Y84.273
G1 X139.394Y84.403
G1 X139.355Y84.54
G1 X139.343Y84.681
G1 X139.357Y84.822
G1 X139.399Y84.959
G1 X139.468Y85.086
G1 X139.564Y85.201
G1 X139.639Y85.25
G1 X139.721Y85.286
G1 X139.558Y85.421
G1 X139.448Y85.567
G1 X139.377Y85.732
G1 X139.346Y85.91
G1 X139.359Y86.092
G1 X139.417Y86.283
G1 X139.535Y86.439
G1 X139.698Y86.545
G1 X139.893Y86.589
G0 X144.308Y86.044
G1 X144.366Y86.235
G1 X144.484Y86.391
G1 X144.647Y86.497
G1 X144.842Y86.541
G1 X145.012Y86.552
G1 X146.473
G1 Y86.193
G1 X145.133
G1 X145.003
G1 X144.879Y86.174
G1 X144.765Y86.117
G1 X144.668Y86.031
G1 X144.617Y85.878
G1 Y85.721
G1 X144.664Y85.572
G1 X144.759Y85.442
G1 X144.866Y85.37
G1 X144.983Y85.321
G1 X145.108Y85.295
G1 X145.237
G1 X146.473
G1 Y84.934
G1 X145.091
G1 X144.958
G1 X144.833Y84.901
G1 X144.725Y84.831
G1 X144.64Y84.729
G1 X144.609Y84.576
G1 X144.626Y84.423
G1 X144.686Y84.283
G1 X144.789Y84.164
G1 X144.924Y84.094
G1 X145.067Y84.048
G1 X145.217Y84.026
G1 X145.369
G1 X146.473
G1 Y83.67
G1 X144.345
G1 Y83.992
G1 X144.644
G1 X144.503Y84.109
G1 X144.409Y84.225
G1 X144.343Y84.355
G1 X144.304Y84.492
G1 X144.292Y84.633
G1 X144.307Y84.774
G1 X144.348Y84.911
G1 X144.417Y85.038
G1 X144.513Y85.153
G1 X144.588Y85.202
G1 X144.67Y85.238
G1 X144.507Y85.373
G1 X144.397Y85.519
G1 X144.326Y85.684
G1 X144.296Y85.862
G1 X144.308Y86.044
G0 X144.345Y87.086
G1 Y87.409
G1 X144.644
G1 X144.503Y87.526
G1 X144.409Y87.642
G1 X144.343Y87.772
G1 X144.304Y87.909
G1 X144.292Y88.05
G1 X144.307Y88.191
G1 X144.348Y88.328
G1 X144.417Y88.455
G1 X144.513Y88.57
G1 X144.588Y88.619
G1 X144.67Y88.655
G1 X144.507Y88.79
G1 X144.397Y88.936
G1 X144.326Y89.101
G1 X144.295Y89.279
G1 X144.308Y89.461
G1 X144.366Y89.652
G1 X144.484Y89.807
G1 X144.647Y89.914
G1 X144.842Y89.958
G1 X145.012Y89.969
G1 X146.473
G1 Y89.61
G1 X145.133
G1 X145.003
G1 X144.879Y89.591
G1 X144.765Y89.534
G1 X144.668Y89.448
G1 X144.617Y89.295
G1 Y89.138
G1 X144.664Y88.989
G1 X144.759Y88.859
G1 X144.866Y88.787
G1 X144.983Y88.738
G1 X145.108Y88.712
G1 X145.237
G1 X146.473
G1 Y88.35
G1 X145.091
G1 X144.958
G1 X144.833Y88.318
G1 X144.725Y88.248
G1 X144.64Y88.146
G1 X144.609Y87.992
G1 X144.626Y87.84
G1 X144.686Y87.7
G1 X144.789Y87.581
G1 X144.924Y87.511
G1 X145.067Y87.465
G1 X145.217Y87.443
G1 X145.369
G1 X146.473
G1 Y87.086
G1 X144.345
G0 X149.397Y87.206
G1 Y87.529
G1 X149.695
G1 X149.554Y87.646
G1 X149.461Y87.762
G1 X149.394Y87.892
G1 X149.355Y88.029
G1 X149.343Y88.17
G1 X149.358Y88.311
G1 X149.4Y88.448
G1 X149.469Y88.575
G1 X149.564Y88.69
G1 X149.639Y88.739
G1 X149.721Y88.775
G1 X149.558Y88.91
G1 X149.448Y89.056
G1 X149.377Y89.221
G1 X149.347Y89.399
G1 X149.36Y89.581
G1 X149.418Y89.772
G1 X149.535Y89.927
G1 X149.698Y90.034
G1 X149.893Y90.078
G1 X150.064Y90.089
G1 X151.524
G1 Y89.73
G1 X150.184
G1 X150.054
G1 X149.93Y89.711
G1 X149.816Y89.654
G1 X149.719Y89.568
G1 X149.668Y89.415
G1 Y89.258
G1 X149.715Y89.109
G1 X149.81Y88.979
G1 X149.917Y88.907
G1 X150.035Y88.858
G1 X150.159Y88.832
G1 X150.288
G1 X151.524
G1 Y88.47
G1 X150.142
G1 X150.009
G1 X149.885Y88.438
G1 X149.776Y88.368
G1 X149.691Y88.266
G1 X149.661Y88.112
G1 X149.677Y87.96
G1 X149.738Y87.82
G1 X149.84Y87.701
G1 X149.975Y87.631
G1 X150.119Y87.585
G1 X150.268Y87.563
G1 X150.42
G1 X151.524
G1 Y87.206
G1 X149.397
G0 X149.698Y86.617
G1 X149.893Y86.661
G1 X150.064Y86.672
G1 X151.524
G1 Y86.313
G1 X150.184
G1 X150.054
G1 X149.93Y86.294
G1 X149.816Y86.237
G1 X149.719Y86.151
G1 X149.668Y85.998
G1 Y85.841
G1 X149.715Y85.692
G1 X149.81Y85.562
G1 X149.917Y85.49
G1 X150.035Y85.441
G1 X150.159Y85.415
G1 X150.288
G1 X151.524
G1 Y85.054
G1 X150.142
G1 X150.009
G1 X149.885Y85.021
G1 X149.776Y84.951
G1 X149.691Y84.849
G1 X149.661Y84.696
G1 X149.677Y84.543
G1 X149.738Y84.403
G1 X149.84Y84.284
G1 X149.975Y84.214
G1 X150.119Y84.168
G1 X150.268Y84.146
G1 X150.42
G1 X151.524
G1 Y83.79
G1 X149.397
G1 Y84.112
G1 X149.695
G1 X149.554Y84.229
G1 X149.461Y84.345
G1 X149.394Y84.475
G1 X149.355Y84.612
G1 X149.343Y84.753
G1 X149.358Y84.894
G1 X149.4Y85.031
G1 X149.469Y85.158
G1 X149.564Y85.273
G1 X149.639Y85.322
G1 X149.721Y85.358
G1 X149.558Y85.493
G1 X149.448Y85.639
G1 X149.377Y85.804
G1 X149.347Y85.982
G1 X149.36Y86.164
G1 X149.418Y86.355
G1 X149.535Y86.511
G1 X149.698Y86.617
G0 X154.306Y86.072
G1 X154.364Y86.263
G1 X154.482Y86.419
G1 X154.645Y86.525
G1 X154.84Y86.569
G1 X155.01Y86.58
G1 X156.47
G1 Y86.221
G1 X155.13
G1 X155.001
G1 X154.876Y86.202
G1 X154.762Y86.145
G1 X154.666Y86.059
G1 X154.614Y85.906
G1 Y85.749
G1 X154.662Y85.6
G1 X154.757Y85.47
G1 X154.864Y85.398
G1 X154.981Y85.349
G1 X155.106Y85.323
G1 X155.235
G1 X156.47
G1 Y84.962
G1 X155.088
G1 X154.956
G1 X154.831Y84.929
G1 X154.722Y84.859
G1 X154.638Y84.757
G1 X154.607Y84.604
G1 X154.624Y84.451
G1 X154.684Y84.311
G1 X154.786Y84.192
G1 X154.921Y84.122
G1 X155.065Y84.076
G1 X155.215Y84.054
G1 X155.367
G1 X156.47
G1 Y83.698
G1 X154.343
G1 Y84.02
G1 X154.642
G1 X154.501Y84.137
G1 X154.407Y84.253
G1 X154.341Y84.383
G1 X154.302Y84.52
G1 X154.289Y84.661
G1 X154.304Y84.802
G1 X154.346Y84.939
G1 X154.415Y85.066
G1 X154.511Y85.181
G1 X154.586Y85.23
G1 X154.668Y85.266
G1 X154.505Y85.401
G1 X154.395Y85.547
G1 X154.324Y85.712
G1 X154.293Y85.89
G1 X154.306Y86.072
G0 X154.343Y87.114
G1 Y87.437
G1 X154.642
G1 X154.501Y87.554
G1 X154.407Y87.67
G1 X154.341Y87.8
G1 X154.302Y87.937
G1 X154.289Y88.078
G1 X154.304Y88.219
G1 X154.346Y88.356
G1 X154.415Y88.483
G1 X154.511Y88.598
G1 X154.586Y88.647
G1 X154.668Y88.683
G1 X154.505Y88.818
G1 X154.395Y88.964
G1 X154.324Y89.129
G1 X154.293Y89.307
G1 X154.306Y89.489
G1 X154.364Y89.68
G1 X154.482Y89.835
G1 X154.645Y89.942
G1 X154.84Y89.986
G1 X155.01Y89.997
G1 X156.47
G1 Y89.638
G1 X155.13
G1 X155.001
G1 X154.876Y89.619
G1 X154.762Y89.562
G1 X154.666Y89.476
G1 X154.614Y89.323
G1 Y89.166
G1 X154.662Y89.017
G1 X154.757Y88.887
G1 X154.864Y88.815
G1 X154.981Y88.766
G1 X155.106Y88.74
G1 X155.235
G1 X156.47
G1 Y88.378
G1 X155.088
G1 X154.956
G1 X154.831Y88.346
G1 X154.722Y88.276
G1 X154.638Y88.174
G1 X154.607Y88.02
G1 X154.624Y87.868
G1 X154.684Y87.728
G1 X154.786Y87.609
G1 X154.921Y87.539
G1 X155.065Y87.493
G1 X155.215Y87.471
G1 X155.367
G1 X156.47
G1 Y87.114
G1 X154.343
G0 X159.347Y87.092
G1 Y87.415
G1 X159.645
G1 X159.504Y87.532
G1 X159.411Y87.648
G1 X159.345Y87.778
G1 X159.305Y87.915
G1 X159.293Y88.056
G1 X159.308Y88.197
G1 X159.35Y88.334
G1 X159.419Y88.461
G1 X159.515Y88.576
G1 X159.59Y88.625
G1 X159.671Y88.661
G1 X159.508Y88.796
G1 X159.398Y88.942
G1 X159.327Y89.107
G1 X159.297Y89.285
G1 X159.31Y89.467
G1 X159.368Y89.658
G1 X159.485Y89.813
G1 X159.648Y89.92
G1 X159.844Y89.964
G1 X160.014Y89.975
G1 X161.474
G1 Y89.616
G1 X160.134
G1 X160.005
G1 X159.88Y89.597
G1 X159.766Y89.54
G1 X159.67Y89.454
G1 X159.618Y89.301
G1 Y89.144
G1 X159.666Y88.995
G1 X159.761Y88.865
G1 X159.867Y88.793
G1 X159.985Y88.744
G1 X160.11Y88.718
G1 X160.238
G1 X161.474
G1 Y88.356
G1 X160.092
G1 X159.96
G1 X159.835Y88.324
G1 X159.726Y88.254
G1 X159.641Y88.152
G1 X159.611Y87.998
G1 X159.627Y87.846
G1 X159.688Y87.706
G1 X159.79Y87.587
G1 X159.925Y87.517
G1 X160.069Y87.471
G1 X160.218Y87.449
G1 X160.37
G1 X161.474
G1 Y87.092
G1 X159.347
G0 X159.648Y86.503
G1 X159.844Y86.547
G1 X160.014Y86.558
G1 X161.474
G1 Y86.199
G1 X160.134
G1 X160.005
G1 X159.88Y86.18
G1 X159.766Y86.123
G1 X159.67Y86.037
G1 X159.618Y85.884
G1 Y85.727
G1 X159.666Y85.578
G1 X159.761Y85.448
G1 X159.867Y85.376
G1 X159.985Y85.327
G1 X160.11Y85.301
G1 X160.238
G1 X161.474
G1 Y84.94
G1 X160.092
G1 X159.96
G1 X159.835Y84.907
G1 X159.726Y84.837
G1 X159.641Y84.735
G1 X159.611Y84.582
G1 X159.627Y84.429
G1 X159.688Y84.289
G1 X159.79Y84.17
G1 X159.925Y84.1
G1 X160.069Y84.054
G1 X160.218Y84.032
G1 X160.37
G1 X161.474
G1 Y83.676
G1 X159.347
G1 Y83.998
G1 X159.645
G1 X159.504Y84.115
G1 X159.411Y84.231
G1 X159.345Y84.361
G1 X159.305Y84.498
G1 X159.293Y84.639
G1 X159.308Y84.78
G1 X159.35Y84.917
G1 X159.419Y85.044
G1 X159.515Y85.159
G1 X159.59Y85.208
G1 X159.671Y85.244
G1 X159.508Y85.379
G1 X159.399Y85.525
G1 X159.327Y85.69
G1 X159.297Y85.868
G1 X159.31Y86.05
G1 X159.368Y86.241
G1 X159.485Y86.397
G1 X159.648Y86.503
G0 X164.288Y86.64
G1 X164.303Y86.781
G1 X164.345Y86.917
G1 X164.413Y87.045
G1 X164.509Y87.16
G1 X164.584Y87.209
G1 X164.666Y87.244
G1 X164.503Y87.38
G1 X164.393Y87.526
G1 X164.322Y87.691
G1 X164.292Y87.868
G1 X164.304Y88.05
G1 X164.363Y88.242
G1 X164.48Y88.397
G1 X164.643Y88.503
G1 X164.838Y88.548
G1 X165.008Y88.558
G1 X166.469
G1 Y88.2
G1 X165.129
G1 X164.999
G1 X164.875Y88.181
G1 X164.761Y88.124
G1 X164.664Y88.038
G1 X164.613Y87.885
G1 Y87.728
G1 X164.66Y87.579
G1 X164.755Y87.449
G1 X164.862Y87.377
G1 X164.979Y87.328
G1 X165.104Y87.302
G1 X165.233
G1 X166.469
G1 Y86.94
G1 X165.087
G1 X164.954
G1 X164.829Y86.908
G1 X164.721Y86.837
G1 X164.636Y86.736
G1 X164.605Y86.582
G1 X164.622Y86.43
G1 X164.683Y86.289
G1 X164.785Y86.171
G1 X164.92Y86.101
G1 X165.063Y86.054
G1 X165.213Y86.033
G1 X165.365
G1 X166.469
G1 Y85.676
G1 X164.342
G1 Y85.998
G1 X164.64
G1 X164.499Y86.115
G1 X164.405Y86.232
G1 X164.339Y86.361
G1 X164.3Y86.499
G1 X164.288Y86.64
G0 X164.557Y84.81
G1 X164.207Y84.744
G1 X164.027Y84.655
G1 X163.898Y84.511
G1 X163.829Y84.33
G1 Y84.13
G1 X163.884Y84.007
G1 X163.964Y83.903
G1 X164.068Y83.822
G1 X164.192Y83.77
G1 X164.599Y83.688
G1 X165.012Y83.659
G1 X165.425Y83.683
G1 X165.833Y83.76
G1 X166.013Y83.848
G1 X166.143Y83.991
G1 X166.211Y84.172
G1 Y84.372
G1 X166.112Y84.539
G1 X165.977Y84.67
G1 X165.81Y84.758
G1 X165.621Y84.797
G1 X165.267Y84.837
G1 X164.911
G1 X164.557Y84.81
G0 X164.564Y85.18
G1 X165.048Y85.215
G1 X165.532Y85.169
G1 X166.004Y85.044
G1 X166.141Y84.971
G1 X166.26Y84.878
G1 X166.359Y84.766
G1 X166.436Y84.64
G1 X166.491Y84.502
G1 X166.521Y84.355
G1 Y84.204
G1 X166.5Y84.051
G1 X166.391Y83.8
G1 X166.218Y83.595
G1 X165.995Y83.447
G1 X165.733Y83.367
G1 X165.306Y83.299
G1 X164.876
G1 X164.449Y83.347
G1 X164.033Y83.462
G1 X163.794Y83.612
G1 X163.623Y83.827
G1 X163.529Y84.085
G1 Y84.367
G1 X163.544Y84.474
G1 X163.62Y84.67
G1 X163.741Y84.839
G1 X163.899Y84.973
G1 X164.089Y85.065
G1 X164.564Y85.18
G0 X163.52Y82.372
G1 X166.469
G1 Y82.011
G1 X164.171
G1 X164.295Y81.861
G1 X164.469Y81.585
G1 X164.606Y81.29
G1 X164.257
G1 X164.1Y81.573
G1 X163.984Y81.743
G1 X163.847Y81.895
G1 X163.692Y82.027
G1 X163.52Y82.139
G1 Y82.372
G0 X161.217Y82.385
G1 X161.147Y82.578
G1 X161.016Y82.729
G1 X160.842Y82.826
G1 X160.639Y82.856
G1 X160.519
G1 X160.405Y82.814
G1 X160.3Y82.759
G1 X160.208Y82.682
G1 X160.132Y82.589
G1 X160.078Y82.484
G1 X160.046Y82.369
G1 Y82.25
G1 Y82.128
G1 X160.144Y81.91
G1 X160.31Y81.752
G1 X160.523Y81.667
G1 X160.762
G1 X160.98Y81.768
G1 X161.138Y81.934
G1 X161.222Y82.147
G1 Y82.385
G0 X159.742Y82.342
G1 X159.678Y82.516
G1 X159.551Y82.651
G1 X159.382Y82.726
G1 X159.219
G1 X159.068Y82.68
G1 X158.943Y82.582
G1 X158.856Y82.443
G1 X158.824Y82.302
G1 Y82.157
G1 X158.885Y82.004
G1 X158.987Y81.883
G1 X159.123Y81.804
G1 X159.283Y81.775
G1 X159.443Y81.804
G1 X159.579Y81.884
G1 X159.681Y82.005
G1 X159.735Y82.158
G1 Y82.342
G0 X159.882Y82.672
G1 X159.932Y82.799
G1 X160.088Y83.014
G1 X160.301Y83.16
G1 X160.551Y83.228
G1 X160.816Y83.209
G1 X160.973Y83.158
G1 X161.116Y83.081
G1 X161.241Y82.982
G1 X161.346Y82.864
G1 X161.429Y82.729
G1 X161.488Y82.581
G1 X161.521Y82.423
G1 Y82.258
G1 Y82.072
G1 X161.476Y81.893
G1 X161.397Y81.726
G1 X161.286Y81.578
G1 X161.146Y81.455
G1 X160.985Y81.365
G1 X160.81Y81.309
G1 X160.625Y81.29
G1 X160.371Y81.32
G1 X160.15Y81.433
G1 X159.981Y81.614
G1 X159.882Y81.849
G1 X159.836Y81.744
G1 X159.68Y81.549
G1 X159.469Y81.432
G1 X159.229Y81.401
G1 X158.988Y81.466
G1 X158.785Y81.602
G1 X158.635Y81.787
G1 X158.546Y82.009
G1 X158.526Y82.252
G1 X158.54Y82.435
G1 X158.582Y82.599
G1 X158.641Y82.731
G1 X158.722Y82.846
G1 X158.822Y82.942
G1 X158.938Y83.018
G1 X159.065Y83.071
G1 X159.2Y83.1
G1 X159.341
G1 X159.484Y83.078
G1 X159.618Y83.016
G1 X159.733Y82.924
G1 X159.822Y82.808
G1 X159.882Y82.672
G0 X159.154Y80.363
G1 X159.176
G1 X159.21Y80.32
G1 Y80.273
G1 X159.174Y80.244
G1 X158.963Y80.159
G1 X158.929Y80.142
G1 X161.041
G1 X161.112
G1 X160.866Y80.248
G1 X160.846Y80.271
G1 Y80.3
G1 X160.862Y80.347
G1 X160.912Y80.361
G1 X160.95Y80.347
G1 X161.452Y80.151
G1 X161.504Y80.127
G1 X161.522Y80.101
G1 Y80.066
G1 Y80.045
G1 X161.483Y80.022
G1 X161.444Y80.005
G1 X161.027Y79.841
G1 X160.912Y79.798
G1 X160.874
G1 X160.839Y79.846
G1 X160.854Y79.898
G1 X160.89Y79.92
G1 X161.119Y80.013
G1 X160.023
G1 X158.929
G1 X158.961Y80
G1 X159.125Y79.936
G1 X159.174Y79.915
G1 X159.196Y79.9
G1 Y79.886
G1 X159.214Y79.858
G1 Y79.831
G1 X159.195Y79.816
G1 X159.177Y79.804
G1 X159.151
G1 X159.114
G1 X158.642Y79.99
G1 X158.562Y80.024
G1 X158.535Y80.042
G1 Y80.059
G1 Y80.098
G1 X158.546Y80.127
G1 X158.825Y80.24
G1 X159.13Y80.358
G1 X159.154
G0 X156.52Y80.101
G1 Y80.066
G1 Y80.045
G1 X156.481Y80.022
G1 X156.443Y80.005
G1 X156.026Y79.841
G1 X155.91Y79.798
G1 X155.873
G1 X155.837Y79.846
G1 X155.852Y79.898
G1 X155.888Y79.92
G1 X156.117Y80.013
G1 X155.021
G1 X153.927
G1 X153.959Y80
G1 X154.124Y79.936
G1 X154.172Y79.915
G1 X154.194Y79.9
G1 X154.204Y79.886
G1 Y79.858
G1 Y79.831
G1 X154.193Y79.816
G1 X154.176Y79.804
G1 X154.149
G1 X154.112
G1 X153.64Y79.99
G1 X153.56Y80.024
G1 X153.533Y80.042
G1 Y80.059
G1 Y80.098
G1 X153.544Y80.127
G1 X153.823Y80.24
G1 X154.129Y80.358
G1 X154.152
G1 X154.174
G1 X154.208Y80.32
G1 Y80.273
G1 X154.172Y80.244
G1 X153.962Y80.159
G1 X153.927Y80.142
G1 X156.039
G1 X156.11
G1 X155.864Y80.248
G1 X155.844Y80.271
G1 Y80.3
G1 X155.86Y80.347
G1 X155.91Y80.361
G1 X155.949Y80.347
G1 X156.451Y80.151
G1 X156.502Y80.127
G1 X156.52Y80.101
G0 X155.698Y81.729
G1 X155.866Y81.786
G1 X156.014Y81.882
G1 X156.135Y82.015
G1 X156.212Y82.192
G1 Y82.379
G1 X156.162Y82.557
G1 X156.04Y82.706
G1 X155.914Y82.79
G1 X155.779Y82.846
G1 X155.637Y82.875
G1 X155.494
G1 X155.353Y82.852
G1 X155.218Y82.801
G1 X155.093Y82.724
G1 X154.983Y82.622
G1 X154.927Y82.52
G1 X154.894Y82.411
G1 X154.883Y82.297
G1 X154.895Y82.182
G1 X154.978Y81.985
G1 X155.121Y81.834
G1 X155.306Y81.74
G1 X155.519Y81.715
G1 X155.698Y81.729
G0 X155.812Y81.398
G1 X155.511Y81.321
G1 X155.202Y81.29
G1 X154.617Y81.32
G1 X154.35Y81.378
G1 X154.095Y81.476
G1 X153.858Y81.615
G1 X153.688Y81.802
G1 X153.574Y82.023
G1 X153.522Y82.266
G1 X153.534Y82.519
G1 X153.617Y82.774
G1 X153.775Y82.98
G1 X153.993Y83.123
G1 X154.253Y83.187
G1 X154.281Y82.828
G1 X154.098Y82.77
G1 X153.951Y82.665
G1 X153.855Y82.519
G1 X153.816Y82.349
G1 X153.842Y82.17
G1 X153.967Y81.976
G1 X154.136Y81.826
G1 X154.339Y81.727
G1 X154.566Y81.686
G1 X154.76Y81.666
G1 X154.956
G1 X154.81Y81.776
G1 X154.694Y81.921
G1 X154.614Y82.087
G1 X154.571Y82.27
G1 Y82.443
G1 X154.6Y82.607
G1 X154.661Y82.761
G1 X154.749Y82.899
G1 X154.862Y83.018
G1 X154.996Y83.114
G1 X155.148Y83.184
G1 X155.316Y83.223
G1 X155.487Y83.246
G1 X155.656
G1 X155.82Y83.207
G1 X155.975Y83.148
G1 X156.119Y83.065
G1 X156.248Y82.959
G1 X156.359Y82.832
G1 X156.449Y82.685
G1 X156.5Y82.524
G1 X156.522Y82.36
G1 Y82.197
G1 X156.483Y82.039
G1 X156.423Y81.888
G1 X156.339Y81.749
G1 X156.231Y81.624
G1 X156.099Y81.518
G1 X155.812Y81.398
G0 X151.521Y80.101
G1 Y80.066
G1 Y80.045
G1 X151.483Y80.022
G1 X151.444Y80.005
G1 X151.027Y79.841
G1 X150.912Y79.798
G1 X150.874
G1 X150.839Y79.846
G1 X150.854Y79.898
G1 X150.889Y79.92
G1 X151.119Y80.013
G1 X150.023
G1 X148.929
G1 X148.961Y80
G1 X149.125Y79.936
G1 X149.173Y79.915
G1 X149.196Y79.9
G1 Y79.886
G1 X149.214Y79.858
G1 Y79.831
G1 X149.195Y79.816
G1 X149.177Y79.804
G1 X149.151
G1 X149.114
G1 X148.642Y79.99
G1 X148.562Y80.024
G1 X148.534Y80.042
G1 Y80.059
G1 Y80.098
G1 X148.546Y80.127
G1 X148.825Y80.24
G1 X149.13Y80.358
G1 X149.154
G1 X149.176
G1 X149.21Y80.32
G1 Y80.273
G1 X149.174Y80.244
G1 X148.963Y80.159
G1 X148.929Y80.142
G1 X151.041
G1 X151.111
G1 X150.865Y80.248
G1 X150.845Y80.271
G1 Y80.3
G1 X150.862Y80.347
G1 X150.912Y80.361
G1 X150.95Y80.347
G1 X151.452Y80.151
G1 X151.504Y80.127
G1 X151.521Y80.101
G0 X150.49Y81.645
G1 Y82.564
G1 X149.166
G1 X150.49Y81.645
G0 X150.49Y81.29
G1 X148.587Y82.63
G1 Y82.925
G1 X150.49
G1 Y83.321
G1 X150.821
G1 Y82.925
G1 X151.524
G1 Y82.564
G1 X150.821
G1 Y81.29
G1 X150.49
G0 X146.472Y81.879
G1 X146.4Y81.725
G1 X146.3Y81.589
G1 X146.177Y81.474
G1 X146.033Y81.383
G1 X145.872Y81.321
G1 X145.697Y81.29
G1 X145.649Y81.651
G1 X145.792Y81.687
G1 X145.896Y81.721
G1 X145.99Y81.774
G1 X146.073Y81.844
G1 X146.141Y81.929
G1 X146.19Y82.027
G1 X146.219Y82.131
G1 Y82.239
G1 Y82.348
G1 X146.179Y82.462
G1 X146.122Y82.567
G1 X146.046Y82.658
G1 X145.953Y82.734
G1 X145.847Y82.789
G1 X145.732Y82.823
G1 X145.614Y82.833
G1 X145.495Y82.82
G1 X145.308Y82.75
G1 X145.163Y82.623
G1 X145.07Y82.453
G1 X145.042Y82.256
G1 X145.055Y82.127
G1 X145.082Y82.001
G1 X144.766Y82.041
G1 Y82.1
G1 Y82.289
G1 X144.688Y82.46
G1 X144.564Y82.597
G1 X144.396Y82.687
G1 X144.228Y82.7
G1 X144.072Y82.653
G1 X143.942Y82.554
G1 X143.853Y82.41
G1 X143.816Y82.216
G1 X143.853Y82.028
G1 X143.957Y81.866
G1 X144.118Y81.752
G1 X144.231Y81.711
G1 X144.349Y81.687
G1 X144.285Y81.326
G1 X144.053Y81.387
G1 X143.85Y81.507
G1 X143.687Y81.678
G1 X143.574Y81.89
G1 X143.529Y82.106
G1 Y82.327
G1 X143.55Y82.44
G1 X143.589Y82.582
G1 X143.653Y82.71
G1 X143.738Y82.822
G1 X143.842Y82.916
G1 X143.961Y82.989
G1 X144.093Y83.04
G1 X144.233Y83.065
G1 X144.38
G1 X144.542Y83.015
G1 X144.684Y82.93
G1 X144.799Y82.811
G1 X144.882Y82.664
G1 X144.92Y82.787
G1 X145.034Y82.972
G1 X145.194Y83.11
G1 X145.389Y83.193
G1 X145.605Y83.213
G1 X145.793Y83.191
G1 X145.971Y83.132
G1 X146.133Y83.039
G1 X146.275Y82.914
G1 X146.39Y82.763
G1 X146.471Y82.594
G1 X146.516Y82.413
G1 Y82.224
G1 Y82.046
G1 X146.472Y81.879
G0 X145.912Y80.361
G1 X145.95Y80.347
G1 X146.452Y80.151
G1 X146.504Y80.127
G1 X146.521Y80.101
G1 Y80.066
G1 Y80.045
G1 X146.482Y80.022
G1 X146.444Y80.005
G1 X146.027Y79.841
G1 X145.912Y79.798
G1 X145.874
G1 X145.838Y79.846
G1 X145.853Y79.898
G1 X145.889Y79.92
G1 X146.118Y80.013
G1 X145.023
G1 X143.929
G1 X143.961Y80
G1 X144.125Y79.936
G1 X144.173Y79.915
G1 X144.196Y79.9
G1 Y79.886
G1 X144.213Y79.858
G1 Y79.831
G1 X144.194Y79.816
G1 X144.177Y79.804
G1 X144.151
G1 X144.114
G1 X143.642Y79.99
G1 X143.562Y80.024
G1 X143.534Y80.042
G1 Y80.059
G1 Y80.098
G1 X143.546Y80.127
G1 X143.824Y80.24
G1 X144.13Y80.358
G1 X144.153
G1 X144.176
G1 X144.21Y80.32
G1 Y80.273
G1 X144.173Y80.244
G1 X143.963Y80.159
G1 X143.929Y80.142
G1 X146.041
G1 X146.111
G1 X145.865Y80.248
G1 X145.845Y80.271
G1 Y80.3
G1 X145.861Y80.347
G1 X145.912Y80.361
G0 X147.522Y78.352
G1 Y116.352
G1 Y78.352
G0 X142.522Y78.352
G1 Y116.852
G1 Y78.352
G0 X141.027Y79.841
G1 X140.912Y79.798
G1 X140.874
G1 X140.838Y79.846
G1 X140.853Y79.898
G1 X140.889Y79.92
G1 X141.118Y80.013
G1 X140.023
G1 X138.929
G1 X138.961Y80
G1 X139.125Y79.936
G1 X139.173Y79.915
G1 X139.196Y79.9
G1 Y79.886
G1 X139.213Y79.858
G1 Y79.831
G1 X139.194Y79.816
G1 X139.177Y79.804
G1 X139.151
G1 X139.114
G1 X138.642Y79.99
G1 X138.562Y80.024
G1 X138.534Y80.042
G1 Y80.059
G1 Y80.098
G1 X138.546Y80.127
G1 X138.824Y80.24
G1 X139.13Y80.358
G1 X139.153
G1 X139.176
G1 X139.21Y80.32
G1 Y80.273
G1 X139.173Y80.244
G1 X138.963Y80.159
G1 X138.929Y80.142
G1 X141.041
G1 X141.111
G1 X140.865Y80.248
G1 X140.845Y80.271
G1 Y80.3
G1 X140.861Y80.347
G1 X140.912Y80.361
G1 X140.95Y80.347
G1 X141.452Y80.151
G1 X141.504Y80.127
G1 X141.521Y80.101
G1 Y80.066
G1 Y80.045
G1 X141.482Y80.022
G1 X141.444Y80.005
G1 X141.027Y79.841
G0 X141.524Y81.29
G1 X141.278Y81.343
G1 X141.05Y81.442
G1 X140.847Y81.586
G1 X140.675Y81.769
G1 X140.459Y82.012
G1 X140.252Y82.261
G1 X139.962Y82.578
G1 X139.818Y82.692
G1 X139.659Y82.782
G1 X139.486Y82.846
G1 X139.305
G1 X139.138Y82.795
G1 X139.002Y82.683
G1 X138.91Y82.527
G1 X138.877Y82.418
G1 X138.865Y82.306
G1 Y82.194
G1 X138.907Y82.085
G1 X138.959Y81.984
G1 X139.03Y81.896
G1 X139.116Y81.824
G1 X139.216Y81.769
G1 X139.338Y81.739
G1 X139.463Y81.729
G1 X139.424Y81.358
G1 X139.206Y81.389
G1 X139.006Y81.474
G1 X138.833Y81.606
G1 X138.697Y81.78
G1 X138.627Y81.954
G1 X138.585Y82.137
G1 X138.572Y82.324
G1 X138.59Y82.512
G1 X138.634Y82.69
G1 X138.695Y82.827
G1 X138.779Y82.947
G1 X138.881Y83.048
G1 X138.999Y83.129
G1 X139.13Y83.187
G1 X139.27Y83.221
G1 X139.416
G1 X139.565Y83.209
G1 X139.78Y83.122
G1 X139.979Y83.006
G1 X140.16Y82.862
G1 X140.319Y82.693
G1 X140.841Y82.093
G1 X140.922Y82.004
G1 X141.042Y81.889
G1 X141.177Y81.791
G1 Y83.231
G1 X141.524
G1 Y81.29
G0 X137.522Y78.352
G1 Y117.352
G0 X136.469Y116.78
G1 Y116.422
G1 X135.129
G1 X134.999
G1 X134.875Y116.403
G1 X134.761Y116.346
G1 X134.664Y116.259
G1 X134.613Y116.107
G1 Y115.95
G1 X134.66Y115.801
G1 X134.755Y115.671
G1 X134.862Y115.599
G1 X134.98Y115.55
G1 X135.104Y115.524
G1 X135.233
G1 X136.469
G1 Y115.162
G1 X135.087
G1 X134.954
G1 X134.83Y115.13
G1 X134.721Y115.059
G1 X134.636Y114.957
G1 X134.606Y114.804
G1 X134.622Y114.652
G1 X134.683Y114.511
G1 X134.785Y114.393
G1 X134.92Y114.323
G1 X135.064Y114.276
G1 X135.213Y114.255
G1 X135.365
G1 X136.469
G1 Y113.898
G1 X134.342
G1 Y114.22
G1 X134.64
G1 X134.499Y114.337
G1 X134.406Y114.454
G1 X134.339Y114.583
G1 X134.3Y114.721
G1 X134.288Y114.862
G1 X134.303Y115.003
G1 X134.345Y115.139
G1 X134.414Y115.267
G1 X134.509Y115.382
G1 X134.584Y115.43
G1 X134.666Y115.466
G1 X134.503Y115.602
G1 X134.393Y115.748
G1 X134.322Y115.913
G1 X134.292Y116.09
G1 X134.305Y116.272
G1 X134.363Y116.464
G1 X134.48Y116.619
G1 X134.643Y116.725
G1 X134.838Y116.77
G1 X135.009Y116.78
G1 X136.469
G0 X139.48Y115.559
G1 X139.643Y115.665
G1 X139.838Y115.71
G1 X140.008Y115.72
G1 X141.469
G1 Y115.362
G1 X140.129
G1 X139.999
G1 X139.875Y115.343
G1 X139.761Y115.285
G1 X139.664Y115.199
G1 X139.613Y115.047
G1 Y114.89
G1 X139.66Y114.74
G1 X139.755Y114.611
G1 X139.862Y114.539
G1 X139.979Y114.489
G1 X140.104Y114.464
G1 X140.233
G1 X141.469
G1 Y114.102
G1 X140.087
G1 X139.954
G1 X139.829Y114.07
G1 X139.72Y113.999
G1 X139.636Y113.897
G1 X139.605Y113.744
G1 X139.622Y113.592
G1 X139.682Y113.451
G1 X139.785Y113.332
G1 X139.92Y113.262
G1 X140.063Y113.216
G1 X140.213Y113.195
G1 X140.365
G1 X141.469
G1 Y112.838
G1 X139.341
G1 Y113.16
G1 X139.64
G1 X139.499Y113.277
G1 X139.405Y113.394
G1 X139.339Y113.523
G1 X139.3Y113.66
G1 X139.288Y113.802
G1 X139.303Y113.943
G1 X139.344Y114.079
G1 X139.413Y114.207
G1 X139.509Y114.322
G1 X139.584Y114.37
G1 X139.666Y114.406
G1 X139.503Y114.542
G1 X139.393Y114.688
G1 X139.322Y114.853
G1 X139.291Y115.03
G1 X139.304Y115.212
G1 X139.362Y115.404
G1 X139.48Y115.559
G0 X136.469Y113.363
G1 Y113.005
G1 X135.129
G1 X135
G1 X134.875Y112.986
G1 X134.761Y112.929
G1 X134.664Y112.843
G1 X134.613Y112.69
G1 Y112.533
G1 X134.66Y112.384
G1 X134.755Y112.254
G1 X134.862Y112.182
G1 X134.98Y112.133
G1 X135.104Y112.107
G1 X135.233
G1 X136.469
G1 Y111.745
G1 X135.087
G1 X134.954
G1 X134.83Y111.713
G1 X134.721Y111.643
G1 X134.636Y111.541
G1 X134.606Y111.387
G1 X134.622Y111.235
G1 X134.683Y111.094
G1 X134.785Y110.976
G1 X134.92Y110.906
G1 X135.064Y110.86
G1 X135.213Y110.838
G1 X135.365
G1 X136.469
G1 Y110.481
G1 X134.342
G1 Y110.804
G1 X134.64
G1 X134.499Y110.92
G1 X134.406Y111.037
G1 X134.339Y111.166
G1 X134.3Y111.304
G1 X134.288Y111.445
G1 X134.303Y111.586
G1 X134.345Y111.722
G1 X134.414Y111.85
G1 X134.509Y111.965
G1 X134.584Y112.014
G1 X134.666Y112.05
G1 X134.503Y112.185
G1 X134.393Y112.331
G1 X134.322Y112.496
G1 X134.292Y112.673
G1 X134.305Y112.855
G1 X134.363Y113.047
G1 X134.48Y113.202
G1 X134.643Y113.308
G1 X134.838Y113.353
G1 X135.009Y113.363
G1 X136.469
G0 X139.48Y112.142
G1 X139.643Y112.248
G1 X139.838Y112.293
G1 X140.008Y112.303
G1 X141.469
G1 Y111.945
G1 X140.129
G1 X139.999
G1 X139.875Y111.926
G1 X139.761Y111.869
G1 X139.664Y111.783
G1 X139.613Y111.63
G1 Y111.473
G1 X139.66Y111.324
G1 X139.755Y111.194
G1 X139.862Y111.122
G1 X139.979Y111.072
G1 X140.104Y111.047
G1 X140.233
G1 X141.469
G1 Y110.685
G1 X140.087
G1 X139.954
G1 X139.829Y110.653
G1 X139.721Y110.582
G1 X139.636Y110.481
G1 X139.605Y110.327
G1 X139.622Y110.175
G1 X139.682Y110.034
G1 X139.785Y109.915
G1 X139.92Y109.846
G1 X140.063Y109.799
G1 X140.213Y109.778
G1 X140.365
G1 X141.469
G1 Y109.421
G1 X139.341
G1 Y109.744
G1 X139.64
G1 X139.499Y109.86
G1 X139.405Y109.977
G1 X139.339Y110.106
G1 X139.3Y110.244
G1 X139.288Y110.385
G1 X139.303Y110.526
G1 X139.344Y110.662
G1 X139.413Y110.79
G1 X139.509Y110.905
G1 X139.584Y110.954
G1 X139.666Y110.989
G1 X139.503Y111.125
G1 X139.393Y111.271
G1 X139.322Y111.436
G1 X139.291Y111.613
G1 X139.304Y111.795
G1 X139.362Y111.987
G1 X139.48Y112.142
G0 X144.341Y112.338
G1 Y112.66
G1 X144.64
G1 X144.499Y112.777
G1 X144.405Y112.894
G1 X144.339Y113.023
G1 X144.3Y113.16
G1 X144.288Y113.302
G1 X144.303Y113.443
G1 X144.344Y113.579
G1 X144.413Y113.707
G1 X144.509Y113.822
G1 X144.584Y113.87
G1 X144.666Y113.906
G1 X144.503Y114.042
G1 X144.393Y114.188
G1 X144.322Y114.353
G1 X144.292Y114.53
G1 X144.304Y114.712
G1 X144.362Y114.904
G1 X144.48Y115.059
G1 X144.643Y115.165
G1 X144.838Y115.21
G1 X145.008Y115.22
G1 X146.469
G1 Y114.862
G1 X145.129
G1 X144.999
G1 X144.875Y114.843
G1 X144.761Y114.785
G1 X144.664Y114.699
G1 X144.613Y114.547
G1 Y114.39
G1 X144.66Y114.24
G1 X144.755Y114.111
G1 X144.862Y114.039
G1 X144.979Y113.989
G1 X145.104Y113.964
G1 X145.233
G1 X146.469
G1 Y113.602
G1 X145.087
G1 X144.954
G1 X144.829Y113.57
G1 X144.721Y113.499
G1 X144.636Y113.397
G1 X144.605Y113.244
G1 X144.622Y113.092
G1 X144.682Y112.951
G1 X144.785Y112.832
G1 X144.92Y112.762
G1 X145.063Y112.716
G1 X145.213Y112.695
G1 X145.365
G1 X146.469
G1 Y112.338
G1 X144.341
G0 X144.643Y111.748
G1 X144.838Y111.793
G1 X145.008Y111.803
G1 X146.469
G1 Y111.445
G1 X145.129
G1 X144.999
G1 X144.875Y111.426
G1 X144.761Y111.369
G1 X144.664Y111.283
G1 X144.613Y111.13
G1 Y110.973
G1 X144.66Y110.824
G1 X144.755Y110.694
G1 X144.862Y110.622
G1 X144.979Y110.572
G1 X145.104Y110.547
G1 X145.233
G1 X146.469
G1 Y110.185
G1 X145.087
G1 X144.954
G1 X144.829Y110.153
G1 X144.721Y110.082
G1 X144.636Y109.981
G1 X144.605Y109.827
G1 X144.622Y109.675
G1 X144.682Y109.534
G1 X144.785Y109.415
G1 X144.92Y109.346
G1 X145.063Y109.299
G1 X145.213Y109.278
G1 X145.365
G1 X146.469
G1 Y108.921
G1 X144.341
G1 Y109.244
G1 X144.64
G1 X144.499Y109.36
G1 X144.405Y109.477
G1 X144.339Y109.606
G1 X144.3Y109.744
G1 X144.288Y109.885
G1 X144.303Y110.026
G1 X144.344Y110.162
G1 X144.413Y110.29
G1 X144.509Y110.405
G1 X144.584Y110.454
G1 X144.666Y110.489
G1 X144.503Y110.625
G1 X144.393Y110.771
G1 X144.322Y110.936
G1 X144.291Y111.113
G1 X144.304Y111.295
G1 X144.362Y111.487
G1 X144.48Y111.642
G1 X144.643Y111.748
G0 X149.342Y111.838
G1 Y112.16
G1 X149.64
G1 X149.499Y112.277
G1 X149.406Y112.394
G1 X149.339Y112.523
G1 X149.3Y112.66
G1 X149.288Y112.802
G1 X149.303Y112.943
G1 X149.345Y113.079
G1 X149.414Y113.207
G1 X149.509Y113.322
G1 X149.584Y113.37
G1 X149.666Y113.406
G1 X149.503Y113.542
G1 X149.393Y113.688
G1 X149.322Y113.853
G1 X149.292Y114.03
G1 X149.305Y114.212
G1 X149.363Y114.404
G1 X149.48Y114.559
G1 X149.643Y114.665
G1 X149.838Y114.71
G1 X150.009Y114.72
G1 X151.469
G1 Y114.362
G1 X150.129
G1 X149.999
G1 X149.875Y114.343
G1 X149.761Y114.285
G1 X149.664Y114.199
G1 X149.613Y114.047
G1 Y113.89
G1 X149.66Y113.74
G1 X149.755Y113.611
G1 X149.862Y113.539
G1 X149.98Y113.489
G1 X150.104Y113.464
G1 X150.233
G1 X151.469
G1 Y113.102
G1 X150.087
G1 X149.954
G1 X149.83Y113.07
G1 X149.721Y112.999
G1 X149.636Y112.897
G1 X149.606Y112.744
G1 X149.622Y112.592
G1 X149.683Y112.451
G1 X149.785Y112.332
G1 X149.92Y112.262
G1 X150.064Y112.216
G1 X150.213Y112.195
G1 X150.365
G1 X151.469
G1 Y111.838
G1 X149.342
G0 X149.643Y111.248
G1 X149.838Y111.293
G1 X150.009Y111.303
G1 X151.469
G1 Y110.945
G1 X150.129
G1 X150
G1 X149.875Y110.926
G1 X149.761Y110.869
G1 X149.664Y110.783
G1 X149.613Y110.63
G1 Y110.473
G1 X149.66Y110.324
G1 X149.755Y110.194
G1 X149.862Y110.122
G1 X149.98Y110.072
G1 X150.104Y110.047
G1 X150.233
G1 X151.469
G1 Y109.685
G1 X150.087
G1 X149.954
G1 X149.83Y109.653
G1 X149.721Y109.582
G1 X149.636Y109.481
G1 X149.606Y109.327
G1 X149.622Y109.175
G1 X149.683Y109.034
G1 X149.785Y108.915
G1 X149.92Y108.846
G1 X150.064Y108.799
G1 X150.213Y108.778
G1 X150.365
G1 X151.469
G1 Y108.421
G1 X149.342
G1 Y108.744
G1 X149.64
G1 X149.499Y108.86
G1 X149.406Y108.977
G1 X149.339Y109.106
G1 X149.3Y109.244
G1 X149.288Y109.385
G1 X149.303Y109.526
G1 X149.345Y109.662
G1 X149.414Y109.79
G1 X149.509Y109.905
G1 X149.584Y109.954
G1 X149.666Y109.989
G1 X149.503Y110.125
G1 X149.393Y110.271
G1 X149.322Y110.436
G1 X149.292Y110.613
G1 X149.305Y110.795
G1 X149.363Y110.987
G1 X149.48Y111.142
G1 X149.643Y111.248
G0 X154.299Y111.66
G1 X154.286Y111.802
G1 X154.301Y111.943
G1 X154.343Y112.079
G1 X154.412Y112.207
G1 X154.508Y112.322
G1 X154.583Y112.37
G1 X154.665Y112.406
G1 X154.502Y112.542
G1 X154.392Y112.688
G1 X154.321Y112.853
G1 X154.29Y113.03
G1 X154.303Y113.212
G1 X154.361Y113.404
G1 X154.479Y113.559
G1 X154.642Y113.665
G1 X154.837Y113.71
G1 X155.007Y113.72
G1 X156.467
G1 Y113.362
G1 X155.127
G1 X154.998
G1 X154.873Y113.343
G1 X154.759Y113.285
G1 X154.663Y113.199
G1 X154.611Y113.047
G1 Y112.89
G1 X154.659Y112.74
G1 X154.754Y112.61
G1 X154.861Y112.539
G1 X154.978Y112.489
G1 X155.103Y112.464
G1 X155.232
G1 X156.467
G1 Y112.102
G1 X155.085
G1 X154.953
G1 X154.828Y112.07
G1 X154.719Y111.999
G1 X154.635Y111.897
G1 X154.604Y111.744
G1 X154.621Y111.592
G1 X154.681Y111.451
G1 X154.783Y111.332
G1 X154.918Y111.262
G1 X155.062Y111.216
G1 X155.212Y111.195
G1 X155.364
G1 X156.467
G1 Y110.838
G1 X154.34
G1 Y111.16
G1 X154.639
G1 X154.498Y111.277
G1 X154.404Y111.394
G1 X154.338Y111.523
G1 X154.299Y111.66
G0 X154.837Y110.293
G1 X155.007Y110.303
G1 X156.467
G1 Y109.945
G1 X155.127
G1 X154.998
G1 X154.873Y109.926
G1 X154.76Y109.869
G1 X154.663Y109.783
G1 X154.611Y109.63
G1 Y109.473
G1 X154.659Y109.324
G1 X154.754Y109.194
G1 X154.86Y109.122
G1 X154.978Y109.072
G1 X155.103Y109.047
G1 X155.232
G1 X156.467
G1 Y108.685
G1 X155.085
G1 X154.953
G1 X154.828Y108.653
G1 X154.719Y108.582
G1 X154.635Y108.481
G1 X154.604Y108.327
G1 X154.621Y108.175
G1 X154.681Y108.034
G1 X154.783Y107.915
G1 X154.918Y107.845
G1 X155.062Y107.799
G1 X155.212Y107.778
G1 X155.364
G1 X156.467
G1 Y107.421
G1 X154.34
G1 Y107.744
G1 X154.639
G1 X154.498Y107.86
G1 X154.404Y107.977
G1 X154.338Y108.106
G1 X154.299Y108.244
G1 X154.286Y108.385
G1 X154.301Y108.526
G1 X154.343Y108.662
G1 X154.412Y108.79
G1 X154.508Y108.905
G1 X154.583Y108.954
G1 X154.665Y108.989
G1 X154.502Y109.125
G1 X154.392Y109.271
G1 X154.321Y109.436
G1 X154.29Y109.613
G1 X154.303Y109.795
G1 X154.361Y109.987
G1 X154.479Y110.142
G1 X154.642Y110.248
G1 X154.837Y110.293
G0 X159.3Y110.66
G1 X159.288Y110.802
G1 X159.303Y110.943
G1 X159.345Y111.079
G1 X159.414Y111.207
G1 X159.51Y111.322
G1 X159.585Y111.37
G1 X159.666Y111.406
G1 X159.503Y111.542
G1 X159.394Y111.688
G1 X159.322Y111.853
G1 X159.292Y112.03
G1 X159.305Y112.212
G1 X159.363Y112.404
G1 X159.48Y112.559
G1 X159.643Y112.665
G1 X159.839Y112.71
G1 X160.009Y112.72
G1 X161.469
G1 Y112.362
G1 X160.129
G1 X160
G1 X159.875Y112.343
G1 X159.761Y112.285
G1 X159.665Y112.199
G1 X159.613Y112.047
G1 Y111.89
G1 X159.661Y111.74
G1 X159.756Y111.61
G1 X159.862Y111.539
G1 X159.98Y111.489
G1 X160.105Y111.464
G1 X160.233
G1 X161.469
G1 Y111.102
G1 X160.087
G1 X159.955
G1 X159.83Y111.07
G1 X159.721Y110.999
G1 X159.636Y110.897
G1 X159.606Y110.744
G1 X159.622Y110.592
G1 X159.683Y110.451
G1 X159.785Y110.332
G1 X159.92Y110.262
G1 X160.064Y110.216
G1 X160.213Y110.195
G1 X160.365
G1 X161.469
G1 Y109.838
G1 X159.342
G1 Y110.16
G1 X159.64
G1 X159.499Y110.277
G1 X159.406Y110.394
G1 X159.34Y110.523
G1 X159.3Y110.66
G0 X159.839Y109.293
G1 X160.009Y109.303
G1 X161.469
G1 Y108.945
G1 X160.129
G1 X160
G1 X159.875Y108.926
G1 X159.761Y108.869
G1 X159.665Y108.783
G1 X159.613Y108.63
G1 Y108.473
G1 X159.661Y108.324
G1 X159.756Y108.194
G1 X159.862Y108.122
G1 X159.98Y108.072
G1 X160.105Y108.047
G1 X160.233
G1 X161.469
G1 Y107.685
G1 X160.087
G1 X159.955
G1 X159.83Y107.653
G1 X159.721Y107.582
G1 X159.636Y107.481
G1 X159.606Y107.327
G1 X159.622Y107.175
G1 X159.683Y107.034
G1 X159.785Y106.915
G1 X159.92Y106.845
G1 X160.064Y106.799
G1 X160.213Y106.778
G1 X160.365
G1 X161.469
G1 Y106.421
G1 X159.342
G1 Y106.744
G1 X159.64
G1 X159.499Y106.86
G1 X159.406Y106.977
G1 X159.34Y107.106
G1 X159.3Y107.244
G1 X159.288Y107.385
G1 X159.303Y107.526
G1 X159.345Y107.662
G1 X159.414Y107.79
G1 X159.51Y107.905
G1 X159.585Y107.954
G1 X159.666Y107.989
G1 X159.503Y108.125
G1 X159.394Y108.271
G1 X159.322Y108.436
G1 X159.292Y108.613
G1 X159.305Y108.795
G1 X159.363Y108.987
G1 X159.48Y109.142
G1 X159.643Y109.248
G1 X159.839Y109.293
G0 X164.3Y109.66
G1 X164.288Y109.802
G1 X164.303Y109.943
G1 X164.345Y110.079
G1 X164.413Y110.207
G1 X164.509Y110.322
G1 X164.584Y110.37
G1 X164.666Y110.406
G1 X164.503Y110.542
G1 X164.393Y110.688
G1 X164.322Y110.853
G1 X164.292Y111.03
G1 X164.304Y111.212
G1 X164.363Y111.404
G1 X164.48Y111.559
G1 X164.643Y111.665
G1 X164.838Y111.71
G1 X165.008Y111.72
G1 X166.469
G1 Y111.362
G1 X165.129
G1 X164.999
G1 X164.875Y111.343
G1 X164.761Y111.285
G1 X164.664Y111.199
G1 X164.613Y111.047
G1 Y110.89
G1 X164.66Y110.74
G1 X164.755Y110.61
G1 X164.862Y110.539
G1 X164.979Y110.489
G1 X165.104Y110.464
G1 X165.233
G1 X166.469
G1 Y110.102
G1 X165.087
G1 X164.954
G1 X164.829Y110.07
G1 X164.721Y109.999
G1 X164.636Y109.897
G1 X164.605Y109.744
G1 X164.622Y109.592
G1 X164.683Y109.451
G1 X164.785Y109.332
G1 X164.92Y109.262
G1 X165.063Y109.216
G1 X165.213Y109.195
G1 X165.365
G1 X166.469
G1 Y108.838
G1 X164.342
G1 Y109.16
G1 X164.64
G1 X164.499Y109.277
G1 X164.405Y109.394
G1 X164.339Y109.523
G1 X164.3Y109.66
G0 X164.838Y108.293
G1 X165.008Y108.303
G1 X166.469
G1 Y107.945
G1 X165.129
G1 X164.999
G1 X164.875Y107.926
G1 X164.761Y107.869
G1 X164.664Y107.783
G1 X164.613Y107.63
G1 Y107.473
G1 X164.66Y107.324
G1 X164.755Y107.194
G1 X164.862Y107.122
G1 X164.979Y107.072
G1 X165.104Y107.047
G1 X165.233
G1 X166.469
G1 Y106.685
G1 X165.087
G1 X164.954
G1 X164.829Y106.653
G1 X164.721Y106.582
G1 X164.636Y106.481
G1 X164.605Y106.327
G1 X164.622Y106.175
G1 X164.683Y106.034
G1 X164.785Y105.915
G1 X164.92Y105.845
G1 X165.063Y105.799
G1 X165.213Y105.778
G1 X165.365
G1 X166.469
G1 Y105.421
G1 X164.342
G1 Y105.744
G1 X164.64
G1 X164.499Y105.86
G1 X164.405Y105.977
G1 X164.339Y106.106
G1 X164.3Y106.244
G1 X164.288Y106.385
G1 X164.303Y106.526
G1 X164.345Y106.662
G1 X164.413Y106.79
G1 X164.509Y106.905
G1 X164.584Y106.954
G1 X164.666Y106.989
G1 X164.503Y107.125
G1 X164.393Y107.271
G1 X164.322Y107.436
G1 X164.292Y107.613
G1 X164.304Y107.795
G1 X164.363Y107.987
G1 X164.48Y108.142
G1 X164.643Y108.248
G1 X164.838Y108.293
G0 X164.911Y104.586
G1 X164.557Y104.555
G1 X164.207Y104.489
G1 X164.027Y104.4
G1 X163.898Y104.256
G1 X163.829Y104.075
G1 Y103.875
G1 X163.871Y103.77
G1 X163.932Y103.684
G1 X164.008Y103.612
G1 X164.095Y103.555
G1 X164.192Y103.515
G1 X164.599Y103.433
G1 X165.012Y103.404
G1 X165.425Y103.428
G1 X165.833Y103.506
G1 X166.013Y103.593
G1 X166.143Y103.736
G1 X166.211Y103.917
G1 Y104.116
G1 X166.112Y104.284
G1 X165.977Y104.415
G1 X165.81Y104.503
G1 X165.621Y104.542
G1 X165.267Y104.582
G1 X164.911
G0 X165.048Y104.96
G1 X165.532Y104.914
G1 X166.004Y104.789
G1 X166.141Y104.716
G1 X166.26Y104.623
G1 X166.359Y104.511
G1 X166.436Y104.384
G1 X166.491Y104.247
G1 X166.521Y104.1
G1 Y103.949
G1 X166.5Y103.796
G1 X166.391Y103.545
G1 X166.218Y103.34
G1 X165.995Y103.192
G1 X165.733Y103.112
G1 X165.306Y103.044
G1 X164.876
G1 X164.449Y103.092
G1 X164.033Y103.207
G1 X163.794Y103.357
G1 X163.623Y103.572
G1 X163.53Y103.83
G1 Y104.112
G1 X163.585Y104.343
G1 X163.704Y104.544
G1 X163.875Y104.703
G1 X164.089Y104.81
G1 X164.564Y104.925
G1 X165.048Y104.96
G0 X161.212Y104.917
G1 Y105.116
G1 X161.113Y105.284
G1 X160.977Y105.415
G1 X160.81Y105.503
G1 X160.622Y105.542
G1 X160.267Y105.582
G1 X159.912
G1 X159.558Y105.555
G1 X159.207Y105.489
G1 X159.028Y105.4
G1 X158.898Y105.256
G1 X158.829Y105.075
G1 Y104.875
G1 X158.872Y104.77
G1 X158.933Y104.684
G1 X159.008Y104.612
G1 X159.095Y104.555
G1 X159.192Y104.515
G1 X159.599Y104.433
G1 X160.012Y104.404
G1 X160.425Y104.428
G1 X160.833Y104.506
G1 X161.013Y104.593
G1 X161.143Y104.736
G1 X161.212Y104.917
G0 X161.525Y104.949
G1 X161.5Y104.796
G1 X161.391Y104.545
G1 X161.219Y104.34
G1 X160.995Y104.192
G1 X160.733Y104.112
G1 X160.306Y104.044
G1 X159.876
G1 X159.45Y104.092
G1 X159.033Y104.207
G1 X158.795Y104.357
G1 X158.623Y104.572
G1 X158.53Y104.83
G1 Y105.112
G1 X158.585Y105.343
G1 X158.705Y105.544
G1 X158.876Y105.703
G1 X159.089Y105.81
G1 X159.564Y105.925
G1 X160.049Y105.96
G1 X160.532Y105.914
G1 X161.005Y105.789
G1 X161.142Y105.716
G1 X161.26Y105.623
G1 X161.359Y105.511
G1 X161.437Y105.384
G1 X161.491Y105.247
G1 X161.521Y105.1
G1 Y104.949
G0 X160.81Y103.222
G1 X160.622Y103.261
G1 X160.267Y103.3
G1 X159.912
G1 X159.558Y103.274
G1 X159.207Y103.208
G1 X159.028Y103.119
G1 X158.898Y102.975
G1 X158.829Y102.794
G1 Y102.594
G1 X158.884Y102.471
G1 X158.965Y102.367
G1 X159.069Y102.286
G1 X159.192Y102.234
G1 X159.599Y102.152
G1 X160.012Y102.123
G1 X160.425Y102.147
G1 X160.833Y102.224
G1 X161.013Y102.312
G1 X161.143Y102.455
G1 X161.212Y102.636
G1 Y102.835
G1 X161.113Y103.003
G1 X160.977Y103.134
G1 X160.81Y103.222
G0 X161.142Y103.435
G1 X161.26Y103.341
G1 X161.359Y103.23
G1 X161.437Y103.103
G1 X161.491Y102.965
G1 X161.521Y102.819
G1 Y102.668
G1 X161.5Y102.515
G1 X161.391Y102.264
G1 X161.219Y102.059
G1 X160.995Y101.911
G1 X160.733Y101.831
G1 X160.306Y101.763
G1 X159.876
G1 X159.45Y101.811
G1 X159.033Y101.926
G1 X158.795Y102.076
G1 X158.623Y102.29
G1 X158.53Y102.549
G1 Y102.83
G1 X158.544Y102.936
G1 X158.574Y103.038
G1 X158.66Y103.201
G1 X158.778Y103.34
G1 X158.922Y103.451
G1 X159.089Y103.529
G1 X159.564Y103.644
G1 X160.049Y103.679
G1 X160.532Y103.633
G1 X161.005Y103.508
G1 X161.142Y103.435
G0 X161.059Y101.232
G1 X161.469
G1 Y100.821
G1 X161.059
G1 Y101.232
G0 X160.636Y99.896
G1 X160.493
G1 X160.352Y99.874
G1 X160.217Y99.823
G1 X160.092Y99.746
G1 X159.981Y99.643
G1 X159.926Y99.542
G1 X159.892Y99.433
G1 X159.881Y99.319
G1 X159.894Y99.204
G1 X159.977Y99.007
G1 X160.12Y98.855
G1 X160.305Y98.761
G1 X160.518Y98.736
G1 X160.697Y98.75
G1 X160.864Y98.807
G1 X161.013Y98.904
G1 X161.134Y99.037
G1 X161.211Y99.214
G1 Y99.401
G1 X161.161Y99.578
G1 X161.039Y99.728
G1 X160.913Y99.811
G1 X160.777Y99.867
G1 X160.636Y99.896
G0 X160.819Y100.229
G1 X160.974Y100.17
G1 X161.118Y100.087
G1 X161.247Y99.981
G1 X161.358Y99.854
G1 X161.448Y99.706
G1 X161.499Y99.545
G1 X161.521Y99.382
G1 Y99.219
G1 X161.482Y99.061
G1 X161.422Y98.91
G1 X161.338Y98.771
G1 X161.229Y98.646
G1 X161.098Y98.54
G1 X160.81Y98.419
G1 X160.51Y98.343
G1 X160.201Y98.312
G1 X159.615Y98.342
G1 X159.349Y98.399
G1 X159.094Y98.498
G1 X158.857Y98.636
G1 X158.687Y98.824
G1 X158.573Y99.045
G1 X158.52Y99.288
G1 X158.533Y99.541
G1 X158.616Y99.795
G1 X158.774Y100.002
G1 X158.992Y100.145
G1 X159.252Y100.209
G1 X159.28Y99.85
G1 X159.097Y99.792
G1 X158.95Y99.687
G1 X158.853Y99.541
G1 X158.815Y99.37
G1 X158.841Y99.192
G1 X158.966Y98.998
G1 X159.135Y98.848
G1 X159.338Y98.749
G1 X159.565Y98.708
G1 X159.759Y98.688
G1 X159.955
G1 X159.809Y98.797
G1 X159.693Y98.942
G1 X159.613Y99.109
G1 X159.57Y99.291
G1 Y99.464
G1 X159.599Y99.629
G1 X159.66Y99.782
G1 X159.748Y99.92
G1 X159.86Y100.039
G1 X159.994Y100.136
G1 X160.147Y100.205
G1 X160.315Y100.245
G1 X160.486Y100.268
G1 X160.655
G1 X160.819Y100.229
G0 X163.572Y99.147
G1 X163.917
G1 Y97.975
G1 X164.706Y97.817
G1 X164.625Y97.95
G1 X164.56Y98.11
G1 X164.526Y98.274
G1 Y98.44
G1 X164.549Y98.602
G1 X164.604Y98.757
G1 X164.687Y98.901
G1 X164.796Y99.028
G1 X164.931Y99.136
G1 X165.108Y99.22
G1 X165.293Y99.27
G1 X165.481Y99.287
G1 X165.668Y99.271
G1 X165.85Y99.224
G1 X166.021Y99.145
G1 X166.179Y99.037
G1 X166.318Y98.898
G1 X166.422Y98.73
G1 X166.49Y98.551
G1 X166.522Y98.365
G1 Y98.178
G1 X166.483Y97.994
G1 X166.413Y97.818
G1 X166.309Y97.657
G1 X166.173Y97.514
G1 X165.949Y97.393
G1 X165.699Y97.338
G1 X165.667Y97.716
G1 X165.797Y97.745
G1 X165.9Y97.779
G1 X165.993Y97.833
G1 X166.075Y97.904
G1 X166.141Y97.99
G1 X166.189Y98.087
G1 X166.217Y98.191
G1 Y98.299
G1 Y98.406
G1 X166.11Y98.62
G1 X165.948Y98.783
G1 X165.74Y98.881
G1 X165.505Y98.902
G1 X165.375
G1 X165.251Y98.871
G1 X165.134Y98.817
G1 X165.031Y98.739
G1 X164.947Y98.64
G1 X164.886Y98.528
G1 X164.85Y98.405
G1 Y98.275
G1 Y98.117
G1 X164.914Y97.971
G1 X165.004Y97.843
G1 X165.125Y97.74
G1 X165.081Y97.402
G1 X163.572Y97.686
G1 Y99.147
G0 X166.058Y99.821
G1 Y100.232
G1 X166.469
G1 Y99.821
G1 X166.058
G0 X165.425Y101.147
G1 X165.833Y101.224
G1 X166.013Y101.312
G1 X166.143Y101.455
G1 X166.211Y101.636
G1 Y101.835
G1 X166.112Y102.003
G1 X165.977Y102.134
G1 X165.81Y102.222
G1 X165.621Y102.261
G1 X165.267Y102.3
G1 X164.911
G1 X164.557Y102.274
G1 X164.207Y102.208
G1 X164.027Y102.119
G1 X163.898Y101.975
G1 X163.829Y101.794
G1 Y101.594
G1 X163.884Y101.471
G1 X163.964Y101.367
G1 X164.068Y101.286
G1 X164.192Y101.234
G1 X164.599Y101.152
G1 X165.012Y101.123
G1 X165.425Y101.147
G0 X165.733Y100.831
G1 X165.306Y100.763
G1 X164.876
G1 X164.449Y100.811
G1 X164.033Y100.926
G1 X163.794Y101.076
G1 X163.623Y101.29
G1 X163.53Y101.549
G1 Y101.83
G1 X163.544Y101.936
G1 X163.574Y102.038
G1 X163.66Y102.201
G1 X163.777Y102.34
G1 X163.922Y102.451
G1 X164.089Y102.529
G1 X164.564Y102.644
G1 X165.048Y102.679
G1 X165.532Y102.633
G1 X166.004Y102.508
G1 X166.141Y102.435
G1 X166.26Y102.341
G1 X166.359Y102.23
G1 X166.436Y102.103
G1 X166.491Y101.965
G1 X166.521Y101.819
G1 Y101.668
G1 X166.5Y101.515
G1 X166.391Y101.264
G1 X166.218Y101.059
G1 X165.995Y100.911
G1 X165.733Y100.831
G0 X165.601Y96.982
G1 X165.789Y96.959
G1 X165.967Y96.9
G1 X166.129Y96.807
G1 X166.272Y96.682
G1 X166.386Y96.532
G1 X166.467Y96.363
G1 X166.512Y96.181
G1 Y95.992
G1 Y95.815
G1 X166.469Y95.647
G1 X166.396Y95.494
G1 X166.296Y95.358
G1 X166.173Y95.243
G1 X166.029Y95.152
G1 X165.869Y95.089
G1 X165.694Y95.059
G1 X165.645Y95.419
G1 X165.788Y95.456
G1 X165.892Y95.489
G1 X165.986Y95.542
G1 X166.069Y95.612
G1 X166.137Y95.698
G1 X166.186Y95.795
G1 X166.216Y95.9
G1 Y96.008
G1 Y96.116
G1 X166.175Y96.231
G1 X166.119Y96.335
G1 X166.042Y96.427
G1 X165.949Y96.502
G1 X165.843Y96.558
G1 X165.729Y96.591
G1 X165.61Y96.602
G1 X165.491Y96.589
G1 X165.304Y96.518
G1 X165.159Y96.391
G1 X165.066Y96.221
G1 X165.039Y96.024
G1 X165.051Y95.896
G1 X165.079Y95.77
G1 X164.762Y95.81
G1 Y95.868
G1 Y96.058
G1 X164.684Y96.228
G1 X164.56Y96.365
G1 X164.392Y96.455
G1 X164.224Y96.468
G1 X164.068Y96.421
G1 X163.938Y96.322
G1 X163.849Y96.179
G1 X163.812Y95.984
G1 X163.849Y95.796
G1 X163.953Y95.635
G1 X164.114Y95.52
G1 X164.228Y95.48
G1 X164.345Y95.455
G1 X164.281Y95.095
G1 X164.049Y95.156
G1 X163.846Y95.276
G1 X163.683Y95.446
G1 X163.57Y95.658
G1 X163.525Y95.875
G1 Y96.096
G1 X163.546Y96.209
G1 X163.585Y96.351
G1 X163.649Y96.479
G1 X163.734Y96.591
G1 X163.838Y96.684
G1 X163.957Y96.758
G1 X164.089Y96.808
G1 X164.229Y96.833
G1 X164.376
G1 X164.538Y96.784
G1 X164.68Y96.698
G1 X164.795Y96.579
G1 X164.878Y96.433
G1 X164.916Y96.556
G1 X165.03Y96.741
G1 X165.19Y96.879
G1 X165.385Y96.962
G1 X165.601Y96.982
G0 X161.521Y96.992
G1 Y96.815
G1 X161.469Y96.647
G1 X161.396Y96.494
G1 X161.297Y96.358
G1 X161.174Y96.243
G1 X161.03Y96.152
G1 X160.869Y96.089
G1 X160.694Y96.059
G1 X160.646Y96.419
G1 X160.788Y96.456
G1 X160.892Y96.489
G1 X160.987Y96.542
G1 X161.07Y96.612
G1 X161.137Y96.698
G1 X161.187Y96.795
G1 X161.216Y96.9
G1 Y97.008
G1 Y97.116
G1 X161.176Y97.231
G1 X161.119Y97.335
G1 X161.043Y97.427
G1 X160.95Y97.502
G1 X160.843Y97.558
G1 X160.729Y97.591
G1 X160.611Y97.602
G1 X160.491Y97.589
G1 X160.305Y97.518
G1 X160.159Y97.391
G1 X160.067Y97.221
G1 X160.039Y97.024
G1 X160.051Y96.896
G1 X160.079Y96.77
G1 X159.763Y96.81
G1 Y96.868
G1 Y97.058
G1 X159.684Y97.228
G1 X159.56Y97.365
G1 X159.393Y97.455
G1 X159.225Y97.468
G1 X159.068Y97.421
G1 X158.938Y97.322
G1 X158.85Y97.179
G1 X158.813Y96.984
G1 X158.85Y96.796
G1 X158.953Y96.635
G1 X159.115Y96.52
G1 X159.228Y96.48
G1 X159.346Y96.455
G1 X159.282Y96.095
G1 X159.05Y96.156
G1 X158.846Y96.276
G1 X158.683Y96.446
G1 X158.571Y96.658
G1 X158.526Y96.875
G1 Y97.096
G1 X158.547Y97.209
G1 X158.586Y97.351
G1 X158.65Y97.479
G1 X158.735Y97.591
G1 X158.839Y97.684
G1 X158.958Y97.758
G1 X159.089Y97.808
G1 X159.23Y97.833
G1 X159.377
G1 X159.539Y97.784
G1 X159.68Y97.698
G1 X159.796Y97.579
G1 X159.879Y97.433
G1 X159.917Y97.556
G1 X160.03Y97.741
G1 X160.191Y97.879
G1 X160.386Y97.962
G1 X160.602Y97.982
G1 X160.79Y97.959
G1 X160.967Y97.9
G1 X161.13Y97.807
G1 X161.272Y97.682
G1 X161.386Y97.532
G1 X161.467Y97.363
G1 X161.513Y97.181
G1 Y96.992
G0 X156.467Y97.647
G1 X156.394Y97.494
G1 X156.295Y97.358
G1 X156.172Y97.243
G1 X156.028Y97.152
G1 X155.867Y97.089
G1 X155.692Y97.059
G1 X155.644Y97.419
G1 X155.786Y97.456
G1 X155.891Y97.489
G1 X155.985Y97.542
G1 X156.068Y97.612
G1 X156.136Y97.698
G1 X156.185Y97.795
G1 X156.214Y97.9
G1 Y98.008
G1 Y98.116
G1 X156.174Y98.231
G1 X156.117Y98.335
G1 X156.041Y98.427
G1 X155.948Y98.502
G1 X155.841Y98.558
G1 X155.727Y98.591
G1 X155.609Y98.602
G1 X155.489Y98.589
G1 X155.303Y98.518
G1 X155.158Y98.391
G1 X155.065Y98.221
G1 X155.037Y98.024
G1 X155.049Y97.896
G1 X155.077Y97.77
G1 X154.761Y97.81
G1 Y97.868
G1 Y98.058
G1 X154.682Y98.228
G1 X154.558Y98.365
G1 X154.391Y98.455
G1 X154.223Y98.468
G1 X154.067Y98.421
G1 X153.937Y98.322
G1 X153.848Y98.179
G1 X153.811Y97.984
G1 X153.848Y97.796
G1 X153.951Y97.635
G1 X154.113Y97.52
G1 X154.226Y97.48
G1 X154.344Y97.455
G1 X154.28Y97.095
G1 X154.048Y97.156
G1 X153.845Y97.276
G1 X153.681Y97.446
G1 X153.569Y97.658
G1 X153.524Y97.875
G1 Y98.096
G1 X153.545Y98.209
G1 X153.584Y98.351
G1 X153.648Y98.479
G1 X153.733Y98.591
G1 X153.837Y98.684
G1 X153.956Y98.758
G1 X154.087Y98.808
G1 X154.228Y98.833
G1 X154.375
G1 X154.537Y98.784
G1 X154.679Y98.698
G1 X154.794Y98.579
G1 X154.877Y98.433
G1 X154.915Y98.556
G1 X155.028Y98.741
G1 X155.189Y98.879
G1 X155.384Y98.962
G1 X155.6Y98.982
G1 X155.788Y98.959
G1 X155.966Y98.9
G1 X156.128Y98.807
G1 X156.27Y98.682
G1 X156.384Y98.532
G1 X156.465Y98.363
G1 X156.511Y98.181
G1 Y97.992
G1 Y97.815
G1 X156.467Y97.647
G0 X156.467Y99.773
G1 X156.118Y99.809
G1 X155.774Y99.874
G1 X155.437Y99.965
G1 X155.109Y100.082
G1 X154.791Y100.224
G1 X154.486Y100.392
G1 X154.193Y100.584
G1 X153.915Y100.8
G1 Y99.362
G1 X153.569
G1 Y101.263
G1 X153.849
G1 X154.132Y101.034
G1 X154.431Y100.829
G1 X154.744Y100.649
G1 X155.069Y100.494
G1 X155.406Y100.366
G1 X155.752Y100.264
G1 X156.107Y100.189
G1 X156.467Y100.143
G1 Y99.773
G0 X156.467Y101.821
G1 X156.057
G1 Y102.232
G1 X156.467
G1 Y101.821
G0 X155.832Y103.224
G1 X156.011Y103.312
G1 X156.141Y103.455
G1 X156.21Y103.636
G1 Y103.835
G1 X156.111Y104.003
G1 X155.975Y104.134
G1 X155.809Y104.222
G1 X155.62Y104.261
G1 X155.266Y104.3
G1 X154.91
G1 X154.556Y104.274
G1 X154.205Y104.208
G1 X154.026Y104.119
G1 X153.896Y103.975
G1 X153.827Y103.794
G1 Y103.594
G1 X153.882Y103.471
G1 X153.963Y103.367
G1 X154.067Y103.286
G1 X154.19Y103.234
G1 X154.598Y103.152
G1 X155.01Y103.123
G1 X155.423Y103.147
G1 X155.832Y103.224
G0 X156.217Y103.059
G1 X155.993Y102.911
G1 X155.731Y102.831
G1 X155.304Y102.763
G1 X154.875
G1 X154.448Y102.811
G1 X154.031Y102.926
G1 X153.793Y103.076
G1 X153.621Y103.29
G1 X153.528Y103.549
G1 Y103.83
G1 X153.542Y103.936
G1 X153.572Y104.038
G1 X153.658Y104.201
G1 X153.776Y104.34
G1 X153.921Y104.451
G1 X154.087Y104.529
G1 X154.563Y104.644
G1 X155.047Y104.679
G1 X155.53Y104.633
G1 X156.003Y104.508
G1 X156.14Y104.435
G1 X156.259Y104.341
G1 X156.358Y104.23
G1 X156.435Y104.103
G1 X156.489Y103.965
G1 X156.519Y103.819
G1 Y103.668
G1 X156.498Y103.515
G1 X156.39Y103.264
G1 X156.217Y103.059
G0 X155.423Y105.428
G1 X155.832Y105.506
G1 X156.011Y105.593
G1 X156.141Y105.736
G1 X156.21Y105.917
G1 Y106.116
G1 X156.111Y106.284
G1 X155.975Y106.415
G1 X155.809Y106.503
G1 X155.62Y106.542
G1 X155.266Y106.582
G1 X154.91
G1 X154.556Y106.555
G1 X154.205Y106.489
G1 X154.026Y106.4
G1 X153.896Y106.256
G1 X153.827Y106.075
G1 Y105.875
G1 X153.87Y105.77
G1 X153.931Y105.684
G1 X154.006Y105.612
G1 X154.093Y105.555
G1 X154.19Y105.515
G1 X154.598Y105.433
G1 X155.01Y105.404
G1 X155.423Y105.428
G0 X155.731Y105.112
G1 X155.304Y105.044
G1 X154.875
G1 X154.448Y105.092
G1 X154.031Y105.207
G1 X153.793Y105.357
G1 X153.621Y105.572
G1 X153.528Y105.83
G1 Y106.112
G1 X153.584Y106.343
G1 X153.703Y106.544
G1 X153.874Y106.703
G1 X154.087Y106.81
G1 X154.563Y106.925
G1 X155.047Y106.96
G1 X155.53Y106.914
G1 X156.003Y106.789
G1 X156.14Y106.716
G1 X156.259Y106.623
G1 X156.358Y106.511
G1 X156.435Y106.384
G1 X156.489Y106.247
G1 X156.519Y106.1
G1 Y105.949
G1 X156.498Y105.796
G1 X156.39Y105.545
G1 X156.217Y105.34
G1 X155.993Y105.192
G1 X155.731Y105.112
G0 X151.207Y104.835
G1 X151.112Y105.003
G1 X150.977Y105.134
G1 X150.81Y105.222
G1 X150.621Y105.261
G1 X150.267Y105.3
G1 X149.912
G1 X149.557Y105.274
G1 X149.207Y105.208
G1 X149.028Y105.119
G1 X148.898Y104.975
G1 X148.829Y104.794
G1 Y104.594
G1 X148.884Y104.471
G1 X148.964Y104.367
G1 X149.069Y104.286
G1 X149.192Y104.234
G1 X149.599Y104.152
G1 X150.012Y104.123
G1 X150.425Y104.147
G1 X150.833Y104.224
G1 X151.013Y104.312
G1 X151.143Y104.455
G1 X151.211Y104.636
G1 Y104.835
G0 X151.521Y104.819
G1 Y104.668
G1 X151.5Y104.515
G1 X151.391Y104.264
G1 X151.218Y104.059
G1 X150.995Y103.911
G1 X150.733Y103.831
G1 X150.306Y103.763
G1 X149.876
G1 X149.449Y103.811
G1 X149.033Y103.926
G1 X148.794Y104.076
G1 X148.623Y104.29
G1 X148.53Y104.549
G1 Y104.83
G1 X148.544Y104.936
G1 X148.574Y105.038
G1 X148.66Y105.201
G1 X148.778Y105.34
G1 X148.922Y105.451
G1 X149.089Y105.529
G1 X149.564Y105.644
G1 X150.048Y105.679
G1 X150.532Y105.633
G1 X151.005Y105.508
G1 X151.141Y105.435
G1 X151.26Y105.341
G1 X151.359Y105.23
G1 X151.436Y105.103
G1 X151.491Y104.965
G1 X151.521Y104.819
G0 X151.469Y103.232
G1 Y102.821
G1 X151.058
G1 Y103.232
G1 X151.469
G0 X150.756Y101.89
G1 X150.545
G1 X150.35Y101.836
G1 X150.188Y101.71
G1 X150.075Y101.532
G1 X150.035Y101.354
G1 Y101.172
G1 X150.128Y100.967
G1 X150.277Y100.812
G1 X150.472Y100.72
G1 X150.693Y100.704
G1 X150.906Y100.769
G1 X151.075Y100.902
G1 X151.185Y101.087
G1 X151.222Y101.305
G1 X151.194Y101.509
G1 X151.098Y101.685
G1 X150.948Y101.816
G1 X150.756Y101.89
G0 X149.673Y101.559
G1 X149.546Y101.694
G1 X149.377Y101.77
G1 X149.213
G1 X149.062Y101.724
G1 X148.937Y101.626
G1 X148.851Y101.487
G1 X148.819Y101.345
G1 Y101.201
G1 X148.88Y101.048
G1 X148.981Y100.927
G1 X149.118Y100.847
G1 X149.278Y100.819
G1 X149.438Y100.848
G1 X149.574Y100.927
G1 X149.675Y101.048
G1 X149.73Y101.201
G1 Y101.386
G1 X149.673Y101.559
G0 X149.876Y101.716
G1 X149.927Y101.843
G1 X150.083Y102.058
G1 X150.296Y102.204
G1 X150.545Y102.272
G1 X150.81Y102.252
G1 X150.968Y102.201
G1 X151.11Y102.125
G1 X151.235Y102.026
G1 X151.34Y101.908
G1 X151.424Y101.773
G1 X151.483Y101.625
G1 X151.515Y101.467
G1 Y101.301
G1 Y101.116
G1 X151.471Y100.937
G1 X151.392Y100.77
G1 X151.28Y100.621
G1 X151.14Y100.499
G1 X150.98Y100.409
G1 X150.805Y100.353
G1 X150.62Y100.334
G1 X150.366Y100.364
G1 X150.145Y100.477
G1 X149.976Y100.658
G1 X149.876Y100.893
G1 X149.831Y100.788
G1 X149.675Y100.593
G1 X149.464Y100.476
G1 X149.224Y100.445
G1 X148.983Y100.51
G1 X148.78Y100.645
G1 X148.63Y100.831
G1 X148.54Y101.052
G1 X148.52Y101.295
G1 X148.534Y101.478
G1 X148.576Y101.642
G1 X148.636Y101.774
G1 X148.717Y101.889
G1 X148.817Y101.986
G1 X148.932Y102.061
G1 X149.059Y102.114
G1 X149.195Y102.143
G1 X149.336
G1 X149.479Y102.122
G1 X149.613Y102.059
G1 X149.727Y101.968
G1 X149.816Y101.852
G1 X149.876Y101.716
G0 X150.386Y99.962
G1 X150.601Y99.982
G1 X150.789Y99.959
G1 X150.967Y99.9
G1 X151.13Y99.807
G1 X151.272Y99.682
G1 X151.386Y99.532
G1 X151.467Y99.363
G1 X151.512Y99.181
G1 Y98.992
G1 Y98.815
G1 X151.469Y98.647
G1 X151.396Y98.494
G1 X151.296Y98.358
G1 X151.173Y98.243
G1 X151.03Y98.152
G1 X150.869Y98.09
G1 X150.694Y98.059
G1 X150.646Y98.419
G1 X150.788Y98.456
G1 X150.892Y98.489
G1 X150.987Y98.542
G1 X151.069Y98.612
G1 X151.137Y98.698
G1 X151.187Y98.795
G1 X151.216Y98.9
G1 Y99.008
G1 Y99.116
G1 X151.176Y99.231
G1 X151.119Y99.335
G1 X151.043Y99.427
G1 X150.949Y99.502
G1 X150.843Y99.558
G1 X150.729Y99.591
G1 X150.61Y99.602
G1 X150.491Y99.589
G1 X150.305Y99.518
G1 X150.159Y99.391
G1 X150.067Y99.221
G1 X150.039Y99.024
G1 X150.051Y98.896
G1 X150.079Y98.77
G1 X149.762Y98.81
G1 Y98.868
G1 Y99.058
G1 X149.684Y99.228
G1 X149.56Y99.365
G1 X149.392Y99.455
G1 X149.225Y99.468
G1 X149.068Y99.421
G1 X148.938Y99.322
G1 X148.85Y99.179
G1 X148.812Y98.984
G1 X148.849Y98.796
G1 X148.953Y98.635
G1 X149.114Y98.52
G1 X149.228Y98.48
G1 X149.346Y98.455
G1 X149.282Y98.095
G1 X149.049Y98.156
G1 X148.846Y98.276
G1 X148.683Y98.446
G1 X148.57Y98.658
G1 X148.525Y98.875
G1 Y99.096
G1 X148.546Y99.209
G1 X148.585Y99.351
G1 X148.649Y99.479
G1 X148.734Y99.591
G1 X148.838Y99.684
G1 X148.957Y99.758
G1 X149.089Y99.808
G1 X149.23Y99.833
G1 X149.377
G1 X149.538Y99.784
G1 X149.68Y99.698
G1 X149.796Y99.579
G1 X149.878Y99.433
G1 X149.917Y99.556
G1 X150.03Y99.741
G1 X150.191Y99.879
G1 X150.386Y99.962
G0 X146.512Y99.681
G1 Y99.492
G1 Y99.315
G1 X146.468Y99.147
G1 X146.396Y98.994
G1 X146.296Y98.858
G1 X146.173Y98.743
G1 X146.029Y98.652
G1 X145.868Y98.59
G1 X145.693Y98.559
G1 X145.645Y98.919
G1 X145.788Y98.956
G1 X145.892Y98.989
G1 X145.986Y99.042
G1 X146.069Y99.112
G1 X146.137Y99.198
G1 X146.186Y99.295
G1 X146.215Y99.4
G1 Y99.508
G1 Y99.616
G1 X146.175Y99.731
G1 X146.118Y99.835
G1 X146.042Y99.927
G1 X145.949Y100.002
G1 X145.843Y100.058
G1 X145.728Y100.091
G1 X145.61Y100.102
G1 X145.491Y100.089
G1 X145.304Y100.018
G1 X145.159Y99.891
G1 X145.066Y99.721
G1 X145.038Y99.524
G1 X145.051Y99.396
G1 X145.078Y99.27
G1 X144.762Y99.31
G1 Y99.368
G1 Y99.558
G1 X144.684Y99.728
G1 X144.56Y99.865
G1 X144.392Y99.955
G1 X144.224Y99.968
G1 X144.068Y99.921
G1 X143.938Y99.822
G1 X143.849Y99.679
G1 X143.812Y99.484
G1 X143.849Y99.296
G1 X143.953Y99.135
G1 X144.114Y99.02
G1 X144.227Y98.98
G1 X144.345Y98.955
G1 X144.281Y98.595
G1 X144.049Y98.656
G1 X143.846Y98.776
G1 X143.683Y98.946
G1 X143.57Y99.158
G1 X143.525Y99.375
G1 Y99.596
G1 X143.546Y99.709
G1 X143.585Y99.851
G1 X143.649Y99.979
G1 X143.734Y100.091
G1 X143.838Y100.184
G1 X143.957Y100.258
G1 X144.089Y100.308
G1 X144.229Y100.333
G1 X144.376
G1 X144.538Y100.284
G1 X144.68Y100.198
G1 X144.795Y100.079
G1 X144.878Y99.933
G1 X144.916Y100.056
G1 X145.03Y100.241
G1 X145.19Y100.379
G1 X145.385Y100.462
G1 X145.601Y100.482
G1 X145.789Y100.459
G1 X145.967Y100.4
G1 X146.129Y100.307
G1 X146.271Y100.182
G1 X146.386Y100.032
G1 X146.466Y99.863
G1 X146.512Y99.681
G0 X145.693Y101.204
G1 X145.905Y101.269
G1 X146.074Y101.402
G1 X146.185Y101.587
G1 X146.222Y101.805
G1 X146.193Y102.009
G1 X146.098Y102.185
G1 X145.948Y102.316
G1 X145.756Y102.39
G1 X145.545
G1 X145.35Y102.336
G1 X145.187Y102.21
G1 X145.075Y102.032
G1 X145.035Y101.854
G1 Y101.672
G1 X145.128Y101.467
G1 X145.277Y101.312
G1 X145.471Y101.22
G1 X145.693Y101.204
G0 X144.675Y101.548
G1 X144.73Y101.701
G1 Y101.886
G1 X144.672Y102.059
G1 X144.546Y102.194
G1 X144.377Y102.27
G1 X144.213
G1 X144.062Y102.224
G1 X143.937Y102.126
G1 X143.85Y101.987
G1 X143.819Y101.845
G1 Y101.701
G1 X143.88Y101.548
G1 X143.981Y101.427
G1 X144.117Y101.347
G1 X144.277Y101.319
G1 X144.437Y101.348
G1 X144.574Y101.427
G1 X144.675Y101.548
G0 X144.876Y101.393
G1 X144.831Y101.288
G1 X144.674Y101.093
G1 X144.463Y100.976
G1 X144.224Y100.945
G1 X143.982Y101.01
G1 X143.779Y101.145
G1 X143.629Y101.331
G1 X143.54Y101.552
G1 X143.52Y101.795
G1 X143.534Y101.978
G1 X143.576Y102.142
G1 X143.635Y102.274
G1 X143.717Y102.389
G1 X143.817Y102.486
G1 X143.932Y102.561
G1 X144.059Y102.614
G1 X144.195Y102.643
G1 X144.336
G1 X144.478Y102.622
G1 X144.613Y102.559
G1 X144.727Y102.468
G1 X144.816Y102.352
G1 X144.876Y102.216
G1 X144.927Y102.343
G1 X145.083Y102.558
G1 X145.296Y102.704
G1 X145.545Y102.772
G1 X145.81Y102.752
G1 X145.967Y102.701
G1 X146.11Y102.625
G1 X146.235Y102.526
G1 X146.34Y102.408
G1 X146.423Y102.273
G1 X146.482Y102.125
G1 X146.515Y101.967
G1 Y101.801
G1 Y101.616
G1 X146.47Y101.437
G1 X146.392Y101.27
G1 X146.28Y101.121
G1 X146.14Y100.999
G1 X145.98Y100.909
G1 X145.804Y100.853
G1 X145.619Y100.834
G1 X145.366Y100.864
G1 X145.145Y100.977
G1 X144.975Y101.158
G1 X144.876Y101.393
G0 X146.058Y103.321
G1 Y103.732
G1 X146.469
G1 Y103.321
G1 X146.058
G0 X145.699Y104.259
G1 X145.667Y104.637
G1 X145.797Y104.665
G1 X145.9Y104.7
G1 X145.993Y104.754
G1 X146.075Y104.824
G1 X146.141Y104.91
G1 X146.189Y105.008
G1 X146.217Y105.112
G1 Y105.219
G1 Y105.327
G1 X146.11Y105.541
G1 X145.948Y105.703
G1 X145.74Y105.801
G1 X145.505Y105.823
G1 X145.375
G1 X145.25Y105.792
G1 X145.134Y105.738
G1 X145.031Y105.659
G1 X144.947Y105.561
G1 X144.886Y105.448
G1 X144.85Y105.325
G1 Y105.196
G1 Y105.038
G1 X144.913Y104.892
G1 X145.004Y104.764
G1 X145.125Y104.661
G1 X145.08Y104.323
G1 X143.572Y104.607
G1 Y106.067
G1 X143.917
G1 Y104.896
G1 X144.706Y104.737
G1 X144.625Y104.871
G1 X144.559Y105.031
G1 X144.525Y105.195
G1 Y105.361
G1 X144.549Y105.523
G1 X144.604Y105.678
G1 X144.687Y105.821
G1 X144.796Y105.949
G1 X144.931Y106.057
G1 X145.108Y106.141
G1 X145.293Y106.191
G1 X145.481Y106.208
G1 X145.668Y106.192
G1 X145.85Y106.145
G1 X146.021Y106.066
G1 X146.179Y105.957
G1 X146.318Y105.819
G1 X146.422Y105.651
G1 X146.489Y105.472
G1 X146.522Y105.286
G1 Y105.098
G1 X146.483Y104.914
G1 X146.413Y104.739
G1 X146.309Y104.578
G1 X146.173Y104.435
G1 X145.948Y104.314
G1 X145.699Y104.259
G0 X145.425Y106.928
G1 X145.833Y107.006
G1 X146.013Y107.093
G1 X146.142Y107.236
G1 X146.211Y107.417
G1 Y107.616
G1 X146.112Y107.784
G1 X145.977Y107.915
G1 X145.81Y108.003
G1 X145.621Y108.042
G1 X145.267Y108.082
G1 X144.911
G1 X144.557Y108.055
G1 X144.207Y107.989
G1 X144.027Y107.9
G1 X143.897Y107.756
G1 X143.829Y107.575
G1 Y107.375
G1 X143.871Y107.27
G1 X143.932Y107.185
G1 X144.007Y107.112
G1 X144.095Y107.055
G1 X144.192Y107.015
G1 X144.599Y106.933
G1 X145.012Y106.904
G1 X145.425Y106.928
G0 X145.733Y106.612
G1 X145.306Y106.544
G1 X144.876
G1 X144.449Y106.592
G1 X144.033Y106.707
G1 X143.794Y106.857
G1 X143.623Y107.072
G1 X143.529Y107.33
G1 Y107.612
G1 X143.585Y107.843
G1 X143.704Y108.044
G1 X143.875Y108.203
G1 X144.088Y108.31
G1 X144.564Y108.425
G1 X145.048Y108.46
G1 X145.532Y108.414
G1 X146.004Y108.289
G1 X146.141Y108.216
G1 X146.26Y108.123
G1 X146.359Y108.011
G1 X146.436Y107.885
G1 X146.491Y107.747
G1 X146.52Y107.6
G1 Y107.449
G1 X146.5Y107.296
G1 X146.391Y107.045
G1 X146.218Y106.84
G1 X145.995Y106.692
G1 X145.733Y106.612
G0 X148.832Y106.875
G1 X148.871Y106.77
G1 X148.933Y106.685
G1 X149.008Y106.612
G1 X149.095Y106.555
G1 X149.192Y106.515
G1 X149.599Y106.433
G1 X150.012Y106.404
G1 X150.425Y106.428
G1 X150.833Y106.506
G1 X151.013Y106.593
G1 X151.143Y106.736
G1 X151.211Y106.917
G1 Y107.116
G1 X151.113Y107.284
G1 X150.977Y107.415
G1 X150.81Y107.503
G1 X150.621Y107.542
G1 X150.267Y107.582
G1 X149.912
G1 X149.557Y107.555
G1 X149.207Y107.489
G1 X149.027Y107.4
G1 X148.898Y107.256
G1 X148.829Y107.075
G1 Y106.875
G0 X148.53Y106.83
G1 Y107.112
G1 X148.585Y107.343
G1 X148.705Y107.544
G1 X148.876Y107.703
G1 X149.089Y107.81
G1 X149.564Y107.925
G1 X150.048Y107.96
G1 X150.532Y107.914
G1 X151.005Y107.789
G1 X151.141Y107.716
G1 X151.26Y107.623
G1 X151.359Y107.511
G1 X151.437Y107.385
G1 X151.491Y107.247
G1 X151.521Y107.1
G1 Y106.949
G1 X151.5Y106.796
G1 X151.391Y106.545
G1 X151.218Y106.34
G1 X150.995Y106.192
G1 X150.733Y106.112
G1 X150.306Y106.044
G1 X149.876
G1 X149.449Y106.092
G1 X149.033Y106.207
G1 X148.794Y106.357
G1 X148.623Y106.572
G1 X148.53Y106.83
G0 X141.207Y105.835
G1 X141.112Y106.003
G1 X140.977Y106.134
G1 X140.81Y106.222
G1 X140.621Y106.261
G1 X140.267Y106.3
G1 X139.911
G1 X139.557Y106.274
G1 X139.207Y106.208
G1 X139.027Y106.119
G1 X138.897Y105.975
G1 X138.829Y105.794
G1 Y105.594
G1 X138.884Y105.471
G1 X138.964Y105.367
G1 X139.068Y105.286
G1 X139.191Y105.234
G1 X139.599Y105.152
G1 X140.012Y105.123
G1 X140.425Y105.147
G1 X140.833Y105.224
G1 X141.013Y105.312
G1 X141.142Y105.455
G1 X141.211Y105.636
G1 Y105.835
G0 X141.52Y105.819
G1 Y105.668
G1 X141.5Y105.515
G1 X141.391Y105.264
G1 X141.218Y105.059
G1 X140.994Y104.911
G1 X140.733Y104.831
G1 X140.306Y104.763
G1 X139.876
G1 X139.449Y104.811
G1 X139.033Y104.926
G1 X138.794Y105.076
G1 X138.623Y105.29
G1 X138.529Y105.549
G1 Y105.83
G1 X138.544Y105.936
G1 X138.574Y106.038
G1 X138.66Y106.201
G1 X138.777Y106.34
G1 X138.922Y106.451
G1 X139.088Y106.529
G1 X139.564Y106.644
G1 X140.048Y106.679
G1 X140.532Y106.633
G1 X141.004Y106.508
G1 X141.141Y106.435
G1 X141.26Y106.341
G1 X141.359Y106.23
G1 X141.436Y106.103
G1 X141.491Y105.965
G1 X141.52Y105.819
G0 X141.469Y104.232
G1 Y103.821
G1 X141.058
G1 Y104.232
G1 X141.469
G0 X139.904Y102.764
G1 X139.711Y102.853
G1 X139.493Y102.868
G1 X139.274Y102.852
G1 X139.079Y102.764
G1 X138.926Y102.615
G1 X138.83Y102.417
G1 X138.818Y102.303
G1 X138.831Y102.189
G1 X138.956Y101.956
G1 X139.151Y101.791
G1 X139.393Y101.707
G1 X139.657Y101.719
G1 X139.773Y101.748
G1 X139.879Y101.799
G1 X139.973Y101.871
G1 X140.051Y101.962
G1 X140.109Y102.066
G1 X140.144Y102.179
G1 X140.156Y102.296
G1 X140.144Y102.415
G1 X140.054Y102.614
G1 X139.904Y102.764
G0 X140.087Y102.908
G1 X140.229Y102.794
G1 X140.342Y102.653
G1 X140.422Y102.491
G1 X140.466Y102.314
G1 X140.454Y102.022
G1 X140.346Y101.758
G1 X140.158Y101.544
G1 X139.902Y101.401
G1 X139.612Y101.336
G1 X139.32Y101.35
G1 X139.042Y101.439
G1 X138.793Y101.601
G1 X138.655Y101.773
G1 X138.564Y101.969
G1 X138.521Y102.182
G1 Y102.401
G1 X138.573Y102.569
G1 X138.643Y102.723
G1 X138.736Y102.862
G1 X138.85Y102.983
G1 X138.983Y103.083
G1 X139.131Y103.161
G1 X139.292Y103.213
G1 X139.463Y103.238
G1 X139.809Y103.27
G1 X140.155
G1 X140.498Y103.225
G1 X140.837Y103.147
G1 X141.003Y103.079
G1 X141.151Y102.984
G1 X141.277Y102.865
G1 X141.38Y102.727
G1 X141.456Y102.573
G1 X141.504Y102.407
G1 X141.522Y102.232
G1 X141.507Y102.053
G1 X141.424Y101.8
G1 X141.266Y101.594
G1 X141.049Y101.453
G1 X140.789Y101.392
G1 X140.757Y101.738
G1 X140.871Y101.766
G1 X141.018Y101.827
G1 X141.131Y101.931
G1 X141.202Y102.068
G1 X141.222Y102.225
G1 X141.189Y102.414
G1 X141.1Y102.58
G1 X140.966Y102.711
G1 X140.793Y102.796
G1 X140.446Y102.888
G1 X140.087Y102.908
G0 X140.385Y100.962
G1 X140.601Y100.982
G1 X140.789Y100.959
G1 X140.967Y100.9
G1 X141.129Y100.807
G1 X141.271Y100.682
G1 X141.386Y100.532
G1 X141.466Y100.363
G1 X141.512Y100.181
G1 Y99.992
G1 Y99.815
G1 X141.468Y99.647
G1 X141.396Y99.494
G1 X141.296Y99.358
G1 X141.173Y99.243
G1 X141.029Y99.152
G1 X140.868Y99.09
G1 X140.693Y99.059
G1 X140.645Y99.419
G1 X140.788Y99.456
G1 X140.892Y99.489
G1 X140.986Y99.542
G1 X141.069Y99.612
G1 X141.137Y99.698
G1 X141.186Y99.795
G1 X141.215Y99.9
G1 Y100.008
G1 Y100.116
G1 X141.175Y100.231
G1 X141.118Y100.335
G1 X141.042Y100.427
G1 X140.949Y100.502
G1 X140.843Y100.558
G1 X140.728Y100.591
G1 X140.61Y100.602
G1 X140.491Y100.589
G1 X140.304Y100.518
G1 X140.159Y100.391
G1 X140.066Y100.221
G1 X140.038Y100.024
G1 X140.051Y99.896
G1 X140.078Y99.77
G1 X139.762Y99.81
G1 Y99.868
G1 Y100.058
G1 X139.684Y100.228
G1 X139.56Y100.365
G1 X139.392Y100.455
G1 X139.224Y100.468
G1 X139.068Y100.421
G1 X138.938Y100.322
G1 X138.849Y100.179
G1 X138.812Y99.984
G1 X138.849Y99.796
G1 X138.952Y99.635
G1 X139.114Y99.52
G1 X139.227Y99.48
G1 X139.345Y99.455
G1 X139.281Y99.095
G1 X139.049Y99.156
G1 X138.846Y99.276
G1 X138.683Y99.446
G1 X138.57Y99.658
G1 X138.525Y99.875
G1 Y100.096
G1 X138.546Y100.209
G1 X138.585Y100.351
G1 X138.649Y100.479
G1 X138.734Y100.591
G1 X138.838Y100.684
G1 X138.957Y100.758
G1 X139.089Y100.808
G1 X139.229Y100.833
G1 X139.376
G1 X139.538Y100.784
G1 X139.68Y100.698
G1 X139.795Y100.579
G1 X139.878Y100.433
G1 X139.916Y100.556
G1 X140.03Y100.741
G1 X140.19Y100.879
G1 X140.385Y100.962
G0 X135.435Y101.273
G1 X134.111
G1 X135.435Y100.353
G1 Y101.273
G0 X135.766Y101.273
G1 Y99.999
G1 X135.435
G1 X133.532Y101.339
G1 Y101.633
G1 X135.435
G1 Y102.03
G1 X135.766
G1 Y101.633
G1 X136.469
G1 Y101.273
G1 X135.766
G0 X135.425Y102.786
G1 X135.833Y102.864
G1 X136.013Y102.951
G1 X136.143Y103.094
G1 X136.211Y103.275
G1 Y103.475
G1 X136.113Y103.642
G1 X135.977Y103.773
G1 X135.81Y103.862
G1 X135.621Y103.9
G1 X135.267Y103.94
G1 X134.912
G1 X134.557Y103.913
G1 X134.207Y103.847
G1 X134.027Y103.759
G1 X133.898Y103.615
G1 X133.829Y103.433
G1 Y103.233
G1 X133.884Y103.11
G1 X133.964Y103.006
G1 X134.069Y102.925
G1 X134.192Y102.873
G1 X134.599Y102.791
G1 X135.012Y102.762
G1 X135.425Y102.786
G0 X135.733Y102.471
G1 X135.306Y102.402
G1 X134.876
G1 X134.449Y102.45
G1 X134.033Y102.565
G1 X133.794Y102.715
G1 X133.623Y102.93
G1 X133.53Y103.188
G1 Y103.47
G1 X133.544Y103.577
G1 X133.62Y103.774
G1 X133.741Y103.943
G1 X133.899Y104.076
G1 X134.089Y104.168
G1 X134.564Y104.283
G1 X135.048Y104.318
G1 X135.532Y104.272
G1 X136.005Y104.147
G1 X136.141Y104.074
G1 X136.26Y103.981
G1 X136.359Y103.869
G1 X136.437Y103.743
G1 X136.491Y103.605
G1 X136.521Y103.459
G1 Y103.307
G1 X136.5Y103.155
G1 X136.391Y102.903
G1 X136.218Y102.698
G1 X135.995Y102.55
G1 X135.733Y102.471
G0 X136.058Y104.881
G1 Y105.292
G1 X136.469
G1 Y104.881
G1 X136.058
G0 X135.425Y106.207
G1 X135.833Y106.284
G1 X136.013Y106.372
G1 X136.143Y106.515
G1 X136.211Y106.696
G1 Y106.895
G1 X136.112Y107.063
G1 X135.977Y107.194
G1 X135.81Y107.282
G1 X135.621Y107.321
G1 X135.267Y107.361
G1 X134.912
G1 X134.557Y107.334
G1 X134.207Y107.268
G1 X134.028Y107.179
G1 X133.898Y107.035
G1 X133.829Y106.854
G1 Y106.654
G1 X133.884Y106.531
G1 X133.964Y106.427
G1 X134.069Y106.346
G1 X134.192Y106.294
G1 X134.599Y106.212
G1 X135.012Y106.183
G1 X135.425Y106.207
G0 X135.733Y105.891
G1 X135.306Y105.823
G1 X134.876
G1 X134.449Y105.871
G1 X134.033Y105.986
G1 X133.794Y106.136
G1 X133.623Y106.351
G1 X133.53Y106.609
G1 Y106.891
G1 X133.544Y106.996
G1 X133.574Y107.098
G1 X133.66Y107.261
G1 X133.778Y107.4
G1 X133.922Y107.511
G1 X134.089Y107.589
G1 X134.564Y107.704
G1 X135.048Y107.739
G1 X135.532Y107.693
G1 X136.005Y107.568
G1 X136.141Y107.495
G1 X136.26Y107.402
G1 X136.359Y107.29
G1 X136.436Y107.163
G1 X136.491Y107.026
G1 X136.521Y106.879
G1 Y106.728
G1 X136.5Y106.575
G1 X136.391Y106.324
G1 X136.218Y106.119
G1 X135.995Y105.971
G1 X135.733Y105.891
G0 X135.425Y108.488
G1 X135.833Y108.566
G1 X136.013Y108.653
G1 X136.143Y108.796
G1 X136.211Y108.977
G1 Y109.176
G1 X136.113Y109.344
G1 X135.977Y109.475
G1 X135.81Y109.563
G1 X135.621Y109.602
G1 X135.267Y109.642
G1 X134.912
G1 X134.557Y109.615
G1 X134.207Y109.549
G1 X134.027Y109.46
G1 X133.898Y109.316
G1 X133.829Y109.135
G1 Y108.935
G1 X133.871Y108.83
G1 X133.933Y108.745
G1 X134.008Y108.673
G1 X134.095Y108.615
G1 X134.192Y108.575
G1 X134.599Y108.493
G1 X135.012Y108.464
G1 X135.425Y108.488
G0 X135.733Y108.173
G1 X135.306Y108.104
G1 X134.876
G1 X134.449Y108.152
G1 X134.033Y108.267
G1 X133.794Y108.417
G1 X133.623Y108.632
G1 X133.53Y108.89
G1 Y109.172
G1 X133.585Y109.403
G1 X133.705Y109.604
G1 X133.876Y109.763
G1 X134.089Y109.87
G1 X134.564Y109.985
G1 X135.048Y110.02
G1 X135.532Y109.974
G1 X136.005Y109.849
G1 X136.141Y109.776
G1 X136.26Y109.683
G1 X136.359Y109.571
G1 X136.437Y109.445
G1 X136.491Y109.307
G1 X136.521Y109.161
G1 Y109.009
G1 X136.5Y108.856
G1 X136.391Y108.605
G1 X136.218Y108.4
G1 X135.995Y108.252
G1 X135.733Y108.173
G0 X138.829Y108.075
G1 Y107.875
G1 X138.871Y107.77
G1 X138.932Y107.685
G1 X139.007Y107.612
G1 X139.095Y107.555
G1 X139.191Y107.515
G1 X139.599Y107.433
G1 X140.012Y107.404
G1 X140.425Y107.428
G1 X140.833Y107.506
G1 X141.013Y107.593
G1 X141.142Y107.736
G1 X141.211Y107.917
G1 Y108.116
G1 X141.112Y108.284
G1 X140.977Y108.415
G1 X140.81Y108.503
G1 X140.621Y108.542
G1 X140.267Y108.582
G1 X139.911
G1 X139.557Y108.555
G1 X139.207Y108.489
G1 X139.027Y108.4
G1 X138.897Y108.256
G1 X138.829Y108.075
G0 X138.526Y108.112
G1 X138.585Y108.343
G1 X138.704Y108.544
G1 X138.875Y108.703
G1 X139.088Y108.81
G1 X139.564Y108.925
G1 X140.048Y108.96
G1 X140.532Y108.914
G1 X141.004Y108.789
G1 X141.141Y108.716
G1 X141.26Y108.623
G1 X141.359Y108.511
G1 X141.436Y108.385
G1 X141.491Y108.247
G1 X141.52Y108.1
G1 Y107.949
G1 X141.5Y107.796
G1 X141.391Y107.545
G1 X141.218Y107.34
G1 X140.994Y107.192
G1 X140.733Y107.112
G1 X140.306Y107.044
G1 X139.876
G1 X139.449Y107.092
G1 X139.033Y107.207
G1 X138.794Y107.357
G1 X138.623Y107.572
G1 X138.529Y107.83
G1 Y108.112
G0 X152.522Y115.352
G1 Y78.352
G1 Y115.352
G0 X157.522Y114.352
G1 Y78.352
G1 Y114.352
G0 X162.522Y113.352
G1 Y78.352
G1 Y113.352
G0 X165.008Y91.975
G1 X166.469
G1 Y91.617
G1 X165.129
G1 X164.999
G1 X164.875Y91.598
G1 X164.761Y91.541
G1 X164.664Y91.455
G1 X164.613Y91.302
G1 Y91.145
G1 X164.66Y90.996
G1 X164.755Y90.866
G1 X164.862Y90.794
G1 X164.979Y90.744
G1 X165.104Y90.719
G1 X166.469
G1 Y90.357
G1 X165.087
G1 X164.954
G1 X164.829Y90.325
G1 X164.721Y90.254
G1 X164.636Y90.153
G1 X164.606Y89.999
G1 X164.622Y89.847
G1 X164.683Y89.706
G1 X164.785Y89.587
G1 X164.92Y89.518
G1 X165.063Y89.471
G1 X165.213Y89.45
G1 X165.365
G1 X166.469
G1 Y89.093
G1 X164.342
G1 Y89.415
G1 X164.64
G1 X164.499Y89.532
G1 X164.405Y89.649
G1 X164.339Y89.778
G1 X164.3Y89.915
G1 X164.288Y90.057
G1 X164.303Y90.198
G1 X164.345Y90.334
G1 X164.413Y90.462
G1 X164.509Y90.577
G1 X164.584Y90.625
G1 X164.666Y90.661
G1 X164.503Y90.797
G1 X164.393Y90.943
G1 X164.322Y91.108
G1 X164.292Y91.285
G1 X164.304Y91.467
G1 X164.363Y91.659
G1 X164.48Y91.814
G1 X164.643Y91.92
G1 X164.838Y91.965
G1 X165.008Y91.975
G0 X164.153Y80.363
G1 X164.176
G1 X164.21Y80.32
G1 Y80.273
G1 X164.173Y80.244
G1 X163.963Y80.159
G1 X163.929Y80.142
G1 X166.041
G1 X166.111
G1 X165.865Y80.248
G1 X165.845Y80.271
G1 Y80.3
G1 X165.861Y80.347
G1 X165.912Y80.361
G1 X165.95Y80.347
G1 X166.452Y80.151
G1 X166.504Y80.127
G1 X166.521Y80.101
G1 Y80.066
G1 Y80.045
G1 X166.482Y80.022
G1 X166.444Y80.005
G1 X166.027Y79.841
G1 X165.912Y79.798
G1 X165.874
G1 X165.838Y79.846
G1 X165.853Y79.898
G1 X165.889Y79.92
G1 X166.119Y80.013
G1 X165.023
G1 X163.929
G1 X163.961Y80
G1 X164.125Y79.936
G1 X164.173Y79.915
G1 X164.196Y79.9
G1 Y79.886
G1 X164.213Y79.858
G1 Y79.831
G1 X164.195Y79.816
G1 X164.177Y79.804
G1 X164.151
G1 X164.114
G1 X163.642Y79.99
G1 X163.562Y80.024
G1 X163.534Y80.042
G1 Y80.059
G1 Y80.098
G1 X163.546Y80.127
G1 X163.824Y80.24
G1 X164.13Y80.358
G1 X164.153
G0 X136.469Y90.738
G1 X134.342
G1 Y91.06
G1 X134.64
G1 X134.499Y91.177
G1 X134.406Y91.294
G1 X134.339Y91.423
G1 X134.3Y91.56
G1 X134.288Y91.702
G1 X134.303Y91.843
G1 X134.345Y91.979
G1 X134.414Y92.107
G1 X134.509Y92.222
G1 X134.584Y92.27
G1 X134.666Y92.306
G1 X134.503Y92.442
G1 X134.393Y92.588
G1 X134.322Y92.753
G1 X134.292Y92.93
G1 X134.305Y93.112
G1 X134.363Y93.304
G1 X134.48Y93.459
G1 X134.643Y93.565
G1 X134.838Y93.609
G1 X135.009Y93.62
G1 X136.469
G1 Y93.262
G1 X135.129
G1 X134.999
G1 X134.875Y93.243
G1 X134.761Y93.185
G1 X134.664Y93.099
G1 X134.613Y92.947
G1 Y92.79
G1 X134.66Y92.64
G1 X134.755Y92.511
G1 X134.862Y92.439
G1 X134.98Y92.389
G1 X135.104Y92.364
G1 X135.233
G1 X136.469
G1 Y92.002
G1 X135.087
G1 X134.954
G1 X134.83Y91.97
G1 X134.721Y91.899
G1 X134.636Y91.797
G1 X134.606Y91.644
G1 X134.622Y91.492
G1 X134.683Y91.351
G1 X134.785Y91.232
G1 X134.92Y91.162
G1 X135.064Y91.116
G1 X135.213Y91.095
G1 X135.365
G1 X136.469
G1 Y90.738
M9
G1 S0
M5
G90
; return to user-defined finish pos
G0 X0 Y0
M2
